/* XPM */
static char *_f3d905577cd47d0be6fa5272b6d339dGQcx6HgbnuTLwsB0[] = {
/* columns rows colors chars-per-pixel */
"64 64 211 2 ",
"   c #000000",
".  c #020609",
"X  c #040A0D",
"o  c #050E12",
"O  c #061116",
"+  c #071319",
"@  c #08161C",
"#  c #09181F",
"$  c #0A1C24",
"%  c #0C1F28",
"&  c #0D222B",
"*  c #0E2631",
"=  c #0F2834",
"-  c #102A36",
";  c #112D3A",
":  c #12313E",
">  c #143544",
",  c #163B4C",
"<  c #173E50",
"1  c #183F52",
"2  c #184153",
"3  c #1A4659",
"4  c #1B495E",
"5  c #1D4D62",
"6  c #1D5066",
"7  c #1E526A",
"8  c #20556D",
"9  c #215A74",
"0  c #235E79",
"q  c #24617D",
"w  c #33627B",
"e  c #2F2FBF",
"r  c #302FB4",
"t  c #312FBF",
"y  c #3132B6",
"u  c #3131BE",
"i  c #353CBA",
"p  c #256582",
"a  c #266987",
"s  c #276B8A",
"d  c #296E8D",
"f  c #336983",
"g  c #2A7292",
"h  c #2C7798",
"j  c #2C7A9B",
"k  c #327B9C",
"l  c #397998",
"z  c #2E7DA1",
"x  c #3B7DB9",
"c  c #312FC0",
"v  c #3232C2",
"b  c #3638C5",
"n  c #353BCA",
"m  c #383FC9",
"M  c #3A43C8",
"N  c #3A43D3",
"B  c #3E4AD6",
"V  c #3F4BDA",
"C  c #2F4DE5",
"Z  c #324DE3",
"A  c #3253E6",
"S  c #3759E7",
"D  c #335DE9",
"F  c #3463EA",
"G  c #3A65E9",
"H  c #366BEC",
"J  c #3673EF",
"K  c #3E76EE",
"L  c #3876F0",
"P  c #3778F1",
"I  c #397DF2",
"U  c #464ECC",
"Y  c #4259C6",
"T  c #4349D0",
"R  c #404EDC",
"E  c #4655D7",
"W  c #4775CB",
"Q  c #5473DE",
"!  c #4354E1",
"~  c #485DE7",
"^  c #4E64E5",
"/  c #4C67EE",
"(  c #4A6CE9",
")  c #5269E3",
"_  c #4975EB",
"`  c #557AEE",
"'  c #496BF7",
"]  c #4B77F1",
"[  c #4D73FC",
"{  c #4C7EFC",
"}  c #5475F6",
"|  c #537CF5",
" . c #2F81A6",
".. c #3082A7",
"X. c #3185AA",
"o. c #3C85A9",
"O. c #358CB3",
"+. c #3B8ABA",
"@. c #3B90B7",
"#. c #3791B9",
"$. c #3A94BD",
"%. c #4595BC",
"&. c #569ABE",
"*. c #3E8BC2",
"=. c #3E93C2",
"-. c #3E99C5",
";. c #3D9CC8",
":. c #3983F3",
">. c #3B8BF5",
",. c #3D94F7",
"<. c #3D95F8",
"1. c #3E9BF9",
"2. c #3FA3FA",
"3. c #3FA8FB",
"4. c #439BC6",
"5. c #4798CA",
"6. c #439CCB",
"7. c #5092CC",
"8. c #5489D3",
"9. c #4A97D7",
"0. c #6399D9",
"q. c #4DA4CE",
"w. c #4EA8CF",
"e. c #49A5D4",
"r. c #57ABD7",
"t. c #70A8CC",
"y. c #65ACD8",
"u. c #7EABD0",
"i. c #6BB7DA",
"p. c #76BDDE",
"a. c #4B89E5",
"s. c #4E90E3",
"d. c #5C96EA",
"f. c #4C83F3",
"g. c #4888F8",
"h. c #5788F9",
"j. c #4697F7",
"k. c #5496F6",
"l. c #5C9AF9",
"z. c #6595E9",
"x. c #6394F4",
"c. c #6B93F0",
"v. c #6397F8",
"b. c #5BA9E3",
"n. c #56A7E8",
"m. c #46A6FA",
"M. c #42AEFC",
"N. c #5BA3F4",
"B. c #55ABF7",
"V. c #43B4FC",
"C. c #46BBFE",
"Z. c #49BCFE",
"A. c #55B8FA",
"S. c #68AEE7",
"D. c #71B0E0",
"F. c #63A3FA",
"G. c #6CA4FA",
"H. c #67A9FE",
"J. c #6AACFD",
"K. c #74AEF8",
"L. c #6AB6F6",
"P. c #6CB3FD",
"I. c #6EB9FC",
"U. c #77B5F8",
"Y. c #73B5FD",
"T. c #74BBFC",
"R. c #7CBCFC",
"E. c #4BC2FE",
"W. c #4ECAFE",
"Q. c #54C4FD",
"!. c #55CBFD",
"~. c #5CCDFD",
"^. c #59D1FD",
"/. c #6AC3E6",
"(. c #77C2E9",
"). c #67C8FD",
"_. c #75C6F7",
"`. c #7BC2FB",
"'. c #65D4FD",
"]. c #6AD4FD",
"[. c #6AD8FE",
"{. c #76D7FC",
"}. c #75E2FD",
"|. c #7DE1FD",
" X c #82B9EB",
".X c #84B9F5",
"XX c #83BCFE",
"oX c #8BCCEB",
"OX c #8BCAEE",
"+X c #85C1FE",
"@X c #8DC5FD",
"#X c #8AC9F8",
"$X c #91C8FA",
"%X c #9ACDFD",
"&X c #87D8F6",
"*X c #84DDFA",
"=X c #97D6F6",
"-X c #A9DAF2",
";X c #A3D3FA",
":X c #A9D5FC",
">X c #84E4FC",
",X c #81EAFD",
"<X c #95E8FC",
"1X c #9BECFA",
"2X c #8BF3FD",
"3X c #97F7FB",
"4X c #A6E9F9",
"5X c #A8F8FB",
"6X c #B4FBFB",
"7X c #BFFAFB",
"8X c #C4F2FB",
/* pixels */
"                                                                                                                                ",
"                                                                                                                                ",
"                                                                                                                                ",
"                                                                                                                                ",
"                                                                                                                                ",
"                                                                                                                                ",
"                                                              . . . . .                                                         ",
"                                                        . . X o o O o o X .                                                     ",
"                                                      . X o + $ $ & $ $ + X .                                                   ",
"                                                    . X O $ * : > , > - & @ o .                                                 ",
"                                                  . X + % ; 2 6 9 f w 4 > & @ X .                                               ",
"                                                . X + & > 5 q k &.oXu.d 6 > & O X                                               ",
"                                              . X + & > 6 d @.p.:X%X$X&.s 4 - # X .                                             ",
"                                            . X O & > 7 g 4.OX:X%X$X@XD.O.q , & O .                                             ",
"                                            . o $ : 5 g 4.OX:X%X@X+X+XU.q.j 5 - @ X .                                           ",
"                                          . X @ - 3 s $.OX:X%X@X+XR.R.R.y.O.0 , $ o .                                           ",
"                                          X O & , 0 O.(.:X%X@XXXR.Y.Y.T.S.6.g 3 * + X                                           ",
"                                        . o $ ; 5 j i.:X%X@XXXU.Y.Y.P.P.U.r...7 ; # X .                                         ",
"                                        . O & , p %.-X;X@XXXU.P.J.J.J.P.Y.b.#.q , $ o .                                         ",
"                                      . X @ - 5 j p.8X%X+XR.Y.J.H.H.J.P.Y.d.6.g 3 * O X                                         ",
"                                      . o $ > 0 @.=X7X;XR.Y.P.J.H.H.J.P.P.k.9...7 - @ X .                                       ",
"                                      . O & 2 d w.4X5X4XR.Y.P.J.J.J.P.P.P.g.9.#.0 > $ o .                                       ",
"                                    . X @ - 5 z /.4X<X1X#XY.P.P.P.P.P.I.H.{ a.-.s 2 & O .                                       ",
"                                    . X $ > 9 O.&X<X>X>X&XT.I.P.P.P.P.T.F.{ ] 5.j 4 = + X                                       ",
"                                    . o $ , p -.&X{.{.{.*X`.T.I.I.I.T.`.l.g.f.9.X.7 ; @ X                                       ",
"                                    . O & 2 d w.*X].'.'.*X=XT.I.I.T.`.`.k.g.g.s.#.0 > $ o .                                     ",
"                                    X + = 4 j i.{.'.~.'.>X8X#X`.T.T.T.K.k.j.g.s.=.p , $ o .                                     ",
"                                    X @ - 7 ../.|.[.'.[.1X8X.XJ.F.l.l.Q E Q h.s.=.d 2 & O .                                     ",
"                                    X $ > 9 O._.,X}.}.}.<Xc._ h.h.h.h.U v u m Y *.h 3 & O .                                     ",
"                                    o $ > q $.*X2X,X,X>Xd.S G { [ [ ^ b c t e y +.j 4 * O .                                     ",
"                                  . o $ , p 6.1X3X2X2XL.S A S [ ' ' T u c t c y x j 4 * + .                                     ",
"                                  . o & < s q.5X5X3X&X( Z C A ' [ ^ b c c c c r x j 4 * + .                                     ",
"                                  . o & 2 s r.6X6X3Xz.Z C C A ' h.E v v v v v y *.j 4 * + .                                     ",
"                                  . O & 2 d r.6X6XOXS C A A A G ` M b n n n n i +.h 3 * O .                                     ",
"                                  . o & 2 s q.4X6Xz.A A S D D G ^ M m m N N N M =.g 2 & O .                                     ",
"                                  . o & , a 6.=X4X_ A D D F F H ( B N V B B B Y =.s 2 & o .                                     ",
"                                    o $ , p -.L.K.G D F F H H H _ E V R R R R Y $.a , $ o .                                     ",
"                                    o $ > 0 $.N.f.F F H H H J J K ^ ! ! ! ! ! W #.q > $ o .                                     ",
"                                    X $ > 9 O.n.h.H H H J L I I :.] ~ ~ ~ ~ ~ W O.9 > $ X                                       ",
"                                    X @ - 7 ..b.v.K H J P I :.:.>.f.( / / / ^ 7.X.7 - @ X                                       ",
"                                    X + = 4 h r.G.] L I :.>.>.>.,.j.| } } } ) 5.j 4 = + X                                       ",
"                                    . O & 2 s 5.G.f.I :.>.,.<.1.1.j.h.| | | Q 4.g 2 & O .                                       ",
"                                    . o $ > 0 O.z.k.g.>.,.1.1.2.m.m.l.x.h.h.8.$.p , % o .                                       ",
"                                    . X @ - 5 j 9.x.j.,.1.2.3.M.M.M.B.v.v.x.7.O.9 > $ X .                                       ",
"                                      . O & , q #.b.N.j.2.3.M.V.V.C.Z.F.v.x.5. .6 - @ X .                                       ",
"                                      . X # - 5 h e.N.m.3.M.V.C.Z.E.Q.P.G.z.4.g 3 * O X                                         ",
"                                        X O & , 0 O.n.B.M.V.C.E.W.!.!.).K.0.$.p , & o .                                         ",
"                                        . X @ - 3 d ;.n.A.C.Z.W.!.^.~.)..X7.X.8 : $ X .                                         ",
"                                          . o $ > 7 z e.A.A.Q.W.^.'.].{. X%.d 3 * + X                                           ",
"                                          . X + & < q O.b.L.Q.!.~.].{.&Xt.k 9 > $ o .                                           ",
"                                            . o # - 3 s @.S.).).{._.i.q.o.q 2 * @ X .                                           ",
"                                              . o $ : 5 s o.y.(.y.&.@.z q 3 - $ o .                                             ",
"                                              . X O % > 4 0 l l k h a 7 1 - $ O X .                                             ",
"                                                . X + $ - , 4 6 7 5 2 > * $ O X .                                               ",
"                                                  . X O $ & = - - - & $ + o X .                                                 ",
"                                                    . X o O @ @ @ @ O o X . .                                                   ",
"                                                        . . X X X X . . .                                                       ",
"                                                                                                                                ",
"                                                                                                                                ",
"                                                                                                                                ",
"                                                                                                                                ",
"                                                                                                                                ",
"                                                                                                                                ",
"                                                                                                                                "
};
