/* XPM */
static char *_71dcbb44f4749969e53c387dbdaec55fNkJLld9w35sHoV2[] = {
/* columns rows colors chars-per-pixel */
"64 64 210 2 ",
"   c #000000",
".  c #05050B",
"X  c #07090F",
"o  c #090B0D",
"O  c #060614",
"+  c #070910",
"@  c #090D14",
"#  c #0B0F1A",
"$  c #0C111B",
"%  c #111214",
"&  c #171719",
"*  c #12181C",
"=  c #0D0F23",
"-  c #121A25",
";  c #151B36",
":  c #17232A",
">  c #1E272C",
",  c #1B2337",
"<  c #262C2E",
"1  c #232B37",
"2  c #1A294F",
"3  c #1D334E",
"4  c #1D2157",
"5  c #1E355F",
"6  c #303C40",
"7  c #2C3E58",
"8  c #28306E",
"9  c #374249",
"0  c #3C4F56",
"q  c #2F4A6C",
"w  c #344569",
"e  c #395467",
"r  c #364C78",
"t  c #454C52",
"y  c #4A596F",
"u  c #555D61",
"i  c #405873",
"p  c #4F6164",
"a  c #41697D",
"s  c #4E717C",
"d  c #626F7D",
"f  c #282C87",
"g  c #292899",
"h  c #2B29A0",
"j  c #302FBF",
"k  c #3235BF",
"l  c #2B4B8B",
"z  c #3A5395",
"x  c #386499",
"c  c #3A4DA6",
"v  c #3D68AD",
"b  c #3C60BF",
"n  c #436D91",
"m  c #4355B7",
"M  c #4964A2",
"N  c #4E76A0",
"B  c #487CBD",
"V  c #312FC1",
"C  c #3232C2",
"Z  c #3439C9",
"A  c #383EC8",
"S  c #3740CE",
"D  c #3C43CB",
"F  c #3A42D2",
"G  c #3D49D6",
"H  c #3E4BDA",
"J  c #2F4DE5",
"K  c #314DE3",
"L  c #3254E6",
"P  c #3A59E5",
"I  c #3354E8",
"U  c #3759E8",
"Y  c #335DE9",
"T  c #3464EA",
"R  c #3A66E9",
"E  c #366CEC",
"W  c #3671EE",
"Q  c #3F77EF",
"!  c #3675F0",
"~  c #3877F1",
"^  c #397DF2",
"/  c #4249CC",
"(  c #414FDC",
")  c #485AD0",
"_  c #4352DD",
"`  c #4B5CDE",
"'  c #4D62D9",
"]  c #4B73D6",
"[  c #4456E1",
"{  c #485DE6",
"}  c #495EEA",
"|  c #466DE6",
" . c #4A69EB",
".. c #4675E9",
"X. c #4D77EF",
"o. c #5477E6",
"O. c #4D68F0",
"+. c #4D67F9",
"@. c #4C72F6",
"#. c #4A77F8",
"$. c #547DF6",
"%. c #5476F8",
"&. c #5C909D",
"*. c #758698",
"=. c #74949C",
"-. c #5C9ABC",
";. c #7A8DA0",
":. c #6C95BD",
">. c #75B3BC",
",. c #3A84F3",
"<. c #3B8BF5",
"1. c #3D94F7",
"2. c #3C93F9",
"3. c #3E9BF9",
"4. c #3FA2FA",
"5. c #3FA9FC",
"6. c #5A84C8",
"7. c #5690D9",
"8. c #6797C6",
"9. c #66A7D5",
"0. c #7ABDDE",
"q. c #5B87ED",
"w. c #4C85F3",
"e. c #498BF7",
"r. c #4A83FC",
"t. c #5384FD",
"y. c #568DFB",
"u. c #5888F9",
"i. c #479AF7",
"p. c #4991FC",
"a. c #5896F9",
"s. c #5E9BF9",
"d. c #618BEC",
"f. c #6895EA",
"g. c #6497FA",
"h. c #52A4ED",
"j. c #41A6FA",
"k. c #41AAFC",
"l. c #54A8FA",
"z. c #42B3FC",
"x. c #49B6FD",
"c. c #47BBFD",
"v. c #56B7FD",
"b. c #55BCFE",
"n. c #7BA9E4",
"m. c #6AA7F6",
"M. c #64A3FA",
"N. c #67AAFE",
"B. c #6BACFD",
"V. c #74ABF7",
"C. c #64B8F7",
"Z. c #6CB3FD",
"A. c #6EB9FC",
"S. c #72B4FE",
"D. c #78B6FA",
"F. c #73BBFC",
"G. c #7CBCFC",
"H. c #4BC2FE",
"J. c #4FCAFE",
"K. c #55C8FD",
"L. c #5BCAFD",
"P. c #5AD1FD",
"I. c #68C6FC",
"U. c #77C1FB",
"Y. c #64D2FD",
"T. c #6DD5FE",
"R. c #69D8FD",
"E. c #74D1FD",
"W. c #78DAFC",
"Q. c #75E2FD",
"!. c #7EE1FF",
"~. c #819EBA",
"^. c #8FACB1",
"/. c #84BAC7",
"(. c #80AAD4",
"). c #80B3D3",
"_. c #A0B6C5",
"`. c #87BEF5",
"'. c #84BDFD",
"]. c #93D0D5",
"[. c #84CFE5",
"{. c #9ED9E4",
"}. c #87C6F6",
"|. c #85C3FD",
" X c #8CC5FD",
".X c #90C7FE",
"XX c #91CAFE",
"oX c #9BCEFE",
"OX c #86D5FC",
"+X c #85DCFA",
"@X c #99D2FA",
"#X c #A7CCEC",
"$X c #A9DEE5",
"%X c #ACD4F7",
"&X c #A7D6FD",
"*X c #87E5FD",
"=X c #81EAFE",
"-X c #95EDFF",
";X c #9DE9FB",
":X c #8BF2FD",
">X c #97F8FC",
",X c #A5E2E3",
"<X c #B0F0EF",
"1X c #A3E3FA",
"2X c #BCEEFC",
"3X c #A7F7FC",
"4X c #B0F2F3",
"5X c #B3FEFD",
"6X c #C6EDF7",
"7X c #C4F7FD",
/* pixels */
"                                                                                                                                ",
"                                                                                                                                ",
"                                                                                                                                ",
"                                                                                                                                ",
"                                                                                                                                ",
"                                                                                                                                ",
"                                                                                                                                ",
"                                                                                                                                ",
"                                                                                                                                ",
"                                                                                                                                ",
"                                                                  o .                                                           ",
"                                                                9 ~.y                                                           ",
"                                                            o d #X&X(.-                                                         ",
"                                                          % *.%XoXXX Xi                                                         ",
"                                                        % ;.&XoX.X|.|.8.#                                                       ",
"                                                      o *.%XoX X|.G.G.D.7                                                       ",
"                                                      d %XoX X'.G.D.F.F.N                                                       ",
"                                                    t #XoX X'.D.S.S.S.S.9.-                                                     ",
"                                                  & _.&X.X'.D.S.B.B.B.Z.S.7                                                     ",
"                                                  u 6XoX|.G.S.B.M.N.B.Z.S.x                                                     ",
"                                                o ^.7X@XG.F.Z.B.N.N.B.Z.Z.] $                                                   ",
"                                                < $X3X1XG.S.Z.B.B.N.Z.Z.B.w.2                                                   ",
"                                                p 3X-X;X}.S.Z.Z.Z.Z.Z.F.M.r.l                                                   ",
"                                                =.-X*X*XOXF.Z.Z.Z.Z.Z.F.s.#.b +                                                 ",
"                                              % /.!.W.W.+XU.A.A.A.A.F.U.a.r...;                                                 ",
"                                              < [.T.Y.Y.+X@XF.A.A.F.U.U.p.e.e.5                                                 ",
"                                              0 +XY.L.Y.*X2X}.U.F.F.G.V.a.p.p.l                                                 ",
"                                              s !.R.Y.R.;X7X`.B.M.s.s.' ' o.y.v .                                               ",
"                                              &.=XQ.Q.Q.;Xf.X.y.t.y.q./ C k D c X                                               ",
"                                            o >.:X=X=X*Xq.U R t.#.%.` C V j V g +                                               ",
"                                            * ].>X:X:Xm.P I U @.+.O.D j V V V h O                                               ",
"                                            > ,X3X>X+X| K K I @.%.{ C V V V V g +                                               ",
"                                            6 <X5X>Xd.K J J L @.u./ C C C C C g .                                               ",
"                                            9 4X5X}.P J L L L | o.A Z Z Z Z Z g .                                               ",
"                                            > {.5Xf.L L U Y Y R ' S S S F F F f                                                 ",
"                                            $ ).1X| L Y Y T T R  .G G H G G H f                                                 ",
"                                            + 6.V.T Y T T E E E .._ H _ ( ( _ 8                                                 ",
"                                            . v w.T T E E W W ! Q  .[ [ [ [ [ 4                                                 ",
"                                              z y.E E E ! ~ ^ ^ ,.X.{ } } } ` ;                                                 ",
"                                              r g.Q W ! ^ ,.,.,.<.w. .O.O.O.) =                                                 ",
"                                              7 m.X.~ ^ ,.<.<.1.2.i.$.@.%.%.m +                                                 ",
"                                              1 f.w.^ ,.<.1.1.3.3.i.y.$.$.$.z                                                   ",
"                                              . M a.e.<.1.3.4.4.j.j.s.g.u.u.8                                                   ",
"                                                ; 7.i.1.3.4.5.k.z.z.l.g.g.d.,                                                   ",
"                                                  r l.i.4.k.z.z.c.c.b.M.g.6.#                                                   ",
"                                                  @ B l.j.z.z.c.H.H.K.Z.V.M                                                     ",
"                                                    3 h.x.z.c.H.J.K.L.I.V.w                                                     ",
"                                                    . x v.c.H.J.P.P.Y.E.n.,                                                     ",
"                                                      - 7.b.K.J.P.R.T.OX:.o                                                     ",
"                                                        q C.L.L.Y.T.W.0.e                                                       ",
"                                                        X n I.E.E.9.a :                                                         ",
"                                                          @ n -.e *                                                             ",
"                                                            . o                                                                 ",
"                                                                                                                                ",
"                                                                                                                                ",
"                                                                                                                                ",
"                                                                                                                                ",
"                                                                                                                                ",
"                                                                                                                                ",
"                                                                                                                                ",
"                                                                                                                                ",
"                                                                                                                                ",
"                                                                                                                                ",
"                                                                                                                                "
};
