/* XPM */
static char *_8d35c8f5937464e898a00ba3222b3f1Y0M1FNy0uY1FAugX[] = {
/* columns rows colors chars-per-pixel */
"64 64 245 2 ",
"   c #000000",
".  c #06060A",
"X  c #090609",
"o  c #0A090C",
"O  c #130A0F",
"+  c #0C0C13",
"@  c #0E0D19",
"#  c #130E17",
"$  c #131315",
"%  c #14131C",
"&  c #1C1B1C",
"*  c #2A1315",
"=  c #27151E",
"-  c #130F25",
";  c #141223",
":  c #191629",
">  c #1D1736",
",  c #35192A",
"<  c #231B3A",
"1  c #262528",
"2  c #312D2F",
"3  c #282638",
"4  c #3B3639",
"5  c #4B142C",
"6  c #6B123D",
"7  c #7B1839",
"8  c #44303A",
"9  c #742633",
"0  c #1F1A42",
"q  c #241949",
"w  c #2B1A58",
"e  c #361A5C",
"r  c #2A264A",
"t  c #2D2259",
"y  c #373354",
"u  c #2E1963",
"i  c #2E1A66",
"p  c #311B66",
"a  c #311C6C",
"s  c #331F72",
"d  c #2D2265",
"f  c #34256A",
"g  c #2F2170",
"h  c #342273",
"j  c #382679",
"k  c #3C2A7D",
"l  c #3C3474",
"z  c #5A1451",
"x  c #6A164D",
"c  c #493C45",
"v  c #593753",
"b  c #732E53",
"n  c #4C3178",
"m  c #632E6D",
"M  c #4F4755",
"N  c #654447",
"B  c #52526C",
"V  c #524C70",
"C  c #6F486E",
"Z  c #736969",
"A  c #82163A",
"S  c #8D2A39",
"D  c #B03639",
"F  c #C53D3E",
"G  c #BA403E",
"H  c #96613D",
"J  c #B77233",
"K  c #CA433E",
"L  c #DB543C",
"P  c #C77437",
"I  c #8B1B46",
"U  c #88114B",
"Y  c #9A174E",
"T  c #8A0656",
"R  c #930C53",
"E  c #971151",
"W  c #A31C4D",
"Q  c #A91F4D",
"!  c #8A2247",
"~  c #97264A",
"^  c #9F3046",
"/  c #9B2852",
"(  c #A92648",
")  c #B32D47",
"_  c #B42D47",
"`  c #A7314E",
"'  c #BC3344",
"]  c #B53847",
"[  c #873369",
"{  c #C03743",
"}  c #C33C41",
"|  c #93524D",
" . c #B04A50",
".. c #946E50",
"X. c #AA7449",
"o. c #8F4E73",
"O. c #AC5C6A",
"+. c #8E6D77",
"@. c #B36A6E",
"#. c #CB4F50",
"$. c #D37351",
"%. c #CB5866",
"&. c #D66B71",
"*. c #D17070",
"=. c #D79110",
"-. c #F69E1C",
";. c #D6A60F",
":. c #E3A703",
">. c #E9B501",
",. c #F7B70A",
"<. c #FBBC0A",
"1. c #F7A716",
"2. c #F9B113",
"3. c #CA8133",
"4. c #F09029",
"5. c #F0A52A",
"6. c #FDC405",
"7. c #FDC905",
"8. c #FFCE0C",
"9. c #FFD62B",
"0. c #96846F",
"q. c #A48F60",
"w. c #CC867A",
"e. c #FFD651",
"r. c #FEE277",
"t. c #3A2781",
"y. c #3D2B82",
"u. c #412D85",
"i. c #44328B",
"p. c #49368C",
"a. c #583A8E",
"s. c #463493",
"d. c #4A3694",
"f. c #4C3A96",
"g. c #473698",
"h. c #4D3B9A",
"j. c #653C88",
"k. c #523EA4",
"l. c #6E3DBB",
"z. c #564E8F",
"x. c #544B96",
"c. c #52439E",
"v. c #704F89",
"b. c #664598",
"n. c #645C95",
"m. c #666487",
"M. c #73668A",
"N. c #6B6594",
"B. c #757197",
"V. c #5444A3",
"C. c #5748A6",
"Z. c #5A4CAB",
"A. c #5D51A7",
"S. c #5E52AC",
"D. c #5B4BB5",
"F. c #5E51B4",
"G. c #6A4EAE",
"H. c #6459AC",
"J. c #6153B4",
"K. c #665AB7",
"L. c #7066A8",
"P. c #7975A9",
"I. c #6B63BA",
"U. c #736BB6",
"Y. c #736BBD",
"T. c #7976BB",
"R. c #7B74BC",
"E. c #7139CD",
"W. c #714BC8",
"Q. c #625BC6",
"!. c #6B63C3",
"~. c #7066C0",
"^. c #746CC1",
"/. c #7B74C0",
"(. c #7B74C3",
"). c #6B68D5",
"_. c #726CDA",
"`. c #7474DE",
"'. c #7778E6",
"]. c #7A76ED",
"[. c #7A7CED",
"{. c #7E7AF0",
"}. c #8C508F",
"|. c #887896",
" X c #8E4BA8",
".X c #8671B1",
"XX c #8676B9",
"oX c #827CBF",
"OX c #8338D6",
"+X c #847BC6",
"@X c #8A7CD2",
"#X c #837BEA",
"$X c #7A81ED",
"%X c #8E848C",
"&X c #918EA9",
"*X c #8A87BB",
"=X c #948CBA",
"-X c #9796B9",
";X c #9B9ABD",
":X c #AC9EB2",
">X c #B6A7AB",
",X c #A3A5BD",
"<X c #DD8B8D",
"1X c #E19484",
"2X c #CF8FA4",
"3X c #CBB0B4",
"4X c #FFE889",
"5X c #D6CABB",
"6X c #FBD6AE",
"7X c #8A86C1",
"8X c #9794C2",
"9X c #938ED0",
"0X c #9989D7",
"qX c #A68CC4",
"wX c #A798C5",
"eX c #A695DB",
"rX c #AC99DC",
"tX c #B19DDA",
"yX c #B6AEC5",
"uX c #B9A3D7",
"iX c #8A84E6",
"pX c #9689E3",
"aX c #9292EE",
"sX c #A795E0",
"dX c #9EA1EB",
"fX c #C8ACCD",
"gX c #CBB0CD",
"hX c #D4B7CC",
"jX c #DBBBCB",
"kX c #C4AAD3",
"lX c #C9ACD3",
"zX c #C6C5C7",
"xX c #D1CACF",
"cX c #E5C7C8",
"vX c #EDD3C5",
"bX c #EBD4C7",
"nX c #F2D9C4",
"mX c #F8E6C5",
"MX c #FCF6C9",
"NX c #E8E7D8",
"BX c #F7EED5",
"VX c #D7D6E6",
"CX c #F9EEE6",
"ZX c #FCF6EC",
"AX c #FFFEFB",
/* pixels */
"                                                          o 1 4 c c c 2 +                                                       ",
"                                                        . & 4 N | | N c 1 o                                                     ",
"                                                        o 2 N 3.5.6Xw.N 4 & X                                                   ",
"                                                        $ 4 H 2.8.4X6XH 8 1 X                                                   ",
"                                                        & 4 J <.7.9.e.J 8 1 X                                                   ",
"                                                        $ 8 P 2.6.6.2.P 8 & .                                                   ",
"                                                      . 1 N $.4.1.-.4.#.N 2 o                                                   ",
"                                                  % y n.XXqX2X<X1X1X<X2X3X>X|.M 2 $ o .                                         ",
"                                              % V (.pXpXsXrXuXkXlXgXhXjXjXcXcXcX3X%XM 1 $ .                                     ",
"                                            r I.#XiXpXsXeXeXwXwXwXwXyXfXjXcXcXvXbXbX3XZ 4 $ .                                   ",
"                                          M @X{.#XiXpXeX9X7X=X=XP.*X;X,XyXcXvXnXmXZXCXbX0.4 $                                   ",
"                                        M iX{.].#XpX0X7X7X=X-X;X*X-X,XyXzXxXNXmXmXZXAXZXvX+.2 X                                 ",
"                                      3 9XiX].].iXiX+XU.*X*XT.K.S.H.U.;XzXxXNXBXMXBXAXAXBX5XZ $                                 ",
"                                    $ *XaX].].#XiX+XR.P.T.C.v...X.X...M.&XzX5XNXMXMXAXAXBXnX>X2                                 ",
"                                    B dX[.].].#X@X(.oXU.h...=.:.:.:.:.;.q.&XxXNXBXMXBXZXmXvXcXZ .                               ",
"                                  $ 8XaX].].].[.(.R.R.h.| =.:.,.,.>.>.:.;.q.>XNXNXMXmXmXnXvXcX>X1                               ",
"                                  M dX[.[.].].'.^.(.S.m =.2.<.6.7.7.7.6.>.;.%XzXNXNXmXmXnXvXcXjXB                               ",
"                                . B.aX'.[.].].'.~.R.h.| 1.,.6.6.7.9.4Xe.7.:...-XzX5XnXnXvXcXcXjX|.o                             ",
"                                : 9X$X'.[.].]._.H.H.h.J 1.,.<.6.6.e.MXr.7.,...P.;X,XvXvXcXcXjXhX:X1                             ",
"                                y dX'.'.[.].]._.H.H.k.P 1.2.<.6.6.6.8.8.6.6...L.-X;XcXcXcXjXjXhXfXc                             ",
"                                B aX_.'.[.[.].).J.H.D.X.-.1.2.<.<.6.6.6.<.,.+.Y.=X-XjXcXjXjXhXgXkXB                             ",
"                                N.$X).'.[.[.].).Z.J.D.}.4.1.1.2.,.<.<.<.<.5.G.Y.*X=XhXjXhXhXgXlXkXM.o                           ",
"                              o P.`.!.'.$X[.[.).Z.J.J.l.@.-.-.1.2.2.2.2.1.+.W.oXoX=XhXhXhXgXlXkXuX|.+                           ",
"                              $ T.).Q.'.$X[.[._.C.Z.A.D.l.@.4.-.-.1.1.4.@.l.K.R.R.wXhXgXfXkXkXuXuX.X+                           ",
"                              $ T.Q.F.'.$X[.[.'.D.V.A.F.E.E. X*.$.$.@. XE.W.I.H..XkXlXkXkXuXuXtXtX.X+                           ",
"                              $ I.F.D._.$X$X[.].Q.V.C.J.F.W.E.OXOXOXE.E.W.^.U.H.qXkXuXuXuXuXtXrXsXL.+                           ",
"                            . , I.D.C.Q.$X$X[.[.'.D.V.V.F.J.J.W.W.W.W.!.~.K.H.XXuXuXuXtXtXrXeXeX0Xv.9 * X                       ",
"                          O 5 z b.k.k.C.).$X$X[.[._.D.V.V.C.S.K.S.H.K.J.Z.A.XXrXrXrXrXeXeX0X@XXXG.o.L K 5                       ",
"                          9 ~ 7 x z z m n c.K.).`.'._.Q.D.V.k.V.c.c.V.C.K.@X0X0X0X@X.X.X}.o.o. . .] _ Q 6 .                     ",
"                          9 ' _ ( I I 7 6 6 x x b m j.b.b.j.a.a.j.j.j.v.v.v.}.o.[ | O.*.*.*.#.' ) I ( W 6 .                     ",
"                          9 ' ' ) / ( W Y R U U U A A A A 7 7 7 7 S S S D D D D F #.<X<X<X%._ ) ( / ` ( 7 X                     ",
"                        X S ' ' ( / ( Y E R T T R E Y Y W ( ( ( I ) ' ' ' ' { { { { %.&.&.#.' ' ) / ) ( ! O                     ",
"                        X S ' _ ( / W E R T T T R Y W W ( ( ) _ ~ ] ' ' } } } } } } #.&.&.#.} ' ' / ] _ ! #                     ",
"                          , 9 ( I I Y R T T T R Y W W ( ) _ _ ' /  .} } } } #.#.K F #.&.&.#.F } ' ~ ^ 9 , X                     ",
"                            X * 8 [ [ T T T R E W W ( ) _ _ ' ' ~  .} F K K K K K K #.&.&.%. . .b , = o                         ",
"                              % m.R.H.n n m z x U ! ~ ( ( ) ] ] ! ] #.#.G G G ] ] ^ o.o.C v.L.XXN.:                             ",
"                            + m.7X(.I.p.u.a w w w < = = , v C C C +.+.+.v = = , e e u h u.h.Y.+X7Xm.$                           ",
"                          . B *XoXR.I.p.s u u w > .     $ V V V M.|.|.|.V o   . < w u u j c.^.(.*X*XB .                         ",
"                          2 *X7XoX^.K.u.i u w q o       3 m.m.M.%X:X-X&XB.:     o q u u a f.~.(.oX7X*X3                         ",
"                        o m.7XoX(.~.C.s u u w @         M N.B.B.&X,X,X,X-Xy       % w u i k K.^.R.*X7Xm.o                       ",
"                        2 *X7XR.(.I.i.p i w :         + V N.N.B.&X,X,X;X;XB .       > u i a c.Y.(.oX7X.X1                       ",
"                        B 7XoX(.~.C.h p p q .         : z.n.N.B.&X,X;X;X8XN.+       o w p p y.H.^.(.oX*XM                       ",
"                      o N.+X(.^.K.i.a a u -           3 z.n.N.N.=XzX;X-X8XP.;         : p a h h.I.^.(.+Xm.o                     ",
"                      ; L.(.^.I.c.k s a q .           r z.n.n.N.-XVX-X=X7XP.>         . w a s u.Z.~.^.(.L.%                     ",
"                      3 U.~.I.Z.s.j s i ;           . t z.z.n.n.=XxX=X*X7XL.3           : h h y.h.J.~.~.L.:                     ",
"                      3 I.K.Z.c.s.j h q .           . d z.z.n.n.P.8X*XoXoXH.r           . w h t.f.V.J.I.H.;                     ",
"                      > Z.Z.V.V.s.j h -             + d k x.x.n.L.(.R.(.U.c.q             : h t.h.V.V.F.c.@                     ",
"                      ; C.Z.Z.V.s.j w o             % d h p.x.x.H.(.(.Y.A.h.t             + f t.h.C.Z.F.x.@                     ",
"                      o x.J.Z.Z.i.j >               % d a k c.x.S.~.Y.A.f.g.d .             q t.h.Z.F.J.l .                     ",
"                        n K.F.Z.i.g @               + u a a k f.Z.K.C.s.s.g.w               ; j d.Z.J.J.y                       ",
"                        r J.F.V.i.w .               . w a g g j i.h.s.s.d.s.0               X f s.Z.J.S.>                       ",
"                        % A.F.V.y.>                   q g g h h t.s.d.d.h.i.:                 q s.Z.J.x.@                       ",
"                        . n J.V.j @                   > h h h h y.d.d.h.h.k +                 - i.Z.F.f .                       ",
"                          r S.V.d .                   @ f h h j y.d.h.h.h.t                   . l Z.C.<                         ",
"                          @ x.V.q                     . w h h j u.f.f.h.i.-                     t Z.p.@                         ",
"                            y h.:                       : g h h y.d.d.f.f o                     < V.r                           ",
"                            : n @                       o t h h y.s.d.p.>                       % n %                           ",
"                            . 3 .                         > h h k s.d.f +                       o 3 .                           ",
"                              .                           o t h n p.i.<                           .                             ",
"                                                            > h k p.f @                                                         ",
"                                                            o t n u.>                                                           ",
"                                                              : j t .                                                           ",
"                                                                < ;                                                             ",
"                                                                .                                                               "
};
