/* XPM */
static char *_6fce3438b5344bd881ffc9c5f1bcf4075tyd3fQHpl6R45f[] = {
/* columns rows colors chars-per-pixel */
"64 64 253 2 ",
"   c #000000",
".  c #0B030B",
"X  c #090609",
"o  c #16070D",
"O  c #0C0C13",
"+  c #180A17",
"@  c #071115",
"#  c #161317",
"$  c #2D0E15",
"%  c #250819",
"&  c #371519",
"*  c #181628",
"=  c #1D1B36",
"-  c #2C0A24",
";  c #2E1227",
":  c #2E2B35",
">  c #46171D",
",  c #4D0F2F",
"<  c #580B36",
"1  c #680A3D",
"2  c #72113C",
"3  c #7C143E",
"4  c #4D2829",
"5  c #742F30",
"6  c #221E43",
"7  c #123D4C",
"8  c #282548",
"9  c #313251",
"0  c #352E68",
"q  c #4A1842",
"w  c #6D1848",
"e  c #4C3A59",
"r  c #732B4D",
"t  c #493570",
"y  c #723974",
"u  c #134E64",
"i  c #3C5074",
"p  c #524D53",
"a  c #76595C",
"s  c #4F4A6B",
"d  c #65576D",
"f  c #716A76",
"g  c #86183C",
"h  c #911F3A",
"j  c #8D2E37",
"k  c #97243C",
"l  c #A93239",
"z  c #B8383E",
"x  c #C73E3F",
"c  c #B7473E",
"v  c #CC443E",
"b  c #CA493D",
"n  c #D94F37",
"m  c #D34A3C",
"M  c #D94E3A",
"N  c #DD5336",
"B  c #D5533E",
"V  c #DC523A",
"C  c #E0523A",
"Z  c #8F1E44",
"A  c #972543",
"S  c #8F2D54",
"D  c #B32C46",
"F  c #A6314B",
"G  c #BC3444",
"H  c #B83B46",
"J  c #C43C42",
"K  c #C33844",
"L  c #C13757",
"P  c #E1355A",
"I  c #93534D",
"U  c #AF4B4E",
"Y  c #C94643",
"T  c #D84C49",
"R  c #DA5943",
"E  c #F74E5F",
"W  c #DD6045",
"Q  c #D86858",
"!  c #EF5564",
"~  c #FC6864",
"^  c #FB736A",
"/  c #EF7276",
"(  c #193893",
")  c #2F338A",
"_  c #453985",
"`  c #493C93",
"'  c #2D629C",
"]  c #0F4CA7",
"[  c #075AB3",
"{  c #1265BC",
"}  c #4B4288",
"|  c #574A91",
" . c #5A549A",
".. c #67498B",
"X. c #7D7485",
"o. c #4D4EAC",
"O. c #594CA5",
"+. c #5C57A4",
"@. c #5A57BC",
"#. c #6157A4",
"$. c #665CBD",
"%. c #5073BC",
"&. c #756CA7",
"*. c #6C63BA",
"=. c #7669BA",
"-. c #1279CC",
";. c #2E77C5",
":. c #5E4FC0",
">. c #5C5BC4",
",. c #6255C3",
"<. c #665CC7",
"1. c #5C64C9",
"2. c #5470C2",
"3. c #6B62C3",
"4. c #6A67C9",
"5. c #7364C5",
"6. c #766AC9",
"7. c #6775CC",
"8. c #7976C4",
"9. c #6965D4",
"0. c #746ADA",
"q. c #6876D3",
"w. c #7D73D7",
"e. c #736CE0",
"r. c #7C75E6",
"t. c #A27A9A",
"y. c #916DAE",
"u. c #8479BE",
"i. c #D26B91",
"p. c #E97290",
"a. c #D473AA",
"s. c #E27BA5",
"d. c #8577C7",
"f. c #8E76D0",
"g. c #8679D5",
"h. c #AD74C8",
"j. c #837AE5",
"k. c #837CEA",
"l. c #887DE8",
"z. c #C57CC3",
"x. c #338ABC",
"c. c #3CA0B7",
"v. c #148ADB",
"b. c #3092CA",
"n. c #2CA6D1",
"m. c #0D97E6",
"M. c #13A8F3",
"N. c #15B6FC",
"B. c #1CBCFE",
"V. c #2FB6F0",
"C. c #7388DA",
"Z. c #4CBACE",
"A. c #6C8EE4",
"S. c #53BBE6",
"D. c #7CA8E8",
"F. c #2AC2FE",
"G. c #35C6FE",
"H. c #3CCAFE",
"J. c #35D7FD",
"K. c #45CDFC",
"L. c #57CDF8",
"P. c #49D5FB",
"I. c #55D7FD",
"U. c #64D5F8",
"Y. c #4AE3FE",
"T. c #59E8FE",
"R. c #62EAFB",
"E. c #908693",
"W. c #B69793",
"Q. c #8A86BE",
"!. c #9787B3",
"~. c #9898BB",
"^. c #A599BA",
"/. c #AAA5BE",
"(. c #B9B2BD",
"). c #E3979F",
"_. c #D48AB9",
"`. c #8B88C1",
"'. c #9686C9",
"]. c #9A98C1",
"[. c #8C87D3",
"{. c #9888DA",
"}. c #AE90CB",
"|. c #A896D5",
" X c #A493DE",
".X c #AA96DC",
"XX c #AD9ADA",
"oX c #B39DDA",
"OX c #B69CD9",
"+X c #8FA6DC",
"@X c #B7A5CA",
"#X c #B0B1C7",
"$X c #B8A2D7",
"%X c #BCA4D5",
"&X c #B6A1D9",
"*X c #8C82E6",
"=X c #8982E9",
"-X c #9285E4",
";X c #9589E4",
":X c #9B8CE1",
">X c #9685E9",
",X c #9F90E0",
"<X c #A68BE5",
"1X c #B38CE6",
"2X c #A593E0",
"3X c #B796E1",
"4X c #8DB7EA",
"5X c #B0B8E4",
"6X c #CE95CE",
"7X c #C49CDB",
"8X c #CAAACC",
"9X c #D3AACA",
"0X c #C8BAC6",
"qX c #CDB2CE",
"wX c #D4B5CC",
"eX c #D8B5CA",
"rX c #D4BBCE",
"tX c #DBBBCC",
"yX c #C6A4D7",
"uX c #C4AAD3",
"iX c #CAADD2",
"pX c #D4A6D8",
"aX c #CCB2D2",
"sX c #D5B9D3",
"dX c #E3BCC6",
"fX c #C898E1",
"gX c #C5A6E1",
"hX c #ADC6EB",
"jX c #DDC4CB",
"kX c #DCC7CD",
"lX c #D3CFD0",
"zX c #DAC6D9",
"xX c #E4C6C8",
"cX c #E3CCCA",
"vX c #EBD7C8",
"bX c #E9D5CA",
"nX c #F1DDC6",
"mX c #E4CCD8",
"MX c #F9CAD2",
"NX c #E8D6DA",
"BX c #F5E7C6",
"VX c #F1E9CC",
"CX c #FBF4C5",
"ZX c #FAF4C9",
"AX c #EBE3D6",
"SX c #D0D3E9",
"DX c #E1CDE1",
"FX c #E8D7E3",
"GX c #DBEAF8",
"HX c #EBE9E7",
"JX c #F7F0E9",
"KX c #EBE6F3",
"LX c #FCFBF9",
/* pixels */
"                                                                                                                                ",
"                                                              $ > o                                                             ",
"                                                            a i.P F o                                                           ",
"                                                          4 dX).E E j                                                           ",
"                                                        . U ).~ ~ ~ ! $                                                         ",
"                                                        & ! ~ ~ ~ ~ ~ 5                                                         ",
"                                                        r ^ ^ ^ ^ ^ ^ U X                                                       ",
"                                                      p 9XMXMX).).s.a.a.e                                                       ",
"                                                # 9 d (.FXFXzX9X6Xz.h.h.y.e 9 *                                                 ",
"                                              : E.#XzXKXKXzX8X_.6X}.h.h.f.f.g.&.#                                               ",
"                                        X : X.(.sXrXrXzXzXsXeX9X9XpX8XyXOXOXXX X&.e #                                           ",
"                                      : E.sXmXkXtXtXtXtXtXtXtXeX9XwXwXqXiXuX%XOXoX.XQ.s O                                       ",
"                                    p 0XmXmXkXjXxXxXjXtXtXtXtXeXqXwXwXqXiXuX%X$XOXXX3X3Xy.w $                                   ",
"                                  d zXmXkXcXcXcXcXxXxXxXxXdXdXeX8XtXeXqXaXiXuX%X$XoXXX3XgXa.L >                                 ",
"                                p zXmXNXNXbXbXbXbXbXcXxXxXxXtXwX8XtXtXeXqXiXiXuX%X&XoXoXOXpXp.L o                               ",
"                              * (.NXNXLXJXnXnXnXnXbXbXxX0X@X/.^.].}.@XqXwXqXiXiX%X$X&XoXoX3X6Xp.4                               ",
"                              f FXNXJXLXJXBXBXBXnXnXkX0X/.~.~.~.Q.Q.u.Q.}.iXqXiXuX%X&XoXOXoX3X6Xr                               ",
"                            * 0XNXNXLXLXVXBXBXBXnXbXDXzX#X].].].`.`.Q.u.8.`.@XiXuX%X$XoXoXXX.X3Xd                               ",
"                            p FXcXAXLXJXZXCXBXBXAXHXHXDX@X&. .| |  .&.u.8.=.d.$XiXuX%XoXoX.X2X<X=.O                             ",
"                            E.FXcXNXJXZXCXCXCXVXHXJXHX~.} ) ( ( ( ) ) | *.8.3.d.%XuX%XOXXX.X2X:X[.=                             ",
"                          # 0XNXcXnXBXZXCXCXZXAXJXKX^._ ( ] [ [ [ [ ] ( ` $.3.3.'.uX%X&XXX.X X:X;Xt                             ",
"                          : zXNXbXVXBXZXCXCXVXAXHX#X} ] { v.m.M.M.m.-.[ ( ` *.3.6.$X%X$XoX.X X:X;X|                             ",
"                          p NXcXbXVXBXCXCXBXbXNXlX&.( -.M.N.B.B.B.N.N.m.[ ) O.3.5.{.%X$XoX.X X:X;X*..                           ",
"                          d FXcXbXnXBXBXBXBXcXlX#X .;.M.B.F.F.F.F.F.B.N.v.] O.3.4.f.%X&XoX.X X:X;X=.O                           ",
"                          f FXkXbXvXVXBXBXnXlX(.~. .v.B.F.G.H.H.H.G.F.B.M.{ o.3.4.g.$X&XoX.X X:X;Xw.*                           ",
"                          X.FXkXcXbXvXnXnXbX(.(.~.o.M.F.G.H.K.K.K.K.G.F.B.-.o.3.6.g.&X&XXX.X X:X;Xg.=                           ",
"                          E.DXjXxXbXbXvXbXcX(./.~.%.V.F.H.K.I.I.I.P.K.G.B.;.o.3.4.g.oXOXXX.X,X:X-Xg.=                           ",
"                          t.DXrXjXxXcXbXbXcX/.].~.%.b.G.H.P.I.I.I.P.K.G.V.;.@.$.3.d.&XoXXX.X,X:X-Xw.*                           ",
"                          X.DXrXjXkXxXxXxXxX^.`.Q.C.;.V.H.P.I.I.I.P.K.G.V.;.@.$.3.'.&XoX.X X:X;X*X6.#                           ",
"                          f zXqXrXrXjXjXxXxX@XQ.Q.Q.%.b.V.K.I.R.R.I.K.V.b.%.$.*.5.|.&XXX.X X:X-X*X*.O                           ",
"                          d sXiXaXwXrXtXtXxX8Xu.u.u.8.%.b.V.P.R.R.K.n.b.%.$.$.3.d.oXoXXX.X,X:X-Xl.#.X                           ",
"                          p aXuXiXaXqXwXtXtXtX!.8.8.8.8.%.x.b.n.n.b.;.%.$.$.3.5.|.&XXX.X X:X;X*Xj.}                             ",
"                          : uX%XuXiXqXqXwXwXtX8Xu.5.6.5.=.4.%.%.%.2.4.3.$.3.5.'.&XoX.X.X,X:X-X=Xj.0                             ",
"                          * @X%X%XuXiXiXqXwXwXwX@X=.*.3.3.3.3.3.3.6.6.6.3.3.f.oXoXXX.X X:X;X*Xj.w.8                             ",
"                          O !.$X$X%XuXuXiXqXaXwXwX@Xu.$.<.3.4.4.6.6.6.6.6.'.&XoXXX.X X:X;X-X=Xj.4.*                             ",
"                            X.&XOX$X%XuXuXiXiXiXqXqXiX}.d.6.5.5.6.6.d.'.XX&XoXXX.X.X:X:X-X=Xj.r.+.X                             ",
"                  + % .     s oXoXOX$X%X%XuXuXuXiXiXiXiXiX%XOX}.!.7XyX%XOXoXXX.X X,X:X;X*Xl.r.j.0     . - +                     ",
"                4 U S ;     : |.XXXXoX&X$X%X%X%XuXuXuXuXuXiXiXyX}.pXyXOXOX.X.X X,X:X;X*X=Xj.r.w.8     ; S c 4 X                 ",
"            X 5 R V F q     O y..X.XXXoXoXOX&X$X$X%X%X%XyXyXpX_.i.6XyX7XoX.X X:X:X;X*X=Xk.e.j.5.*     q F V B 5 o               ",
"          # I R C N H w X     ..{. X.X.XXXXXoXoXoXOXOX$XyXyXpXs.! _.pX7XoX X:X:X;X-X=Xk.r.0.*X .X   X w H N N R I #             ",
"        # I R N V V Y r +     t f.{.2X X.X.X.X.XXXXXoXOX7X7XpXp.! s.pXfX3X<X;X-X*Xl.k.r.0.w.*Xt     + r Y V V N R I #           ",
"      O I W V V V V Y S ;   # t =.f.;X:X2X X X X.X.X.XXXOXfXpXs.~ s.fX3X<X;X-X*Xl.k.r.0.0.*Xg.t O   - S Y V V V N R I O         ",
"      a Q V V V V N V S q = s t | d.g.{.:X:X:X:X:X2X2X X3X3X7X_./ _.fX1X<X-X=Xk.k.r.e.9.w.;X5._ s * q S B V N V V N Q a         ",
"    p ).V V N N V V V F .. .#._ _ *.6.w.l.-X;X;X;X:X:X:X<X1X3X6Xa.1X1X<X>Xl.k.r.r.0.9.4.g.{.O._ +. .y F V V V V N N R ).p       ",
"  # W.Q n V M V M V V H ..+.+._ 0 O.5.5.6.g.*X-X-X-X-X-X;X:X<X<Xh.<X>X>Xk.k.r.r.9.<.<.0.{.g.` _ +.+...U V M M M M V M Q W.#     ",
"  4 Q m M m M M M M M Y y +.+._ 0 ` $.<.<.<.6.g.j.l.=X=X=X*X>X-Xf.>Xl.k.r.r.0.<.<.<.<.g.g.*._ _ +.+.y Y M M M M M M M M Q 4     ",
"  & b m m M m m m m m b S  .+.` ) ) O.,.,.,.,.,.4.0.r.r.k.=X=Xj.g.k.r.e.0.9.<.,.,.,.6.g.g.O.) } +. .S b m m m m m m M T b >     ",
"  X j m m m m m m m m m F | +._ 0 = 6 O.:.:.@.$.$.,.<.<.9.9.9.9.4.9.9.1.>.<.<.,.:.<.d.d.*.9 0 _ +.| F m m m m m m m m m j X     ",
"    & c m m m m m m m m H t 8 # X     0 @.@.@.@.@.@.>.>.>.1.1.1.1.1.1.1.1.>.>.>.<.6.6.6.} X X # 8 t H m m m m m m m m b &       ",
"      5 Y v v v v v v v H w .         O 8 0  .*.=.d.[.[.[.8.7.7.7.7.1.1.1.>.@.@.$.O.0 9 *       . w H v v v v v v v Y 5         ",
"      o l Y v v v v v v G w +               s ~.#XzXKXKXSX5X+X+X+X+XC.C.q.q.q.7.7.i             % Z z v Y v v v v Y l o         ",
"        > H J J J J J J z Z -               9 #X5XSXGXGXSXhX4X4X4XD.D.A.A.A.A.A.C.9             - Z z x J J J J J H >           ",
"          5 K J J J J J l A ,               X : i S.L.U.U.U.U.U.U.U.L.L.K.V.V.n.9 X             , A l J J J J J K 5             ",
"          o j K K G G G l k < X                   u F.J.P.Y.T.T.T.T.Y.P.J.J.V.u               . < k l G G G G G j o             ",
"            % A G G G D k k 2 o                     7 c.P.Y.T.T.R.T.T.Y.J.b.7                 o 2 k k D G G G k %               ",
"              $ A D D k h h 3 %                       @ 7 ' c.Z.Z.Z.c.' 7 @                   % 3 h h k D D A &                 ",
"                & A A g g g 3 -                             X @ @ @ X                         - 3 g g g A A &                   ",
"                  % 2 g g g g ,                                                               , g g g g 2 %                     ",
"                    o < 3 3 3 < .                                                           . < w 3 w < o                       ",
"                      . , 1 2 1 o                                                           o 1 2 1 , .                         ",
"                          % < 1 %                                                           % w < %                             ",
"                            . - +                                                           + - .                               ",
"                                                                                                                                ",
"                                                                                                                                "
};
