/* XPM */
static char *_aa51281f1254eebd43c9d3ca5a58e528oeyqnWE4pOlJ19K[] = {
/* columns rows colors chars-per-pixel */
"64 64 241 2 ",
"   c #000000",
".  c #0B0201",
"X  c #06060A",
"o  c #09070A",
"O  c #020A0D",
"+  c #0C0A0E",
"@  c #160505",
"#  c #0C0C13",
"$  c #0C0F17",
"%  c #120D13",
"&  c #150F17",
"*  c #06161A",
"=  c #14121C",
"-  c #1A171A",
";  c #270603",
":  c #360702",
">  c #251A1B",
",  c #051C21",
"<  c #1A1521",
"1  c #191824",
"2  c #1C1A2B",
"3  c #1E1E33",
"4  c #221B26",
"5  c #2B1B27",
"6  c #231D2C",
"7  c #391C25",
"8  c #211F34",
"9  c #122B34",
"0  c #292021",
"q  c #27202F",
"w  c #2A212E",
"e  c #242132",
"r  c #2D2431",
"t  c #21223A",
"y  c #342934",
"u  c #342935",
"i  c #363239",
"p  c #4E0E08",
"a  c #5B0D06",
"s  c #44191C",
"d  c #561719",
"f  c #640C05",
"g  c #67191A",
"h  c #7B1B17",
"j  c #4E1D20",
"k  c #5A262F",
"l  c #4A3A3B",
"z  c #6F272D",
"x  c #183D48",
"c  c #303444",
"v  c #0C1766",
"b  c #0D196C",
"n  c #131B68",
"m  c #0F1C72",
"M  c #0F1F79",
"N  c #121E71",
"B  c #26266C",
"V  c #313671",
"C  c #4F3E49",
"Z  c #14444F",
"A  c #1C4A56",
"S  c #384C55",
"D  c #1C5465",
"F  c #275663",
"G  c #21467E",
"H  c #3A6D7C",
"J  c #4C434F",
"K  c #675054",
"L  c #4A546C",
"P  c #58467E",
"I  c #754E6B",
"U  c #7C4A69",
"Y  c #765765",
"T  c #7D5376",
"R  c #5A6179",
"E  c #746977",
"W  c #8E150D",
"Q  c #97170B",
"!  c #AC180B",
"~  c #B7190B",
"^  c #A91B13",
"/  c #BB1F13",
"(  c #9F211F",
")  c #B32213",
"_  c #BA2213",
"`  c #962525",
"'  c #8A303D",
"]  c #A4282B",
"[  c #B32924",
"{  c #B8312D",
"}  c #A4343B",
"|  c #B83A3A",
" . c #C61B06",
".. c #C41C09",
"X. c #D81F02",
"o. c #C9210A",
"O. c #D52105",
"+. c #DE2204",
"@. c #D7230A",
"#. c #C52516",
"$. c #D32A14",
"%. c #E32303",
"&. c #EA2501",
"*. c #E1280A",
"=. c #C83427",
"-. c #873848",
";. c #903E50",
":. c #A63943",
">. c #934055",
",. c #B4484E",
"<. c #A84A58",
"1. c #87586D",
"2. c #9D5974",
"3. c #A55469",
"4. c #A3556C",
"5. c #906975",
"6. c #AC616D",
"7. c #A7647E",
"8. c #B56574",
"9. c #CB4741",
"0. c #C5737D",
"q. c #0F2988",
"w. c #132585",
"e. c #152789",
"r. c #142B8E",
"t. c #11338F",
"y. c #142D91",
"u. c #133296",
"i. c #133699",
"p. c #123B9D",
"a. c #273485",
"s. c #123FA0",
"d. c #1E4C8B",
"f. c #274592",
"g. c #324F93",
"h. c #1144A5",
"j. c #134BA9",
"k. c #1559B7",
"l. c #2255A5",
"z. c #1B63B3",
"x. c #4F498A",
"c. c #624E81",
"v. c #6A5588",
"b. c #775C89",
"n. c #755D92",
"m. c #4A768B",
"M. c #4A7A99",
"N. c #716D91",
"B. c #627AA6",
"V. c #1B68C8",
"C. c #1A73CC",
"Z. c #1F75D3",
"A. c #247ADF",
"S. c #865D84",
"D. c #975C80",
"F. c #996889",
"G. c #8F728D",
"H. c #896994",
"J. c #976C95",
"K. c #9A7397",
"L. c #9B749B",
"P. c #AA6D89",
"I. c #A7738E",
"U. c #A57396",
"Y. c #A97794",
"T. c #A57599",
"R. c #A97799",
"E. c #A37C9D",
"W. c #AC7B9C",
"Q. c #B47A92",
"!. c #B27E9C",
"~. c #977CA1",
"^. c #AE7FA0",
"/. c #598E99",
"(. c #6B8185",
"). c #6990A5",
"_. c #1C90DC",
"`. c #2689E9",
"'. c #2894EF",
"]. c #2999F2",
"[. c #1FAFF1",
"{. c #28A3F5",
"}. c #25ACF7",
"|. c #32ABF6",
" X c #23B5F8",
".X c #22BCFB",
"XX c #3DB6F4",
"oX c #48BEF8",
"OX c #1FC3FD",
"+X c #20C5FD",
"@X c #3DD3FE",
"#X c #4DC9FA",
"$X c #5AE5FE",
"%X c #68ECFE",
"&X c #AE8399",
"*X c #B3829C",
"=X c #B8879D",
"-X c #BE9398",
";X c #9B82A2",
":X c #9C95A5",
">X c #AE82A1",
",X c #B383A1",
"<X c #BA86A1",
"1X c #B98AA3",
"2X c #90ACB3",
"3X c #BCA2B2",
"4X c #A6B6BA",
"5X c #C18B9A",
"6X c #C6979E",
"7X c #C28FA3",
"8X c #C692A5",
"9X c #CB99A5",
"0X c #C593A9",
"qX c #C996AA",
"wX c #CE9AAB",
"eX c #D29DAC",
"rX c #D09EB0",
"tX c #CCA3A2",
"yX c #D5A2AD",
"uX c #D9A7AC",
"iX c #D5A2B1",
"pX c #DBA5B1",
"aX c #DFA9B4",
"sX c #D3B0B4",
"dX c #E1ABB5",
"fX c #E5AEB8",
"gX c #E6B2B6",
"hX c #E9B6B6",
"jX c #E5B1B8",
"kX c #E9B4B9",
"lX c #EDB9BA",
"zX c #F2BEBC",
"xX c #D2BFC3",
"cX c #D2C8CA",
"vX c #F6C5C1",
"bX c #F8C7C2",
"nX c #FACCC4",
"mX c #EED3CD",
"MX c #FDD1C7",
"NX c #FED5CA",
"BX c #FFD8CC",
/* pixels */
"                                                                                                                                ",
"                                                            O * * * * O                                                         ",
"                                                      - S (.:X4X4X4X2X).m.A *                                                   ",
"                                                  - E sXmXBXBXBXBXBXBXNXmXcX2XF O                                               ",
"                                                l tXBXBXBXBXBXBXBXBXBXBXBXBXNXcX/.*                                             ",
"                                              K hXBXBXBXBXBXBXBXBXBXBXBXBXBXBXbXcX/.*                                           ",
"                                            l hXnXBXMXnXbXvXvXvXvXbXnXMXNXNXNXbXzXxXH                                           ",
"                                          > tXbXvXlXiX1XE.L.L.L.E.>X0XpXlXvXvXzXlXlX4X9                                         ",
"                                          5.vXkX1Xn.x.l.l.z.z.z.l.l.g.x.n.,XdXlXkXhXsXH                                         ",
"                                        > uXjXH.f.z._.[. X.X.X X}.{._.V.h.a.n.wXhXgXkX).O                                       ",
"                                        K lXL.f.C.XX$X@XOXOX+X+X.X X#XXX`.k.t.v.pXgXfX:XJ o                                     ",
"                                      K 9XeXg.k.XX%X%X@X+XOXOX.X X}.#X#X'.Z.h.a.E.gX9XdXhXK                                     ",
"                                    - 6XuXL.t.C.oX%X#X.X.X.X.X X}.}.{.].'.A.j.r.b.aX6XnX3XR +                                   ",
"                                    i uXyXv.t.V.].|.}.}.}.}.}.}.{.].'.'.`.V.h.t.x.9X6XlXB.d.=                                   ",
"                                    l 9XwXc.t.j.V.`.'.].{.{.{.].'.'.`.A.V.h.p.r.V =X5XyXg.d.=                                   ",
"                                    y &X9Xx.q.p.h.j.k.V.C.Z.Z.Z.V.V.k.j.s.p.u.w.V *XI.*Xg.G #                                   ",
"                                    = 5.7Xv.w.i.p.s.h.h.h.h.h.h.h.h.s.p.i.u.y.M P *XF.W.g.V           + o                       ",
"                                      L &XH.N r.u.i.p.p.s.s.s.p.p.p.i.u.y.r.w.b b.W.F.>XN.9         + w < X o                   ",
"                                      * R 1XV M r.y.u.u.i.i.i.u.u.u.y.r.r.e.m B R.K.H.H 9     o X   1 r < 4 4                   ",
"                                        $ G.H.n m w.r.y.y.y.y.r.r.r.r.e.w.b n b.W.J.M.,       4 4 + w w 4 r <                   ",
"                                          i ,Xb.n v m M w.w.w.w.w.w.M m v B b.W.J.B.Z         4 r 6 r 6 w w = #                 ",
"                                            C &XE.P B n v v v v v v n B P K.R.J.B.A           4 r w r r r 6 w 6                 ",
"                                              c G.,X&XG.b.v.c.c.v.b.J.W.W.K.H.b.x             4 r r w r r w r 1                 ",
"                                            . p z >.S.K.W.>X,X,X^.W.L.H.S.U -.h a a ;     . a 7 r r r r r r e $                 ",
"                                            a O.! ! ( ' ;.U T T U U U ' ` Q W Q  ...a     : o.j r r r r r e ,                   ",
"                                          X h %.! ` ~  .O.o._ _ _ o.O.O...! W ~ +.,.7.l + d *.) 7 6 r r q 9 O                   ",
"                                        0 5.6.O.) 2.3.{ $.+.%.%.%.+.@.#.:.2.;...| 7XdXyXF.Q.=.&._ g 7 5 6 *                     ",
"                                      l 6XkX6X[ } 1XqX*XP.6.3.<.<.3.7.Y.*X,X<.^ 7.pXdX8XeXaX0.$.&.O.! ^ s                       ",
"                                    C yXkXgXaX<.6.aXdXdXpXiXeXwXeXiXpXaXaX0X3.` !.pXaX8XaXaXiXP.| _ / ` -                       ",
"                                  l tXjXgXgXaXI.8XdXdXdXdXdXdXdXdXdXdXaXdXpXQ.1.W.0XyXwXdXdXaXqXJ.D.K &                         ",
"                                > -XjXdXeXpX0XY.pXdXdXdXdXdXdXdXdXaXdXdXaXaX7XJ.J.*X=X<XeXyXqXW.K.N.,                           ",
"                                1.aXjXjXyX1X!.*XdXdXdXdXdXdXdXdXdXdXdXdXdXdXqXW.b.N.;X,X!.W.R.~.m.9                             ",
"                            @ W =.9.0.pXpX<XK.=XdXdXdXdXdXdXdXdXdXaXaXaXaXdXeX*XG.9 Z m.).).M.D *                               ",
"                            f +.%.&.@.,.Q.E.J &XfXdXdXdXdXdXdXaXaXaXaXaXaXdXeX!.;X9   O * , O                                   ",
"                            d g g W ....<.L - =XdXaXdXdXdXdXdXaXaXaXaXaXaXdXwX!.;XA                                             ",
"                          + w r r w d ! ^ % & *XdXdXdXdXdXdXdXaXaXaXaXaXaXaX0XW.~.F                                             ",
"                          4 r r r r w g h X + F.aXdXdXdXdXdXaXaXaXaXaXaXaXpX,XR.~.F                                             ",
"                        + w r r r r r 5 %     I 0XdXdXdXdXdXaXaXaXaXaXaXaX0XR.R.~.x                                             ",
"                        - r r r r 6 r 1     . z Y.0XaXdXdXdXaXaXaXaXdXaX0XR.R.2.:.s                                             ",
"                        4 r w r 6 & w 2     @ ! <.R.<XwXpXaXaXaXaXpXwX<XR.I.<.#. .h                                             ",
"                        % 6 q r <   % +     @ ! $.4.R.R.!.,X<X<X,XW.R.R.F.| +.+./ k                                             ",
"                          # = 4 #           4 ,.%.#.4.R.R.R.R.U.U.U.R.F.{ %.+.{ 2.T +                                           ",
"                              X             Y <X,.@.#.>.F.U.R.R.R.T.F.] X.$.<.!.0X*Xi                                           ",
"                                          - 6XdXyX8.[ ~ ( ;.T S.S.T ' ~ [ 8.wXaXaXpXE                                           ",
"                                          C dXdXdXaX5X3.} z & % & + f } P.yXdXaXaXaX:X,                                         ",
"                                          Y fXdXdXdXaX<XW.L         & F.1XaXaXaXaXpX3Xx                                         ",
"                                          5.fXdXdXdXpX<X>XS         o 1.<XaXaXaXaXaXrXF                                         ",
"                                          Y aXdXdXdXqX*XE.i           K !.eXdXaXaXaXqXL                                         ",
"                                          C <XeXeX0X*X!.T.z @         y U.<XyXaXaXwXW.R                                         ",
"                                          k U.R.W.W.!.W.2.^ :         > F.R.!.1X<XR.K.E p                                       ",
"                                          h 4.U.R.R.U.4.[ ~ :         a <.U.R.R.R.K.J.>.Q .                                     ",
"                                          f #.| ,.,.=.o...W %         a _ :.4.7.2.3.} / Q .                                     ",
"                                          @ Q %.&.&.&...h 5 =         ; ! +.*.$.$.*.%...a                                       ",
"                                          # 5 j h h g 7 2 2 2 X       X s Q O.%.+.O.! d <                                       ",
"                                        o w y y r q 6 6 2 2 3 X       + 2 4 7 j j 7 5 6 6 o                                     ",
"                                        = y y y y y q 6 2 8 1         # 2 6 6 e r y y y r &                                     ",
"                                        = r y y y r q 6 8 3 X         X 3 6 q y y y y y y <                                     ",
"                                        < 6 6 q 6 6 4 8 t +             2 6 6 r y y y y r 1                                     ",
"                                        $ t 3 2 2 3 t 3 X               # t 6 6 w r r 6 4 2                                     ",
"                                          # 2 3 3 2 $                     < t 3 2 2 2 2 8 =                                     ",
"                                                                            $ 3 t t t 3 =                                       ",
"                                                                                X X X                                           ",
"                                                                                                                                ",
"                                                                                                                                "
};
