/* XPM */
static char *f198d7d76577449ca58acc27596861e5BXtUQ7pqIjlgCA4R[] = {
/* columns rows colors chars-per-pixel */
"64 64 241 2 ",
"   c #000000",
".  c #010A0B",
"X  c #0A0809",
"o  c #150604",
"O  c #090D13",
"+  c #170F14",
"@  c #011112",
"#  c #08161B",
"$  c #021B1D",
"%  c #17151B",
"&  c #370B08",
"*  c #2B1112",
"=  c #071A24",
"-  c #1D1626",
";  c #191A29",
":  c #121D36",
">  c #231B29",
",  c #331425",
"<  c #261B33",
"1  c #012223",
"2  c #05272A",
"3  c #0E2C30",
"4  c #1A2736",
"5  c #053339",
"6  c #29252C",
"7  c #2C2233",
"8  c #2D2B34",
"9  c #2C2539",
"0  c #29293A",
"q  c #312436",
"w  c #322638",
"e  c #362B3D",
"r  c #392D3E",
"t  c #393032",
"y  c #4F1105",
"u  c #5B1E1A",
"i  c #650E07",
"p  c #6E1E2B",
"a  c #5C282F",
"s  c #422535",
"d  c #65252B",
"f  c #732629",
"g  c #172847",
"h  c #083B42",
"j  c #163149",
"k  c #1F315D",
"l  c #253949",
"z  c #373346",
"x  c #3A334C",
"c  c #20325E",
"v  c #1F3461",
"b  c #203461",
"n  c #273A66",
"m  c #493844",
"M  c #593746",
"N  c #403D55",
"B  c #7B3958",
"V  c #723B65",
"C  c #044347",
"Z  c #11404A",
"A  c #0C4D56",
"S  c #144956",
"D  c #08575D",
"F  c #384D57",
"G  c #3B4159",
"H  c #124F60",
"J  c #175C62",
"K  c #3A4767",
"L  c #2B5269",
"P  c #0B626B",
"I  c #0A6872",
"U  c #176977",
"Y  c #18747D",
"T  c #54484D",
"R  c #57484C",
"E  c #42425C",
"W  c #6F505B",
"Q  c #4C4F6E",
"!  c #744569",
"~  c #6E5665",
"^  c #6E516B",
"/  c #744975",
"(  c #685479",
")  c #7B587A",
"_  c #7A666A",
"`  c #7D6770",
"'  c #8F1410",
"]  c #B41815",
"[  c #8F2B0D",
"{  c #B7271C",
"}  c #A63613",
"|  c #981B2E",
" . c #B31D23",
".. c #982624",
"X. c #903232",
"o. c #B12931",
"O. c #CF1B11",
"+. c #CF2A13",
"@. c #D92919",
"#. c #E9210B",
"$. c #E62915",
"%. c #E63516",
"&. c #F83816",
"*. c #CA2829",
"=. c #D13128",
"-. c #DC352A",
";. c #D43B36",
":. c #EB352C",
">. c #844638",
",. c #DC4314",
"<. c #F74A11",
"1. c #F84914",
"2. c #FB5919",
"3. c #DA4430",
"4. c #EB4228",
"5. c #EF4F2A",
"6. c #F74625",
"7. c #FE4422",
"8. c #E96335",
"9. c #8B2F49",
"0. c #99394C",
"q. c #933958",
"w. c #B13642",
"e. c #CD3F42",
"r. c #8B4A55",
"t. c #A94757",
"y. c #BA4C52",
"u. c #8E5370",
"i. c #9A5779",
"p. c #AA5468",
"a. c #AC5B74",
"s. c #887579",
"d. c #B27274",
"f. c #CD4245",
"g. c #CE464C",
"h. c #D26D68",
"j. c #DE8375",
"k. c #2E5F82",
"l. c #117582",
"z. c #197885",
"x. c #2E6F83",
"c. c #725585",
"v. c #566787",
"b. c #4B6A90",
"n. c #616D9E",
"m. c #746C92",
"M. c #4577B2",
"N. c #835A87",
"B. c #8A6489",
"V. c #94698C",
"C. c #90758E",
"Z. c #8B6593",
"A. c #956C93",
"S. c #9D7395",
"D. c #9C739B",
"F. c #A96A85",
"G. c #AA758A",
"H. c #A27594",
"J. c #A47A9B",
"K. c #AB7E9C",
"L. c #B67691",
"P. c #9879A8",
"I. c #A67CA2",
"U. c #15838F",
"Y. c #2A8293",
"T. c #1794AC",
"R. c #368FAA",
"E. c #39A9B6",
"W. c #4F8B96",
"Q. c #618D9A",
"!. c #5091AB",
"~. c #708FAD",
"^. c #4EA3B9",
"/. c #77A3BF",
"(. c #35B1C5",
"). c #4E9ECE",
"_. c #4EABCC",
"`. c #73AEC1",
"'. c #58B5E3",
"]. c #A88598",
"[. c #AC819F",
"{. c #AB919B",
"}. c #9187AB",
"|. c #9691AE",
" X c #899AB7",
".X c #A684A6",
"XX c #AC83A2",
"oX c #AD85AA",
"OX c #B187A2",
"+X c #B48AA5",
"@X c #BA8CA4",
"#X c #B48BAD",
"$X c #B88BAB",
"%X c #B392A6",
"&X c #BC92AC",
"*X c #AC97B3",
"=X c #BD97B3",
"-X c #A3ACAE",
";X c #D28A91",
":X c #C696A8",
">X c #C499AC",
",X c #D79FAF",
"<X c #C195B2",
"1X c #C69AB3",
"2X c #C99DB3",
"3X c #C99EB8",
"4X c #C5A2A9",
"5X c #D6B1AF",
"6X c #CDA4B5",
"7X c #CDA2BA",
"8X c #CBAAB9",
"9X c #D1A6B7",
"0X c #D2A6BB",
"qX c #D6ABBA",
"wX c #DAADBD",
"eX c #D5B1BB",
"rX c #DBB3BE",
"tX c #E3B4BF",
"yX c #D6ACC7",
"uX c #DDAFC2",
"iX c #CABBC8",
"pX c #DEB1C2",
"aX c #D7B9C7",
"sX c #DFBAC3",
"dX c #E0AEC2",
"fX c #E2B3C4",
"gX c #E3BCC4",
"hX c #E5B5CA",
"jX c #E8B9CA",
"kX c #EEB7D0",
"lX c #EDBED4",
"zX c #94C1CF",
"xX c #B2C6D2",
"cX c #D4D3D5",
"vX c #EDC0C6",
"bX c #E2C3C8",
"nX c #EDC5CB",
"mX c #F4C8CA",
"MX c #FACDCD",
"NX c #FFD1CF",
"BX c #FED3D2",
/* pixels */
"                                                                                                                                ",
"                                                            . @ . .                                                             ",
"                                                      % R s.{.-X-X~.W.J 1                                                       ",
"                                                  % _ 5XMXBXBXBXBXBXBXcX`.Y $                                                   ",
"                                                t 4XMXmXvXvXvXmXMXNXNXNXBXxXE.5                                                 ",
"                                              t 4XgXgXgXgXgXgXgXfXgXMXNXNXMXiX_.5                                               ",
"                                            % {.fXgXnXnXnXnXnXmXnXgXrXmXNXBXvXiXE.$                                             ",
"                                            _ pXnXnXnXnXnXnXnXnXnXnXgXrXMXBXmXwXzXl.                                            ",
"                                          > >XnXnXnXnXnXnXnXnXnXnXnXnXrXgXMXmXwX8X(.1                                           ",
"                                          R rXnXnXnXnXnXnXnXnXnXnXnXnXgXwXmXmXqX>XzXJ                                           ",
"                                          s.fXnXnXnXnXnXnXnXnXnXnXnXnXjXqXfXvX>XrXbX^.2                                         ",
"                                        O ].fXnXnXnXnXnXnXnXnXnXnXnXnXnXwXwXqX9XmX~.).l.                                        ",
"                                        < [.wXfXgXfXpXrXrXrXrXpXgXgXnXnXwX0X>XfX8X).'.T..                                       ",
"                                        < H.qXqXqXqXqXqXqXqXqXqXqXqXrXpX0XqX&XqX*X'.).T..           . @                         ",
"                                        < ) 9XqXqXqXqXqXqXqXqXqXqXqXqXqXqXqXOX#X}.M.M.U..           0 L 5                       ",
"                                        - Q +X6XqXqXqXqXqXqXqXqXqXqXqXqXqXqXXXP.P.b.R.P     % 5   - r L A                       ",
"                                        O x S.OX&X2X6X6X9X9X9X9X9X9X9X9X6X>XJ.N.P.~.T.=     8 L ; e z U 1                       ",
"                                          ; ( XX[.[.XXOXOXOXOXOXOXOX+XOXXX[.J./ c.(.C       7 L z r G S X                       ",
"                                            ; m..XK.J.S.V.V.V.V.A.S.J.K.K.J.N./ b.I         6 z e e z w l h                     ",
"                                              4 v.) ! B B B B B B ! ! / ) / / v.l.@         > e e e e 7 U 5                     ",
"                                                , w.;.4.4.6.6.6.4.3.;.o.9.V b.H @         y X.a e e 9 l I .                     ",
"                                                ' :.:.7.7.7.7.7.7.7.7.7.O...F           o { 6.5.X.q 0 Y =                       ",
"                                          o i ' ' *.-.;.f.f.f.e.;.;.-.@.] ] { ' y       R G.t.3.&...U 5                         ",
"                                          p $.#.] r.F.K.@X@X@XOXK.G.i.q. .#.#.$.X.6 O R eXsX6XF.o.*.F .                         ",
"                                      > ` K.y.#.o.[.0XwXpXpXpXwXqX1XXXV.*.#.@.t.4X8X{.%XrXgXgX6Xi.r.4                           ",
"                                  X R 4XgXwXH.| y.wXpXpXpXpXpXpXpXpX2XF.+.O.0.[.sXgXgXrXrXgXrX@X~.Z .                           ",
"                                X ` rXgXgXeXXXu.;XfXuXuXuXuXuXpXhXfXwXG...X.B.$XeXsXgXgXsXeX@X|.x..                             ",
"                                _ sXgXgXeX=XJ.A.0XuXuXuXuXuXfXkXlXfXpX@Xq.! Z.J.OX&X6X6X4X+X.XW.$                               ",
"                              t eXgXsX8X#XI.Z.I.uXuXuXuXuXhXlXlXkXpXpX<XS.c.m.Z.D.J.K.K.K.}.!.5                                 ",
"                            & G.sXsX8X#X.Xm.v.*XfXuXuXuXhXlXlXlXhXuXpX1X[.A.!.x.v.n.m.~.!.Y.5                                   ",
"                          o { ;XsXpX#XoX~.S ; %XfXuXpXhXlXlXlXjXuXuXuX2XXXK.^.C . # 2 3 1 .                                     ",
"                          & $.4.;X3XoX}.z.  6 9XuXpXjXlXlXlXlXfXuXuXuX2XXXXX`.D                                                 ",
"                          + { &.:.g.a.v.1   m uXuXhXlXlXlXlXfXuXuXuXpX1XXXXX/.I                                                 ",
"                        X 7 s ..+.O.{ R .   W pXhXlXlXlXkXfXuXuXuXuXuX&XXXXX XY                                                 ",
"                        % e 9 > , , G #     ~ pXjXlXkXhXpXuXuXuXuXuX0X+XXXXX XU.                                                ",
"                      X 7 7 - - - ; A .     ~ uXpXfXpXuXuXuXuXuXuXuX2XXX.XH.C.Y..                                               ",
"                      + w > - ; : - S @   & t.3XuXuXuXuXuXuXuXuXuX0X+XS.p.3.@.r.2                                               ",
"                      % 7 - ; g . O j @   i =.K.7XuXuXuXuXuXuXuX0X&XS.y.&.%. ._ h                                               ",
"                      X - 4 4 =           & $.y.oX<X0XuXuXuX0X3X#XJ.y.&.@.0.H.=XQ.=                                             ",
"                          . O             m f.:.a.oX#X#X&X#X#XoX.Xp.&.%.0.J.0XpXaXQ.$                                           ",
"                                        O C.L.4.-.p.I.oXoXoXoXoXV.-.&.X.A.<XuXuXuXiXR.$                                         ",
"                                        m 1X7X;Xg.o.q.i.A.S.A.N.q.@. .u.XX6XuXuXuXdXzXl.                                        ",
"                                      X C.fXfXyX$Xi.9.| 9.^ K K 9. .B A.XX&XwXuXpXwX=X(.1                                       ",
"                                      6 7XuXpXfX3XoXN.V ! l . . * a ( Z.J.oX$X<X<X+XK.`.D                                       ",
"                                      ~ 0X3X3XyX0X#XI.c.Y.$         0 m.Z.D.D.D.S.J.K. Xl.                                      ",
"                                    6 >XfXtXwX3X&X#XI.m.z.            ; ( N.N.A.XX+X[.|.U.                                      ",
"                                  + ].fXjXhXfXfX1X#XI.!.C             % C.XX&X7XwX0XXX|.z.                                      ",
"                                  ~ uXfXkXkXdXdX3X#XP.R.@             m +X0XfXjXuX0XXX|.Y                                       ",
"                                > *XyXfXfXfXdXuX=X$X XP               ) 1XrXhXjXpX0XXX XJ                                       ",
"                              o >.j.j.;X,XuXdX3X#X#X^.1             X B.7XpXfXpXuX2XK./.C                                       ",
"                            X } <.<.<.2.8.h.<X#XoX XU               u d.1XuXpXpXyX&XXX!.1                                       ",
"                            & =.X.d d ..,.1.h.oXoX!.$             o +.2.h.;X:X>X&XK.J.W.@                                       ",
"                            + M N z e q d @.@.F./.A                 [ <.<.2.2.8.8.f.o.W $                                       ",
"                            # Q v.v.E z w f O.u.U .                 % d } ,.<.<.1.@.o.R .                                       ",
"                            ; n n K v.E e s  .r.1                   > w w s a f f d s #                                         ",
"                            = b v v n Q z 9 f R .                 X < r r r e e 9 < < 4 5                                       ",
"                            = v v b v K z 0 l O                   % x x r r r r e 9 7 0 U $                                     ",
"                            O k b c b n x 0 h                       6 G E N x e w 7 9 9 z.2                                     ",
"                            . g b k c b K z A                         X ; z G E E N E G l .                                     ",
"                              = k k k k n K I                               X O % % % O                                         ",
"                                : k c c c k.D                                                                                   ",
"                                  # : g g g @                                                                                   ",
"                                                                                                                                ",
"                                                                                                                                "
};
