/* XPM */
static char *c6c20f059f0746dcc8396706e0bda66fJtceoIRExgE27jin[] = {
/* columns rows colors chars-per-pixel */
"64 64 255 2 ",
"   c #000000",
".  c #06060A",
"X  c #020A0B",
"o  c #0A080C",
"O  c #14080A",
"+  c #080D12",
"@  c #120E17",
"#  c #051618",
"$  c #18151A",
"%  c #2C0F13",
"&  c #381416",
"*  c #160F22",
"=  c #0C1921",
"-  c #1A1527",
";  c #23192A",
":  c #271832",
">  c #361B31",
",  c #06282A",
"<  c #102C31",
"1  c #08383B",
"2  c #2A2237",
"3  c #292A30",
"4  c #352639",
"5  c #3B3439",
"6  c #521015",
"7  c #61171D",
"8  c #4A2B35",
"9  c #732C2F",
"0  c #0F3F42",
"q  c #3A2B48",
"w  c #3C344D",
"e  c #2C3450",
"r  c #48374A",
"t  c #523148",
"y  c #423854",
"u  c #453D5A",
"i  c #6F3347",
"p  c #5E3C60",
"a  c #0D4A4E",
"s  c #314856",
"d  c #105E62",
"f  c #33516B",
"g  c #106B70",
"h  c #2C6972",
"j  c #47425C",
"k  c #564F50",
"l  c #584958",
"z  c #6B555D",
"x  c #50516A",
"c  c #6F5670",
"v  c #756974",
"b  c #94251B",
"n  c #AE1D22",
"m  c #913032",
"M  c #B33C31",
"N  c #ED1718",
"B  c #D62318",
"V  c #EE2C12",
"C  c #DA1420",
"Z  c #D32F34",
"A  c #ED322C",
"S  c #99482D",
"D  c #BE553D",
"F  c #E94C18",
"G  c #D36919",
"H  c #CD5435",
"J  c #F84A3B",
"K  c #EF5030",
"L  c #F75436",
"P  c #F96326",
"I  c #F26B2F",
"U  c #F4782B",
"Y  c #8E344C",
"T  c #B53249",
"R  c #CA3A4A",
"E  c #EF3653",
"W  c #E32C6C",
"Q  c #B44F4F",
"!  c #8D546F",
"~  c #946362",
"^  c #AF656F",
"/  c #D94D4E",
"(  c #EB4F4C",
")  c #F64542",
"_  c #DF654D",
"`  c #F17348",
"'  c #CE506B",
"]  c #EB556E",
"[  c #CD6976",
"{  c #E97172",
"}  c #F1895E",
"|  c #303B8F",
" . c #373D95",
".. c #5C2E9E",
"X. c #463B9A",
"o. c #57359D",
"O. c #5937A4",
"+. c #563FA9",
"@. c #6339AA",
"#. c #663EB4",
"$. c #2A4498",
"%. c #37449C",
"&. c #127D81",
"*. c #2F7888",
"=. c #3A4FA7",
"-. c #2B56A6",
";. c #2C6BB7",
":. c #4F4996",
">. c #705196",
",. c #617787",
"<. c #5A48B4",
"1. c #4D50B0",
"2. c #6C4AAE",
"3. c #6345B5",
"4. c #4962BE",
"5. c #7C76B0",
"6. c #3B79CA",
"7. c #6055C1",
"8. c #466AC3",
"9. c #526FCA",
"0. c #6567C6",
"q. c #6A6BCE",
"w. c #96528B",
"e. c #AC4F87",
"r. c #906E8E",
"t. c #996895",
"y. c #B16A8C",
"u. c #A86899",
"i. c #AB7699",
"p. c #B7799C",
"a. c #8859A8",
"s. c #906FAE",
"d. c #A86CA2",
"f. c #A875A5",
"g. c #B87BA5",
"h. c #A276B5",
"j. c #C84C89",
"k. c #CD7694",
"l. c #E47089",
"z. c #DC7EA1",
"x. c #8575C5",
"c. c #138389",
"v. c #119094",
"b. c #2B8892",
"n. c #2D96AA",
"m. c #19A7AE",
"M. c #2BACB2",
"N. c #759091",
"B. c #5290B9",
"V. c #6194A2",
"C. c #6F8FB0",
"Z. c #50A5B0",
"A. c #338BD3",
"S. c #3488D3",
"D. c #2B98DB",
"F. c #1BBCC5",
"G. c #2CAFCF",
"H. c #36BAD7",
"J. c #1EAEE6",
"K. c #1BB6E9",
"L. c #23A8E2",
"P. c #35B5E7",
"I. c #5192D2",
"U. c #6C88D1",
"Y. c #50B0D2",
"T. c #75B1D0",
"R. c #658FE3",
"E. c #4CACE6",
"W. c #66A3E3",
"Q. c #68B4E6",
"!. c #16C7D1",
"~. c #35C5D3",
"^. c #17C4ED",
"/. c #1ECEF4",
"(. c #1AD8F6",
"). c #2FC8EF",
"_. c #29D2F2",
"`. c #18E7FC",
"'. c #25E9FC",
"]. c #35E4FA",
"[. c #4FC8D5",
"{. c #54D1F3",
"}. c #6ACAEF",
"|. c #62DEEF",
" X c #97878C",
".X c #AD8A99",
"XX c #939AB6",
"oX c #B985A8",
"OX c #A68ABB",
"+X c #BD88B3",
"@X c #AD94B0",
"#X c #BC96BB",
"$X c #8CA8B8",
"%X c #B4A2B9",
"&X c #E08F92",
"*X c #E98E9D",
"=X c #C48AAA",
"-X c #C898AB",
";X c #D991A9",
":X c #C58DB4",
">X c #C697B7",
",X c #D498BA",
"<X c #E494AD",
"1X c #C8A7B7",
"2X c #D6A8B9",
"3X c #C7B5B3",
"4X c #DEB4BD",
"5X c #E7AFB6",
"6X c #9D8DC1",
"7X c #B19DC6",
"8X c #90A7C6",
"9X c #ADAFCA",
"0X c #CD9BC2",
"qX c #D599C5",
"wX c #D8A6C6",
"eX c #DCA4CB",
"rX c #D4A9CC",
"tX c #DDABCD",
"yX c #DCB4CA",
"uX c #E1A7CC",
"iX c #E1ABCC",
"pX c #E5B8C6",
"aX c #E4B4CD",
"sX c #EABCCC",
"dX c #E6B0D1",
"fX c #E3B5D4",
"gX c #E4BBD6",
"hX c #E9BDD4",
"jX c #EAB2DA",
"kX c #E6BDD8",
"lX c #E9BDD9",
"zX c #F4B6EA",
"xX c #F6B6EA",
"cX c #B7C8DA",
"vX c #86CBE5",
"bX c #95E6F5",
"nX c #B1ECF6",
"mX c #CBC5CF",
"MX c #EAC4C9",
"NX c #ECC9CB",
"BX c #F1CDCD",
"VX c #EBD0CA",
"CX c #F3D3CE",
"ZX c #EBC4D4",
"AX c #E8C4D6",
"SX c #E7C3D9",
"DX c #E9C3DA",
"FX c #ECCADB",
"GX c #F1CDD4",
"HX c #F6D3D8",
"JX c #F5C7EA",
"KX c #FAD5E8",
"LX c #FBC6F3",
"PX c #CAF0F7",
"IX c #F0FAFA",
/* pixels */
"                                                o 3 z  X X X Xv k $                                                             ",
"                                      $ 5 k k v r..X-X2X4XNXCXCXMX3Xv ;                                                         ",
"                                X e N.3XVXCXCXCXCXCXBXMXpX4X4XNXCXCXCX3Xk .                                                     ",
"                              < N.mXNX4X2X-X-X-X-X1X2X4XMXNXBXNXNXCXKXKXNXv .                                                   ",
"                          X f $X1XoXi.i.i.i.f.f.f.f.i.g.oX-X2XNXCXBXHXKXHXMXz                                                   ",
"                        X h $Xi.y.t.s.C.I.I.Y.Y.I.I.U.5.s.f.oX-X4XBXBXKXKXGX2X5                                                 ",
"                      X h C.u.t.5.I.)._.].].].{.{.{.{.E.W.U.5.f.+X2XNXGXKXKXsX Xo                                               ",
"                      g C.t.t.B.).'.'.'.].|.PXnX|.nXnXbX}.}.W.5.a.oX4XBXHXHXsX2X8                                               ",
"                    1 H.t.u.C._.'.'.'.'.].PXIXnXnXIXIXPXPXvXQ.W.0.a.:XpXGXBXMX4X!                                               ",
"                    1 ~.t.t.H.`.`.`.`.`.].bXbX|.}.}.}.Q.Q.Q.W.W.U.3.h.2XNXNXNXpX.X$                                             ",
"                    # F.C.C./.`.`.`.`.`.(._._.).).P.E.E.E.I.R.U.0.3.5.>XMXMXMXNXpXc .                                           ",
"                      c.Y.Y./.(.`.`.`.(.(._.).).P.P.E.E.I.I.9.7.@.#.0.#XpXpXMXZX%XC.f X                                         ",
"                      1 ~.~.^./.(.(.(.(./.).P.P.P.D.I.I.9.8.<.<.@.3.q.#X1X4XpXXXY.{.Y.<                                         ",
"                      g B.H.^.K.^.^.^.K.K.L.L.D.A.S.6.8.4.1.<.<.@.3.q.6X-X4X>XI.E.}.Q.e                                         ",
"                    , G.a.H.K.J.K.K.K.J.L.L.D.A.S.6.8.8.4.1.<.@.@.3.q.OX=X2XOX9.I.W.W.e                                         ",
"                    c.n.w.H.K.L.L.L.L.L.D.D.A.S.6.8.8.8.4.<.+.O.@.7.q.OXp.,Xh.0.0.0.1.=                                         ",
"  + + . .         # F.:.w.B.L.D.D.D.D.D.D.A.S.S.6.8.4.1.1.+.O.O.3.0.R.6Xp.,Xs.2.2.2.e                                           ",
"1 m.f w q $       , !.:.e.>.-.;.S.A.A.A.S.6.6.8.=.=.1.:.+.O.O.O.<.9.R.7Xu.g.h.x.s.x +                                           ",
"# v.M.x u q .     X v.n.w.w.%.$.$.-.-.-.-.-.-.=.=.%.:.X.o.o...3.0.U.7XyXp.u.g.i.z @                                             ",
"  # m.M.j j 2       # c.B.t.>.| | | $.$.$.%.%.%.%.X.X.o.o...2.0.x.#XyXMX,Xp.y.t .                                               ",
"    , !.*.j u -       X g Y.s.>.| | |  . . . . .X.X.o.o.@.2.a.OX>XpXMXyX,Xp.r .                                                 ",
"  X # c.n.u j y < 3 8 O # F.XXi.>.:. . .X.X.:.:.:.2.2.>.a.h.:X2XpXsX2X=X! ;                                                     ",
"  , m.*.j u u u y ^ ) m # F.XXp.g.f.t.>.>.>.>.>.>.a.f.oX>X2XyXsXpX>Xy.i & & & & & & o                                           ",
"    a m.*.s y r m J ) T O &.Y.@XoXg.oXoXoXoXoX+X:X>X>X2X4XpX2X@Xr.! R A K K K J ) R $                                           ",
"      , c.n.f 9 A ) { ;Xr X a *.V.XX@X+X=Xk.[ y.y.i..X.Xr.! c z Q / J V K L L J ) Q 5 $ @ .                                     ",
"          g Z.B V { sXFX1X5     # a h C..X( N B B B H D D H H K L L L ( V F L L ( k.1X1X@X X! l 5 & & %                         ",
"          g Z.A { pXZXFXFX1X3     $ 6 M A A A V V V F P P P P P P ` *XsXl.A V V / =XpXsXsXsXhXsXpXl.E T O                       ",
"          a ~.-XsXaXhXZXZXFX%Xr 9 Z A K J J ) A V A A P U U ` } &XpXSXSXSX<X/ N ^ %XyXZXZXZXZXZXZX*XE R O                       ",
"            g [.cXaXsXaXsXZXFX2X^ H K L L J ) A A ;X5X5X5X5XsXZXSXSXSXSXSXSXwX[ w h $XmXZXZXFXFXZX*XE T ; @ .                   ",
"              0 M.vXmXsXaXaXhXZXyX.X~ Q K L J A / yXFXFXFXSXSXSXSXSXSXSXSXSXSXrXr.@ # s V.9XyXZXgX[ A Y u u q 2 @ .             ",
"                # g [.cXfXaXaXaXaXaX>Xi.! Q K A ' gXFXFXFXFXSXSXSXSXSXSXSXSXZXfX0Xv o   X s V.@X=XZ n t u u u y y q 2 +         ",
"                    , b.T.cXaXpXpXpXwX:Xf.w.! / [ gXSXSXSXSXDXDXSXSXDXSXSXSXSXSXyX0Xc o     # s c m x s y s w w w q -           ",
"                        1 b.T.cXfXaXtX:Xg.u.w.u.=XfXSXkXkXkXkXSXSXSXSXSXSXSXSXSXgX0X#Xl 6 7 O   X o 1 h f f h - @ .             ",
"                            < h Z.9X9X#XoXu.r.h.+XfXkXkXkXkXkXkXkXkXSXDXSXDXSXSXSXyX>X' N N 6         + < = +                   ",
"                                # < s s w 2 b.T.g.tXkXDXkXkXkXkXkXkXkXkXSXDXDXDXSXgX:XE N N 7                                   ",
"                                            g Y.f.0XkXDXlXfXgXgXkXkXkXkXkXkXkXDXDXDX;XE A B &                                   ",
"                                            d Y.f.+XgXLXJXgXgXfXfXgXgXgXgXgXgXgXkXDX<X) ) Y t o                                 ",
"                                            d Y.d.f.tXLXLXJXgXgXgXgXgXgXgXgXgXgXgXkX*X) / y.:X.Xl $                             ",
"                                            a Y.d.d.+XzXLXLXlXfXgXgXfXfXfXfXfXfXfXgX*XJ ' g.hXDXSX1Xv 5 @                       ",
"                                            1 H.d.u.u.:XeXjXgXgXgXgXfXfXfXfXfXfXfXfX;X( ^ :XlXDXDXDXDXyX@Xr.l 3 ; 7 b %         ",
"                                            0 Z.Q Z Z R ' k.,XfXfXfXfXfXfXfXfXfXfXrXp._ y.,XhXDXDXDXDXDXlXfXtX2X>X{ V b : : *   ",
"                                            g N.V V V K L ) ' k.0XfXfXfXfXfXfXfXfX+Xf.[ y.wXaXZXDXDXDXDXlXlXaXtXiX<XA b q q :   ",
"                                            # M.D n n M / ( E E j.+XrXfXfXfXfXtX+Xf.f.y.y.wXiXhXDXDXlXlXlXlXkXaXtX<XN m w q :   ",
"                                              a n.w ! u.y.e.' E W j.d.0XtXrX>Xg.d.d.d.i.i.,XiXiXfXlXlXlXlXlXlXgXtXz.N 9 w w ;   ",
"                                                g Z.+XaXaXwX:Xy.' W j.u.d.d.u.u.d.d.t.c Z.#XiXjXjXjXgXgXhXgXfXiXeXl.C t y w ;   ",
"                                                1 H.#XaXlXlXlXfX0Xk.W e.t.u.u.u.t.c 4 . g 8XwXjXzXzXiXtXtXtXeXeXeX] Z t y y -   ",
"                                                # F.%XaXgXlXkXlXlXgX,Xj.w.w.c p 2 o     + b.8XeXjXjXtXuXuXuXeXeX,X] T y u y -   ",
"                                                X m.8XuXfXkXkXlXgXgXkXiXr.; .             # h $XrXuXuXuXuXuXeXeXz.E Y u j y *   ",
"                                                  &.T.eXfXlXkXlXgXgXkXgXtXr.3 O % O           0 ,.XXrXrXeXeXeX,X] E t c v w @   ",
"                                                  a [.rXiXgXkXkXgXgXgXgXgXiX>X^ F b .           X < s x c N.y.' E T w  X,.q o   ",
"                                                  # F.9XuXfXgXgXgXgXgXgXgXdXuX<XU G %                     a w.E T % a ,.j 2 .   ",
"                                                    c.T.eXjXjXkXgXgXgXgXgXgXeX<XU G > +                   X 3 > O   + h f -     ",
"                                                    1 ~.7XjXzXzXdXtXfXfXfXfXeX<XU G > : +                             X = .     ",
"                                                    X v.T.qXzXzXeXeXeXeXeXeXeX&XU S : > ; .                                     ",
"                                                      < G.OXqXuXeXeXeXeXeXeXqX{ I 9 4 4 : .                                     ",
"                                                        a Y.OXqXeXeXeXeXeXeX;X` H 8 q 4 -                                       ",
"                                                          d Y.#XqXeXeXeXeXqXl.I S q r 4 @                                       ",
"                                                            a Z.7X0XeXeXqX;X( H t w q : .                                       ",
"                                                              , *.T.>XqXz.( L m w y q *                                         ",
"                                                                  &. X( ( ) M r x y 2 .                                         ",
"                                                                  0 V.Z A Q j v r.q *                                           ",
"                                                                    1 5 % < m.,.l :                                             ",
"                                                                            c.*.q o                                             ",
"                                                                            # a +                                               "
};
