/* XPM */
static char *be31c82861554a0cced096973bf52936QWEnEzPkmZjSRZjI[] = {
/* columns rows colors chars-per-pixel */
"64 64 255 2 ",
"   c #000000",
".  c #06060A",
"X  c #020A0B",
"o  c #0A080C",
"O  c #14080A",
"+  c #080D12",
"@  c #120E17",
"#  c #051618",
"$  c #18151A",
"%  c #2C0F13",
"&  c #381416",
"*  c #160F22",
"=  c #0C1921",
"-  c #1A1527",
";  c #23192A",
":  c #271832",
">  c #361B31",
",  c #06282A",
"<  c #102C31",
"1  c #08383B",
"2  c #2A2237",
"3  c #292A30",
"4  c #352639",
"5  c #3B3439",
"6  c #521015",
"7  c #61171D",
"8  c #4A2B35",
"9  c #732C2F",
"0  c #0F3F42",
"q  c #3A2B48",
"w  c #3C344D",
"e  c #2C3450",
"r  c #48374A",
"t  c #523148",
"y  c #423854",
"u  c #453D5A",
"i  c #6F3347",
"p  c #5E3C60",
"a  c #0D4A4E",
"s  c #314856",
"d  c #105E62",
"f  c #33516B",
"g  c #106B70",
"h  c #2C6972",
"j  c #47425C",
"k  c #564F50",
"l  c #584958",
"z  c #6B555D",
"x  c #50516A",
"c  c #6F5670",
"v  c #756974",
"b  c #94251B",
"n  c #AE1D22",
"m  c #913032",
"M  c #B33C31",
"N  c #ED1718",
"B  c #D62318",
"V  c #EE2C12",
"C  c #DA1420",
"Z  c #D32F34",
"A  c #ED322C",
"S  c #99482D",
"D  c #BE553D",
"F  c #E94C18",
"G  c #D36919",
"H  c #CD5435",
"J  c #F84A3B",
"K  c #EF5030",
"L  c #F75436",
"P  c #F96326",
"I  c #F26B2F",
"U  c #F4782B",
"Y  c #8E344C",
"T  c #B53249",
"R  c #CA3A4A",
"E  c #EF3653",
"W  c #E32C6C",
"Q  c #B44F4F",
"!  c #8D546F",
"~  c #946362",
"^  c #AF656F",
"/  c #D94D4E",
"(  c #EB4F4C",
")  c #F64542",
"_  c #DF654D",
"`  c #F17348",
"'  c #CE506B",
"]  c #EB556E",
"[  c #CD6976",
"{  c #E97172",
"}  c #F1895E",
"|  c #303B8F",
" . c #373D95",
".. c #5C2E9E",
"X. c #463B9A",
"o. c #57359D",
"O. c #5937A4",
"+. c #563FA9",
"@. c #6339AA",
"#. c #663EB4",
"$. c #2A4498",
"%. c #37449C",
"&. c #127D81",
"*. c #2F7888",
"=. c #3A4FA7",
"-. c #2B56A6",
";. c #2C6BB7",
":. c #4F4996",
">. c #705196",
",. c #617787",
"<. c #5A48B4",
"1. c #4D50B0",
"2. c #6C4AAE",
"3. c #6345B5",
"4. c #4962BE",
"5. c #7C76B0",
"6. c #3B79CA",
"7. c #6055C1",
"8. c #466AC3",
"9. c #526FCA",
"0. c #6567C6",
"q. c #6A6BCE",
"w. c #96528B",
"e. c #AC4F87",
"r. c #906E8E",
"t. c #996895",
"y. c #B16A8C",
"u. c #A86899",
"i. c #AB7699",
"p. c #B7799C",
"a. c #8859A8",
"s. c #906FAE",
"d. c #A86CA2",
"f. c #A875A5",
"g. c #B87BA5",
"h. c #A276B5",
"j. c #C84C89",
"k. c #CD7694",
"l. c #E47089",
"z. c #DC7EA1",
"x. c #8575C5",
"c. c #138389",
"v. c #119094",
"b. c #2B8892",
"n. c #2D96AA",
"m. c #19A7AE",
"M. c #2BACB2",
"N. c #759091",
"B. c #5290B9",
"V. c #6194A2",
"C. c #6F8FB0",
"Z. c #50A5B0",
"A. c #338BD3",
"S. c #3488D3",
"D. c #2B98DB",
"F. c #1BBCC5",
"G. c #2CAFCF",
"H. c #36BAD7",
"J. c #1EAEE6",
"K. c #1BB6E9",
"L. c #23A8E2",
"P. c #35B5E7",
"I. c #5192D2",
"U. c #6C88D1",
"Y. c #50B0D2",
"T. c #75B1D0",
"R. c #658FE3",
"E. c #4CACE6",
"W. c #66A3E3",
"Q. c #68B4E6",
"!. c #16C7D1",
"~. c #35C5D3",
"^. c #17C4ED",
"/. c #1ECEF4",
"(. c #1AD8F6",
"). c #2FC8EF",
"_. c #29D2F2",
"`. c #18E7FC",
"'. c #25E9FC",
"]. c #35E4FA",
"[. c #4FC8D5",
"{. c #54D1F3",
"}. c #6ACAEF",
"|. c #62DEEF",
" X c #97878C",
".X c #AD8A99",
"XX c #939AB6",
"oX c #B985A8",
"OX c #A68ABB",
"+X c #BD88B3",
"@X c #AD94B0",
"#X c #BC96BB",
"$X c #8CA8B8",
"%X c #B4A2B9",
"&X c #E08F92",
"*X c #E98E9D",
"=X c #C48AAA",
"-X c #C898AB",
";X c #D991A9",
":X c #C58DB4",
">X c #C697B7",
",X c #D498BA",
"<X c #E494AD",
"1X c #C8A7B7",
"2X c #D6A8B9",
"3X c #C7B5B3",
"4X c #DEB4BD",
"5X c #E7AFB6",
"6X c #9D8DC1",
"7X c #B19DC6",
"8X c #90A7C6",
"9X c #ADAFCA",
"0X c #CD9BC2",
"qX c #D599C5",
"wX c #D8A6C6",
"eX c #DCA4CB",
"rX c #D4A9CC",
"tX c #DDABCD",
"yX c #DCB4CA",
"uX c #E1A7CC",
"iX c #E1ABCC",
"pX c #E5B8C6",
"aX c #E4B4CD",
"sX c #EABCCC",
"dX c #E6B0D1",
"fX c #E3B5D4",
"gX c #E4BBD6",
"hX c #E9BDD4",
"jX c #EAB2DA",
"kX c #E6BDD8",
"lX c #E9BDD9",
"zX c #F4B6EA",
"xX c #F6B6EA",
"cX c #B7C8DA",
"vX c #86CBE5",
"bX c #95E6F5",
"nX c #B1ECF6",
"mX c #CBC5CF",
"MX c #EAC4C9",
"NX c #ECC9CB",
"BX c #F1CDCD",
"VX c #EBD0CA",
"CX c #F3D3CE",
"ZX c #EBC4D4",
"AX c #E8C4D6",
"SX c #E7C3D9",
"DX c #E9C3DA",
"FX c #ECCADB",
"GX c #F1CDD4",
"HX c #F6D3D8",
"JX c #F5C7EA",
"KX c #FAD5E8",
"LX c #FBC6F3",
"PX c #CAF0F7",
"IX c #F0FAFA",
/* pixels */
"                                                            $ k v  X X X Xz 3 o                                                 ",
"                                                        ; v 3XMXCXCXNX4X2X-X.Xr.v k k 8 $                                       ",
"                                                    . k 3XCXCXCXNXpX4XyXMXBXCXCXCXCXCXVX3XN.5 X                                 ",
"                                                  . v NXHXKXCXNXNXNXNXMX4X2X1X-X-X-X-X2X4XNXmXN.<                               ",
"                                                  z MXHXKXHXBXBXNX2X-XoXoXi.f.f.f.f.i.i.u.i.oX1X$Xh X                           ",
"                                                5 2XGXKXKXBXBX4X-XoXf.s.5.U.I.I.Y.Y.I.I.C.s.t.y.i.$X*.X                         ",
"                                              o  XsXKXKXCXNX2X+Xf.5.U.W.E.{.{.{.{.].].]._.).I.5.t.u.C.h X                       ",
"                                              8 2XsXHXHXBX4XoXa.5.W.}.}.bXnXnX|.nXPX|.].'.'.'.).B.t.t.C.g .                     ",
"                                            . ! 4XMXBXBXpX:Xa.0.W.Q.vXPXPXIXIXnXnXIXPX].'.'.'.'._.C.u.r.H.1                     ",
"                                            - .XpXNXNXNX2Xh.3.U.W.W.Q.Q.Q.}.}.}.|.bXbX].`.`.`.`.`.H.t.r.~.1                     ",
"                                          . c pXNXMXMXMX>Xs.#.0.U.R.W.E.E.E.P.).)._._.(.`.`.`.`.`.^.C.C.F.#                     ",
"                                        X f C.%XAXMXpXpX#X0.#.@.0.9.I.I.E.E.P.P.).)._.(.(.`.`.`.(./.Y.Y.&.                      ",
"                                        < Y.{.Y.XXpXyX1X#Xq.3.@.<.1.8.9.I.I.D.P.P.P.)./.(.(.(.(./.^.~.~.1                       ",
"                                        e Q.}.E.I.>X4X-XOXq.3.@.#.<.1.8.8.6.S.A.D.L.L.K.K.^.^.^.K.^.H.B.g                       ",
"                                        e U.W.I.9.OX2X=XOXq.3.@.@.<.1.4.8.8.6.S.A.D.L.L.J.K.K.J.J.K.H.a.G.,                     ",
"                                        @ 1.0.0.0.h.,Xg.6Xq.7.@.O.+.<.1.8.8.6.S.S.D.D.D.L.L.L.L.L.K.H.w.n.c.                    ",
"                                          e 2.2.2.s.,Xp.6XR.0.3.O.O.+.1.1.4.8.6.S.S.A.D.D.D.D.D.D.L.B.w.:.F.=         . . + + . ",
"                                          o x s.x.h.g.u.7XR.9.3.O...O.X.:.1.=.=.;.6.6.S.A.A.A.S.;.;.>.e.:.!.<       $ q w f m.1 ",
"                                            @ z f.g.u.g.yX7XU.0.3...o.o.X.:.%.%.=.=.-.-.-.-.-.$.| | w.w.n.v.X     . q u x M.v.# ",
"                                              . t u.p.,XAXyX#Xx.0.2...o.o.X.X.%.%.%.%.%.$.$.| | | >.t.B.c.#       2 u j M.m.#   ",
"                                                . r p.,XwXsXpX>XOXa.2.@.o.o.X.X. . . . . .| | | >.s.Y.d X       - u j *.!.,     ",
"                                                    ; ! =XwXsXpX2X>Xh.a.>.2.2.:.:.:.X.X. . .:.>.i.XXF.# O 7 3 - w j u n.c.# .   ",
"                                          o & & & & & & i y.>XpXpXyX2X:XoXf.a.>.>.>.>.>.>.a.f.g.p.XXF.# m ) ^ u u u u s *.m.,   ",
"                                          $ R ) J K K K A R ! r.@X2XpX4X2X>X:X:X+XoXoXoXoXoXg.oX@XY.&.o T ) J m r y s *.m.a .   ",
"                                    . @ $ 5 Q ) J L L K V J / Q z c r.i..X.Xi.y.^ [ oX=X+X@XXXV.*.a X r ;X{ ) A 9 f n.c.,       ",
"                        % & & 5 l !  X@X1X1Xk.( L L F V ( L L L K H H D D H B B B N ( .XC.h a # .   5 1XFXsX{ V B Z.g           ",
"                      O T E l.pXsXhXhXhXsXpX:X/ V V A l.sX*X` P P P P P P F V V V A A K M 6 $ .   3 1XFXFXFXpX{ A Z.d           ",
"                      O R E *XAXZXZXAXAXAXyX%X^ N ( <XSXFXFXpX&X} ` U U P A A V A ) J J K V M 9 r %XFXFXAXhXsXsX-X~.a           ",
"                  . @ ; T E *XAXFXFXFXSXmX$Xh w [ wXSXSXSXSXSXSXAXsX5X5X5X5X;XA A ) J L L K H ^ 2XFXAXsXsXsXsXcX[.g .           ",
"            . @ 2 w u u Y A [ sXZXyX9XV.s # @ r.rXAXSXSXSXSXSXSXSXSXSXDXFXFXyX/ A J L K Q ~ .XyXAXhXsXaXaXmXvXM.0               ",
"        + 2 q y y u u u t n Z =X@XV.a X   o v 0XgXAXAXAXSXAXSXSXSXSXFXFXSXDXgX' A J Q ! i.>XaXaXaXaXaXfXcX[.g #                 ",
"        . - q q q w s y s x m c s #     . c >XyXSXSXSXSXSXSXSXSXDXDXSXSXSXAXgX[ / ! w.g.:XwXaXaXaXfXcXT.b.,                     ",
"            . @ - h f f h 1 o o   O 7 6 l >X0XkXSXSXSXSXSXSXSXSXSXkXkXkXkXkXgX=Xu.w.u.g.:XwXaXfXcXT.b.1 .                       ",
"                  + = < +         6 N N ' >XyXDXSXSXDXDXSXSXkXkXkXkXkXkXkXkXfX+Xh.r.u.oX#X9X9XZ.h , .                           ",
"                                  7 N N E :XkXDXDXDXDXkXkXkXkXkXkXkXkXkXDXkXtXg.T.b.2 w s s < #                                 ",
"                                  & B A E ;XDXDXSXkXkXkXkXkXkXkXgXgXgXlXDXkX0Xf.Y.g                                             ",
"                                o r Y ) ) <XDXkXgXgXgXgXgXgXgXgXgXgXlXJXLXkX+Xf.Y.d                                             ",
"                            $ l .X:Xy./ ) *XkXkXgXgXgXgXgXgXgXgXgXgXJXLXLXtXf.d.Y.d                                             ",
"                      @ 5 v 1XAXDXlXg.' J *XgXgXgXgXgXgXfXfXfXgXgXlXLXLXzX+Xd.d.Y.a                                             ",
"        % b 7 ; 3 l r.@XyXSXDXSXSXlX:X^ ( ;XfXfXgXgXgXgXfXfXfXfXfXkXjXeX:Xu.u.s.H.1                                             ",
"  * : : b V { >X2XtXfXlXSXSXSXSXSXhX,Xy._ k.tXfXfXfXfXfXfXfXfXfXfX,Xk.' R Z Z Q Z.0                                             ",
"  : q q b A <XiXtXfXlXlXSXSXSXSXSXaXwXy.[ f.:XfXfXfXfXfXfXfXfX0Xk.' ) L K V V V N.g                                             ",
"  : q q m N <XtXaXkXlXlXlXlXSXSXfXiXwXy.[ f.f.+XtXfXfXfXfXeXg.j.E E ( / M n n D M.#                                             ",
"  : q w 9 N z.iXgXlXlXlXlXlXlXfXiXiX0Xi.i.d.d.d.g.>XrXtX0Xd.j.W E ' ^ y.i.! q n.a                                               ",
"  ; w y t C l.uXiXfXgXgXgXfXjXzXjXiX#XZ.c t.d.d.u.u.d.d.u.j.W ' y.:XwXaXaX+XZ.g                                                 ",
"  - w y t Z ] eXeXeXtXtXiXiXzXzXjXwX8Xg . 4 c t.u.u.u.t.e.W k.0XfXlXlXlXfX#XH.1                                                 ",
"  - y u y T ] ,XiXuXeXuXtXtXjXjXeX8Xb.+     o > p c w.w.j.,XgXlXkXkXlXgXiX7XF.#                                                 ",
"  * y j u Y E z.eXuXuXeXeXuXiXrX$Xh #             . - r.iXkXkXkXkXkXkXfXiX8Xm.X                                                 ",
"  @ w v c t E ] ,XeXeXeXeX0XXX,.0 .         O % O 3 r.tXkXkXkXkXlXkXkXfXeXT.&.                                                  ",
"  o q ,. Xw T E ' y.N.c x s < X           . b F ^ >XtXfXkXkXgXlXkXkXgXiXrX[.a                                                   ",
"  . 2 j ,.a % R E w.a                     % G U <XuXiXkXkXkXgXgXgXgXfXiX9XF.#                                                   ",
"    - f h +   O > 3 X                   + > G U <XeXfXkXkXkXgXgXlXjXjXeXT.c.                                                    ",
"    . = X                             o : > G U ;XeXfXfXfXfXiXdXzXzXjX7X~.1                                                     ",
"                                    . ; > : S U &XeXeXeXeXeXeXeXzXzXqXT.v..                                                     ",
"                                    . ; 4 4 9 I { qXeXeXeXeXeXeXuXqXOXG.<                                                       ",
"                                      - 4 q 8 H ` ;XeXeXeXeXeXeXqX@XY.d                                                         ",
"                                      @ 4 q q S L l.qXeXeXeXeXqX#XY.d                                                           ",
"                                      . : q w t H ( ;XqXeXeX0X7XZ.a                                                             ",
"                                        * q y w m L ( z.qX>XT.*.,                                                               ",
"                                        . 2 y x r M ) ( (  X&.                                                                  ",
"                                          * q r.v j Q A Z V.0                                                                   ",
"                                            : l ,.m.< % 5 1                                                                     ",
"                                            o 2 *.c..                                                                           ",
"                                              + a #                                                                             "
};
