/* XPM */
static char *_e8703c84bd84a9aca01df0992723055cQpefKqqxLXvAFVE[] = {
/* columns rows colors chars-per-pixel */
"64 64 254 2 ",
"   c #000000",
".  c #040608",
"X  c #0A0508",
"o  c #030B0C",
"O  c #0B0A0D",
"+  c #190B08",
"@  c #0D0C16",
"#  c #150C1A",
"$  c #051618",
"%  c #17161A",
"&  c #2A0D0B",
"*  c #0B1C23",
"=  c #1B1525",
"-  c #1C1D30",
";  c #241728",
":  c #281A34",
">  c #351C39",
",  c #072528",
"<  c #102E36",
"1  c #053436",
"2  c #272535",
"3  c #342D34",
"4  c #5F1B16",
"5  c #69180F",
"6  c #542736",
"7  c #623635",
"8  c #103F40",
"9  c #392846",
"0  c #2A3145",
"q  c #39324B",
"w  c #3E3955",
"e  c #463647",
"r  c #5A3047",
"t  c #453A56",
"y  c #66374B",
"u  c #18454B",
"i  c #0A5255",
"p  c #2F4655",
"a  c #145F67",
"s  c #35526B",
"d  c #11696E",
"f  c #2C626E",
"g  c #4E4B52",
"h  c #48425C",
"j  c #714A58",
"k  c #474863",
"l  c #4D4F6E",
"z  c #775570",
"x  c #526C74",
"c  c #6E6B74",
"v  c #B62A0E",
"b  c #863537",
"n  c #A02521",
"m  c #DC1617",
"M  c #EE170F",
"N  c #D92D1C",
"B  c #EB2808",
"V  c #EA2518",
"C  c #F23015",
"Z  c #E61628",
"A  c #D82E38",
"S  c #EF3630",
"D  c #8C4615",
"F  c #91482D",
"G  c #DD571A",
"H  c #F5711A",
"J  c #CC562F",
"K  c #F65D29",
"L  c #ED4C31",
"P  c #F74939",
"I  c #E95635",
"U  c #F75436",
"Y  c #F26928",
"T  c #9E2E4A",
"R  c #B03548",
"E  c #C83C44",
"W  c #F4384E",
"Q  c #F53552",
"!  c #D2387F",
"~  c #EC2968",
"^  c #8D5054",
"/  c #B1504B",
"(  c #8C5A6F",
")  c #B45170",
"_  c #91777C",
"`  c #B16574",
"'  c #D3474A",
"]  c #F54644",
"[  c #EB524F",
"{  c #E46D53",
"}  c #D1546D",
"|  c #EA546C",
" . c #D06A75",
".. c #EA6774",
"X. c #ED8F6B",
"o. c #2D3A90",
"O. c #383C96",
"+. c #483A9B",
"@. c #503698",
"#. c #4D3EA2",
"$. c #5A38A5",
"%. c #623BA5",
"&. c #294799",
"*. c #354499",
"=. c #317385",
"-. c #3350A5",
";. c #276AB2",
":. c #57458C",
">. c #49419A",
",. c #54419B",
"<. c #765196",
"1. c #75589A",
"2. c #557787",
"3. c #4745A5",
"4. c #5252B6",
"5. c #6E4CAE",
"6. c #6349B5",
"7. c #4763BE",
"8. c #787DAB",
"9. c #3575C3",
"0. c #377AC9",
"q. c #5F59C3",
"w. c #685DC3",
"e. c #4E6FC8",
"r. c #6666C5",
"t. c #707CCE",
"y. c #C43A88",
"u. c #875388",
"i. c #B05991",
"p. c #926D92",
"a. c #A4628D",
"s. c #A5679B",
"d. c #B07292",
"f. c #B5799B",
"g. c #8356A2",
"h. c #8F6FAC",
"j. c #A96BA2",
"k. c #A773A5",
"l. c #B87BA4",
"z. c #AE7BB1",
"x. c #CE4A80",
"c. c #D1708C",
"v. c #179399",
"b. c #2B8D96",
"n. c #129BA0",
"m. c #309BAB",
"M. c #18A5AB",
"N. c #16B3B9",
"B. c #2AA8B3",
"V. c #49969E",
"C. c #698393",
"Z. c #6887B9",
"A. c #7483B2",
"S. c #7B91B2",
"D. c #358BD4",
"F. c #2B97DB",
"G. c #1AB7C0",
"H. c #37B4CC",
"J. c #26A5DF",
"K. c #1EAEE5",
"L. c #19B8EA",
"P. c #23A6E1",
"I. c #35B7E8",
"U. c #5092D3",
"Y. c #6D8CCE",
"T. c #4FAECE",
"R. c #68ACD3",
"E. c #7091E3",
"W. c #4CADE3",
"Q. c #69ABE3",
"!. c #36C7CF",
"~. c #18CBEC",
"^. c #1ACBF2",
"/. c #19D8F7",
"(. c #29C7EA",
"). c #2DD0F2",
"_. c #19E7FC",
"`. c #25EAFC",
"'. c #37E8FA",
"]. c #4DCFDD",
"[. c #64CFDD",
"{. c #4FCEF2",
"}. c #6CCAED",
"|. c #53E7F8",
" X c #70E9F9",
".X c #958E92",
"XX c #A69597",
"oX c #8991AF",
"OX c #9683B7",
"+X c #BB86A7",
"@X c #AC91AA",
"#X c #BB89B2",
"$X c #B89AB9",
"%X c #87A7AF",
"&X c #ACA9AF",
"*X c #EB8E93",
"=X c #C489A9",
"-X c #CB8FAB",
";X c #C78CB4",
":X c #C897B7",
">X c #CC9ABD",
",X c #D498B7",
"<X c #E29EA6",
"1X c #E591B2",
"2X c #CBA7B7",
"3X c #D8A6BC",
"4X c #CEB2B6",
"5X c #9290CA",
"6X c #A79DC2",
"7X c #91AEC9",
"8X c #A9AAC7",
"9X c #D09BC3",
"0X c #D8A8C5",
"qX c #DCA3CB",
"wX c #DBABCD",
"eX c #DAB5C7",
"rX c #D1B1CC",
"tX c #E0A8CA",
"yX c #E2ADCD",
"uX c #E5B5CC",
"iX c #E7B8C9",
"pX c #E5ACD6",
"aX c #E3B5D4",
"sX c #E5BBD5",
"dX c #E9BDD5",
"fX c #EBB7DC",
"gX c #E7BDD8",
"hX c #EDBCE2",
"jX c #F5B8E9",
"kX c #FCBBF3",
"lX c #A8CADA",
"zX c #B9C8D1",
"xX c #85D3EB",
"cX c #9FE0ED",
"vX c #DCC7D2",
"bX c #D4CCD1",
"nX c #E9C8CB",
"mX c #EECFCD",
"MX c #E6C5D6",
"NX c #EBC4D5",
"BX c #E7C2D9",
"VX c #E9C4DA",
"CX c #EAC9DB",
"ZX c #EBD5DA",
"AX c #ECD8D8",
"SX c #F3D9D8",
"DX c #F4E1DE",
"FX c #F4C2E9",
"GX c #FDC4F6",
"HX c #CDF3F8",
"JX c #F3E4E5",
"KX c #E7EDF0",
"LX c #FAECF4",
"PX c #FBF5F9",
/* pixels */
"                                                                                                                                ",
"                                                  . @ % ; % .     . . .                                                         ",
"                                            . 3 c XX4X4X@Xp.p._ .XXXXXXXc p $                                                   ",
"                                          3 XXmXSXSXnX4X4XnXSXSXmXmXnXnXnXbX&Xx ,                                               ",
"                                      . c bXJXDXAXnXmXmXmX4X2X-X+X+Xf.f.f.f.+X$X%Xf o                                           ",
"                                      c JXLXJXAXAXSXnX2X=X+Xk.h.h.A.A.A.8.p.p.a.s.oX=.$                                         ",
"                                    g KXPXLXJXSXAXeX:X@XOXZ.U.W.W.).).).(.I.T.A.p.a.h.b.,                                       ",
"                                  % zXPXPXJXJXZXrX$XOXY.W.{.{.|. X X|.'.`.`.`.).T.p.a.S.v..                                     ",
"                                  x KXPXLXJXAXrX$XY.Q.}.}.cXHXcXcXPXHX'.`.`._.`./.U.a.oXM.o                                     ",
"                                O &XKXLXLXDXvX6Xt.Q.}.xXHXKXKXHXxXHXHX|._._._._._.(.8.S.v.                                      ",
"                                3 bXDXJXJXZXrXt.Y.Q.Q.xX}.}.{.{.{.{.).)._._._._._./.T.T.a                                       ",
"                                g vXZXSXSXvX6Xr.E.Q.Q.W.W.W.W.I.(.(.)././._._._./.^.(.H.i                                       ",
"                                c vXZXZXZXeX5Xr.r.Y.U.U.W.W.W.I.I.I.(.(.^././.^.~.L.~.Z.m.,                                     ",
"                              % @XZXZXnXnXeX5Xw.6.4.q.e.e.U.U.D.F.J.P.K.L.L.L.L.L.K.~.Z.Z.v.o                                   ",
"                            . f R.8XMXnXeX0X5Xr.6.6.4.4.7.e.e.0.D.F.F.P.P.K.K.K.P.P.~.Z.p.H.a                                   ",
"                            , W.{.W.7XeXeX:X5Xr.6.6.6.4.4.e.e.0.D.D.F.F.F.J.J.J.F.F.J.8.h.H.N.o                                 ",
"                            < Q.}.W.U.$X3X=X5Xr.6.%.$.4.4.7.e.e.0.D.D.D.F.F.F.F.D.9.;.1.k.H.M.o                                 ",
"                            * Y.Q.U.e.OX3X+X5Xt.q.%.$.$.3.3.4.7.7.9.9.0.0.0.9.;.-.&.*.u.8.B.1                                   ",
"                              l r.r.r.h.,Xl.OXE.r.6.$.$.#.#.3.3.-.-.-.-.-.-.&.&.o.o.:.h.m.1                                     ",
"                              @ :.5.w.h.=Xd.$XE.t.w.$.$.$.#.+.+.3.*.*.*.*.*.*.o.o.O.p.R.i                                       ",
"                                % z k.z.l.a.0XrX5Xt.r.6.%.@.@.+.+.+.O.O.O.O.O.o.>.p.f.T.i                                       ",
"                                  O e a.f.f.uXiXeX:XOXh.5.5.%.$.,.,.,.>.>.>.:.<.k.l.f.R.d                                       ",
"                                      ; ( =X,XeXiXiX3X:X#Xk.g.g.<.<.<.1.1.p.k.+X+X+XoXb.,                                       ",
"                                        X 3 ( +X3XuXiXiX3X,X:X;X#X+X+X+X+X+X=X+X@XC.p $                                         ",
"                                              = j c.,XeXiXiXuX3X3X,X,X:X:X:X@XC.p $                                             ",
"                                        X & & 5 n N E ` f.#X2X4XeX4X2X@Xd._ g % .                                               ",
"                                    + n v N S P S M M V J / ^ z z z ^ / A S I / ^ 7 3 % .                                       ",
"                                    O b I U U P S V B B K K K I I I U P S L K U P ] ' 2.a                                       ",
"                                      # F I U P S S [ L K H H Y K K U { L C K U P ] ( b.1                                       ",
"                                        2 } U P S } uXiX<XX.X.X.X.*X<XNX*XV C P P ( b.1                                         ",
"                                      % ( l. .P S 3XCXCXMXMXNXNXVXCXCXCXNX| M V } oXb.o                                         ",
"                                    % XX,Xl.f.' c.BXVXCXCXMXBXMXMXMXMXMXVX3XS ' f.:XlXb.$                                       ",
"                                  @ .XNXuX:Xl.l.0XNXBXBXVXVXMXBXBXBXBXMXMXeX=X+X:XuXiXlXb.$                                     ",
"                                X p.VXNXiXyX+X#XsXgXgXgXBXVXVXVXBXBXBXBXMXaX9X8XeXiXiXiXlXb.o                                   ",
"                                z BXVXdXiXuX>X>XgXgXgXgXgXgXBXVXVXBXBXBXBXsX9X7XbXNXNXiXiXxXd .                                 ",
"                              e eXVXVXsXuXuX:X0XgXBXgXgXgXgXgXBXVXVXBXBXBXsX>X7XlXNXCXNXNXeXoXf $                               ",
"                          4 b =XVXVXNXuXuX0Xl.0XFXVXgXgXgXgXgXgXBXVXVXBXBXsX>X8X[.eXCXCXNXtX| d.b.$                             ",
"                        & ' ] [ *XiXsXuXuX;Xk.wXGXFXsXsXgXgXsXgXgXBXBXVXVXsX>X$X].8XNXNXuX..Q } B.,                             ",
"                        X 4 ' P P ] *XuX0Xk.k.pXGXGXgXsXsXsXsXsXgXgXBXBXVXaX:X$X].S.0X,X..W } V.1                               ",
"                          2 h j n m Z |  .) i.>XhXFXgXsXsXsXsXsXsXsXsXBXBXwX;Xc.` ) } A A T x M.o                               ",
"                        = h k k h 6 5 B B V L } ,XaXsXsXaXaXsXsXsXsXsXgXgX>X .Q Z M A b r t h m.d                               ",
"                      O w k k k k * X v B C U ] } ,XaXaXaXaXsXaXsXsXsXsXwXc.W W S Z C.=.t t t s N.1                             ",
"                      2 t q 0 h 0 .   5 n E [ ] Q x.9XaXaXaXaXaXaXaXaXaX-X[ ] } i.p.H.s t p t t =.n.o                           ",
"                    O q q O . 0 %     % +X;Xi.} Q ~ i.wXaXaXaXaXaXaXaX9X .I  .;XwXsX[.a p s 9 t w m.d                           ",
"                    O q 9 .   .       g aXsXqXl.} ~ ! #XaXaXaXaXaXwX:Xl.{  .,XdXdXdXzXB.$ % = 2 9 p M.1                         ",
"                      @ =           O @XgXsXaXaX;Xx.~ i.9XwXwXqX:Xl.k.d.{ -XsXdXdXdXsX[.u     . O O * $                         ",
"                                    e wXsXsXsXsXaX;X! i.s.j.j.j.j.j.j. .c.wXdXsXdXgXdXlXv..                                     ",
"                                    p.aXsXaXsXsXsXwXc.y.s.s.s.s.j.j.k.d.=XsXgXgXaXgXsXrX].,                                     ",
"                                  % #XyXyXaXsXsXsXsX,Xs.<.u.u.z z l p k >XgXgXgXaXhXfXyXxXd                                     ",
"                                  3 0XqXpXjXgXsXaXsXqXS.< O O O . .   e qXsXsXsXfXkXjXyXlXM..                                   ",
"                                  j qXyXkXGXhXaXsXsXyXoX<             e wXsXsXsXFXGXkXpXrX!.$                                   ",
"                                  z tXfXkXGXhXaXsXsXpX6Xu             3 0XsXsXsXFXGXkXpXwX].1                                   ",
"                                  p.yXpXjXkXhXaXaXsXaX6Xu             ; :XsXsXsXsXgXpXtXwX7Xf $                                 ",
"                                X p.qXqXqXpXaXaXaXaXyX6Xu             O @XsXsXsXaXaXaXwXwX} ) m.,                               ",
"                              X 5 c.qXqXqXyXaXaXaXyX9Xc.j *           & ` wXaXaXsXsXuX3X1X| ~ T.1                               ",
"                              + G Y X.-X,X9XqXqX9X;Xc.W E u           5 S } ..c.......| Q Q d.b.o                               ",
"                              X D H H Y { .. .....[ ] ] ^ ,           & v m m m m A E R T y B.1                                 ",
"                                # 7 F J G G I I I ' / c %               ; 6 6 6 r r e t t l m.a .                               ",
"                                O ; : > 6 6 7 y g g l d .               = 9 q q t t t t c &Xc b.d .                             ",
"                                . : > 9 9 q q w l .X%XV.a               # > 9 9 q e t t t h t s G.1                             ",
"                                  # : > 9 9 q w s 2.V.B.d               . @ # = = ; : : : 2 0 u d $                             ",
"                                    O # # = = - - < u 8 o                                   . .                                 ",
"                                                                                                                                ",
"                                                                                                                                "
};
