/* XPM */
static char *_d67440259274d19d8d796544e9ee2c21hKV5onJ6yVRfSvI[] = {
/* columns rows colors chars-per-pixel */
"64 64 226 2 ",
"   c #000000",
".  c #05040A",
"X  c #0A060D",
"o  c #07090E",
"O  c #0A0A0E",
"+  c #060512",
"@  c #090612",
"#  c #0C0B13",
"$  c #090719",
"%  c #0B091C",
"&  c #140D17",
"*  c #140D1C",
"=  c #0F121B",
"-  c #19111E",
";  c #0D0B23",
":  c #0F0B28",
">  c #130D21",
",  c #120E2B",
"<  c #1C1222",
"1  c #17172A",
"2  c #150F32",
"3  c #141135",
"4  c #1B1337",
"5  c #15123D",
"6  c #1B143D",
"7  c #1F1C3F",
"8  c #211429",
"9  c #271937",
"0  c #2A1B34",
"q  c #311E3C",
"w  c #1D2235",
"e  c #26263F",
"r  c #171547",
"t  c #1A1342",
"y  c #1D164D",
"u  c #1C1752",
"i  c #1E1854",
"p  c #1D1A58",
"a  c #271947",
"s  c #201750",
"d  c #241B55",
"f  c #231B5B",
"g  c #2C2D4B",
"h  c #392346",
"j  c #24304F",
"k  c #2D255B",
"l  c #362755",
"z  c #2A355B",
"x  c #35395C",
"c  c #1F1E65",
"v  c #241D64",
"b  c #2A1F6E",
"n  c #301D62",
"m  c #27216F",
"M  c #362969",
"N  c #383F66",
"B  c #2D2378",
"V  c #34257A",
"C  c #42294F",
"Z  c #442B55",
"A  c #42295F",
"S  c #483267",
"D  c #563467",
"F  c #5F3A6F",
"G  c #463171",
"H  c #643B78",
"J  c #3D4471",
"K  c #504C7E",
"L  c #644079",
"P  c #2D2688",
"I  c #2E2988",
"U  c #322786",
"Y  c #332A8C",
"T  c #2F2992",
"R  c #3B2D94",
"E  c #352C98",
"W  c #3B2F9B",
"Q  c #36309F",
"!  c #3C329D",
"~  c #3B33A2",
"^  c #3E37AA",
"/  c #443487",
"(  c #5C3683",
")  c #402D97",
"_  c #482F9D",
"`  c #522F91",
"'  c #463494",
"]  c #4A3494",
"[  c #44319D",
"{  c #4B309C",
"}  c #5A3D90",
"|  c #663F88",
" . c #4333A3",
".. c #4B34A3",
"X. c #4439A6",
"o. c #4B3AA7",
"O. c #4E36A9",
"+. c #4539AB",
"@. c #4C3BAC",
"#. c #5738A4",
"$. c #513CA5",
"%. c #5336A9",
"&. c #533CAD",
"*. c #5B3BAE",
"=. c #533EB1",
"-. c #5C3DB2",
";. c #603AA1",
":. c #6239AE",
">. c #643DB3",
",. c #6B3EB4",
"<. c #683FB8",
"1. c #703FB5",
"2. c #3A4C83",
"3. c #394C89",
"4. c #504B92",
"5. c #485592",
"6. c #535A9B",
"7. c #734588",
"8. c #6A4A97",
"9. c #6E4A99",
"0. c #774896",
"q. c #4842AD",
"w. c #4649AB",
"e. c #5B40A7",
"r. c #5342AD",
"t. c #5B43AA",
"y. c #514CAF",
"u. c #4755A8",
"i. c #545CA8",
"p. c #4F46B5",
"a. c #5343B4",
"s. c #5B42B5",
"d. c #564AB4",
"f. c #5544B8",
"g. c #5C45B9",
"h. c #5B4BBC",
"j. c #5554B5",
"k. c #5855BA",
"l. c #5B54BC",
"z. c #6243AC",
"x. c #6B46AF",
"c. c #7C4BA8",
"v. c #6442B5",
"b. c #6B42B5",
"n. c #6949B5",
"m. c #6347BA",
"M. c #644ABC",
"N. c #6B4BBC",
"B. c #7242B6",
"V. c #754CB6",
"C. c #7C4BB4",
"Z. c #7646B9",
"A. c #7B45B9",
"S. c #724BBC",
"D. c #7B4DBD",
"F. c #6A54B9",
"G. c #7450BE",
"H. c #7C53BE",
"J. c #5763B1",
"K. c #606DAF",
"L. c #6476BF",
"P. c #5C59C3",
"I. c #654FC1",
"U. c #6256C5",
"Y. c #6B55C1",
"T. c #635BC4",
"R. c #6A59C6",
"E. c #7454C3",
"W. c #7C53C2",
"Q. c #7B5BC7",
"!. c #5D66C6",
"~. c #5A73CB",
"^. c #646CC3",
"/. c #6966C8",
"(. c #626ECC",
"). c #7966C7",
"_. c #6C75C5",
"`. c #6670CB",
"'. c #6D74CF",
"]. c #7771CC",
"[. c #6874D0",
"{. c #7C74D1",
"}. c #757FD6",
"|. c #824C9F",
" X c #834CA5",
".X c #8751A9",
"XX c #9055A2",
"oX c #834CBD",
"OX c #8A4CBE",
"+X c #865AB6",
"@X c #8353BD",
"#X c #8C53BE",
"$X c #975AB8",
"%X c #9A60BA",
"&X c #814FC1",
"*X c #8B4FC1",
"=X c #934EC0",
"-X c #8354C3",
";X c #8C54C2",
":X c #825AC4",
">X c #8C59C6",
",X c #825DCD",
"<X c #8C5CC9",
"1X c #9355C4",
"2X c #9C54C4",
"3X c #9459C6",
"4X c #9D59C6",
"5X c #935DC9",
"6X c #9A5CC9",
"7X c #A255C5",
"8X c #A45AC6",
"9X c #A35CC9",
"0X c #AB5CC9",
"qX c #8C61CC",
"wX c #8A66CD",
"eX c #9960C6",
"rX c #9461CC",
"tX c #9C63CC",
"yX c #9D65D0",
"uX c #8371D1",
"iX c #A465CB",
"pX c #A564CD",
"aX c #AA62CC",
"sX c #AB67D1",
"dX c #B26AD2",
"fX c #7583D7",
/* pixels */
"                                                                                                                                ",
"                                                                                                                                ",
"                                                                                                                                ",
"                                                                                                                                ",
"                                                                                                                                ",
"                                          . < < X                                                                               ",
"            . .               .         . F +X%XXXD -                                                                           ",
"                              .         0 +XT.tXdXaX$XC                                                                         ",
"                                        L ).wXeXt.r.5XiXl                                                                       ",
"                                      - $XsXpXz.q.p.:XpXx.,                                                                     ",
"                                      Z pXpX@Xq.p.h.rX;X*.4                                                                     ",
"                                      S yXpXH.a.M.>X-Xv.' %             . o # # .                                               ",
"                                      a G.5XrX<X5X-Xs...s           o x 5.6.i.6.5.N =                 . -                       ",
"              .                       @ ] N.-X:XG.-. .f .     . < h K _.y.y.y.y.j./.5..                 .                       ",
"                                        6 o.=.=.@.W v .     8 7.$XtXF.^.^.k.T.R./.'.i.;                                         ",
"                                          5 B Y B y .   . Z $XsXaXaX>XG.).{.{.]./.j.$.( <                                       ",
"                                  . .       . $ +     X F 8X#XV.4XaXaXiX9X9X9XeX>X@X;X9X X8                                     ",
"                                      .             8 7.0XV.@.p.;XaX9X9X9X4X9X9X9X9X7X4X2X( .                                   ",
"                      .         o j 2.5.2.g 0 0 h H $X4Xn.&.f.S.9X0X9X4XV.n.;X4X4X4X4X1XA.` .                                   ",
"                              = 3.u.w.w.~.'.@X3XiXaXoXe.a.f.S.9X7X7X8X;Xg.h.;X2X2X2XOXA.,.n                                     ",
"                            # 3.w.q.a.f.!.[.N.;X0X2X&.s.g.m.2X#XN.;X7X2X;X1X2X2XOXA.1.:.V @     .                               ",
"                            z w.p.h.h.h.[.T.S.1X0X0X1X&X&X2X8XW.Y.1X7X7X2X2XOXZ.,.,.%.V %                                       ",
"                          o 5.p.h.h.l.(.`.W.4X0X0X0X0X7X2X7X8X2X2X7X7X2X2XOXB.,.:._ b $                                         ",
"                        # G ~.P.P.!.(./.;X8X0X0X8X#Xx.e.$.z.2X8X7X7X2X2XOXb.,.:.) f .                                           ",
"                      < 8.Q.T.`.(./.Y.1X8X8X8X2Xx.$.r.s.g.a.oX7X7X2X2X=XB.,.>.R t                                               ",
"                    & 9.rX:XN.N.S.-X1X#X1X7X8XC.o.g.m.g.g.m.;X2X2X2X2XA.b.<._ t               1 g 1 .                           ",
"            .       S qX<X5X3X3X3X4X1Xn.m.1X4X#XN.M.M.M.N.-X2X2XOX1XOXb.<.*.b .             Z ).fX_.6.J x x e .                 ",
"                    / ,X<X<X3X3X1X1X1X;X;X1X2X2X1X1X;X;X1X2X1XA.Z.OXb.b.<.%.y             0 $XtX{.`.'.fX}.}._.l                 ",
"                    M M.E.W.W.D.S.n.b.b.D.;X<X<X>X1X1X1X1X1X1XoXoXb.*.*.<.%.y             | 9X9XV.r.d.).{.uXW.;.*               ",
"                    , $.g.v.v.v.v.-.-.-.s.Y.k.j./.Q.-X*X*X*XoXZ.b...Y R *.-.V .         q $X9X4Xv.h.M.1X6X4XZ.,.a               ",
"                      6 ] =.-.=.O. .[ [ @.k.! !  .y.M.b.b.<.>.*.[ Y P Y %.>.{ :       *  X@XV.4X;XW.:X4X4XOX,.>.a               ",
"                        @ t f v f y 5 5 f w.X. . . .&.-.-.-.-.) P P Y [ -.-.) ;       D ;X$.r.;X4X4X4X4X;Xb.<.] %               ",
"                                          7 y.+. . .O.-.-.-.-.[ R [ %.-.-...v .     . 0.V.&.g.W.6X3X-X1XZ.-...t                 ",
"                                            k r.=.&.s.s.-.-.-.-.&.&.O.[ U y .       X c.n.s.g.W.6X;XS.;Xb...u                   ",
"                  .                           7 / $.=.-.&.O. .R U b u , +           X c.S.a.h.-X3X3X>X-X-.m .                   ",
"                              = 1 #             . , y f d y 3 ; +                   . 9.5XH.W.3X3X>X-XN.@.r                     ",
"                          1 J i.L.K.l                                                 A <X5X5X:XN.m.s.s.[ :                     ",
"                        w u.j.j.(.fX:Xl                                               > t.G.N.s. .+.s.a.V .                     ",
"                      o 5.k.U.T.'.uX6XC.9                                               M f.f.a.X.a.a.! 5                       ",
"                      = J.P.U.).wX5X3X3Xc.A 9 #                                         $ ' f.f.a.@.R y                         ",
"                      # i.U.R.qX5Xn.d.H.3X3X#X| @                                         , Y ! W m ,                           ",
"              .       . 4.U.Q.rX5XG.N.W.3X>X-Xz.>                     & h Z q X             $ 3 : .                             ",
"                      . 4.,XqX<X<X>X>X>X-XN.v.] @                 . Z .X9X9X4X0.9                                               ",
"                        M E.E.N.m.M.N.M.g.s.&.d                 & H 9X9X1X1X9X9Xc.9                       . X                   ",
"                        % / r.@.X.X.@.=.=.[ d .             O h |.9X#Xz.$.&.#X4X;X#.,                                           ",
"                          @ 3 5 3 5 y f u :               0 0.4X9X1X$.&.s.s.D.2XoX<.G .                                         ",
"                                                        q +X3X3X4X#X$.s.g.N.1X;Xb.>.*.2                                         ",
"                                                      *  X-Xm.-X4X1XoXD.-X1X1XB.>.>.O.u                                         ",
"                                                      S 5XN.I.;X4X3X3X1X1X1X;X>.*...E i                                         ",
"                                                    . 8.5XW.-X3X3X3X;X;X;X;XS.*.O.E T 2         .                               ",
"                                            .       . } <X<X>X>X>XD.b.v.b.>.*.&. .T u                                           ",
"                                                      k s.N.S.G.N.-.&.&.&.&.&.@. .v .                                           ",
"                                                      @ V +.@.&.&.&.@.~ E ~ @.@.R ;                                             ",
"                                                        + p Y ~ +.@.+.Q ~ +.+.! r                                               ",
"                                &                           % i I ~ ^ ^ ^ ~ I 5                                                 ",
"                                                                % r c c p 5 +                                                   ",
"                                                                                        . X                                     ",
"                                                  . .                                                                           ",
"                                                                                                                                ",
"                                                                                                                                ",
"                                                                                                                                ",
"                                                                                                                                ",
"                                                                                                                                ",
"                                                                                                                                "
};
