/* XPM */
static char *Untitled_design__4_1748198605[] = {
/* columns rows colors chars-per-pixel */
"32 32 162 2 ",
"   c black",
".  c #0E0F11",
"X  c #4F6172",
"o  c #27313D",
"O  c #141719",
"+  c #758FA7",
"@  c #9AD0FF",
"#  c #5E85AA",
"$  c #040507",
"%  c #0E1012",
"&  c #758FA8",
"*  c #98CCFF",
"=  c #83C0FF",
"-  c #71AFEA",
";  c #1A2735",
":  c #020202",
">  c #617383",
",  c #98CAFD",
"<  c #7FB9FE",
"1  c #72B1FE",
"2  c #71B5FF",
"3  c #39587A",
"4  c #232829",
"5  c #A2CCE1",
"6  c #85C1FF",
"7  c #70AFFD",
"8  c #68A9FE",
"9  c #6CB3FF",
"0  c #4C7EBA",
"q  c #03060B",
"w  c #4D6569",
"e  c #A4EDFC",
"r  c #80C2FB",
"t  c #6DB1FE",
"y  c #69AEFE",
"u  c #6CB4FE",
"i  c #538BE7",
"p  c #0F1831",
"a  c gray1",
"s  c #6596A3",
"d  c #83E5FF",
"f  c #7FCEFB",
"g  c #6EB7FC",
"h  c #6CB7FD",
"j  c #70B8FC",
"k  c #538CFB",
"l  c #1F3466",
"z  c #0E1213",
"x  c #68B2CD",
"c  c #65D4FF",
"v  c #8EDFFC",
"b  c #80C5FB",
"n  c #71BAFB",
"m  c #70B2F8",
"M  c #5191FB",
"N  c #2F579B",
"B  c #000101",
"V  c #1A272A",
"C  c #73CFE7",
"Z  c #71DFFE",
"A  c #8BCDF6",
"S  c #699CF5",
"D  c #5C95FC",
"F  c #5170E2",
"G  c #4253D2",
"H  c #354DA4",
"J  c #030509",
"K  c #2F4244",
"L  c #8FECF5",
"P  c #7EDAF9",
"I  c #4770E9",
"U  c #4165F1",
"Y  c #4E6DF7",
"T  c #3C41CB",
"R  c #302DC1",
"E  c #282697",
"W  c #04030C",
"Q  c #455C5D",
"!  c #A7F8FA",
"~  c #5F96ED",
"^  c #2F4CE4",
"/  c #3D60ED",
"(  c #4A62E5",
")  c #3334C3",
"_  c #3233C5",
"`  c #272695",
"'  c #03030A",
"]  c #3E5459",
"[  c #98D5F4",
"{  c #3D62E7",
"}  c #3157E7",
"|  c #3863E9",
" . c #4256DA",
".. c #373ECE",
"X. c #3941D2",
"o. c #292D94",
"O. c #020206",
"+. c #202F3F",
"@. c #5F92E6",
"#. c #3460E9",
"$. c #3466EB",
"%. c #376DED",
"&. c #4362E4",
"*. c #404EDC",
"=. c #4250E0",
"-. c #2A328B",
";. c #010001",
":. c #111B2B",
">. c #4778DE",
",. c #366CEE",
"<. c #3775F0",
"1. c #387DF2",
"2. c #447AF0",
"3. c #4861E9",
"4. c #4A60EC",
"5. c #272F75",
"6. c #0D1118",
"7. c #507ED0",
"8. c #3B7DF3",
"9. c #3A86F4",
"0. c #3C90F6",
"q. c #4393F7",
"w. c #507BF4",
"e. c #5371F0",
"r. c #1F2754",
"t. c #020203",
"y. c #39558D",
"u. c #4690F7",
"i. c #3C97F8",
"p. c #3FA3FA",
"a. c #43A9FA",
"s. c #599AFA",
"d. c #597EE7",
"f. c #13192F",
"g. c #0F1523",
"h. c #4586D0",
"j. c #41A8FD",
"k. c #43B4FD",
"l. c #49BCFD",
"z. c #5EB3FF",
"x. c #557BC7",
"c. c #070A10",
"v. c #234363",
"b. c #4AB0F7",
"n. c #49C1FE",
"m. c #54CCFE",
"M. c #6ACAFF",
"N. c #496792",
"B. c #05080D",
"V. c #417FAE",
"C. c #5ACBFF",
"Z. c #66D5FF",
"A. c #70C2E7",
"S. c #2A3B4A",
"D. c #13202C",
"F. c #4F8DB2",
"G. c #467A93",
"H. c #1D2E36",
"J. c #030404",
"K. c #06080B",
"L. c #010202",
"P. c white",
/* pixels */
"                                                                ",
"                                                                ",
"                                                                ",
"                                                                ",
"                                                                ",
"                            . X o                               ",
"                          O + @ # $                             ",
"                        % & * = - ;                             ",
"                      : > , < 1 2 3                             ",
"                      4 5 6 7 8 9 0 q                           ",
"                      w e r t y u i p                           ",
"                    a s d f g h j k l                           ",
"                    z x c v b n m M N B                         ",
"                    V C Z A S D F G H J                         ",
"                    K L P I U Y T R E W                         ",
"                    Q ! ~ ^ / ( ) _ ` '                         ",
"                    ] [ { } |  ...X.o.O.                        ",
"                    +.@.#.$.%.&.*.=.-.;.                        ",
"                    :.>.,.<.1.2.3.4.5.                          ",
"                    6.7.8.9.0.q.w.e.r.                          ",
"                    t.y.u.i.p.a.s.d.f.                          ",
"                      g.h.j.k.l.z.x.c.                          ",
"                        v.b.n.m.M.N.                            ",
"                        B.V.C.Z.A.S.                            ",
"                          D.F.G.H.J.                            ",
"                            K.L.                                ",
"                                                                ",
"                                                                ",
"                                                                ",
"                                                                ",
"                                                                ",
"                                                                "
};
