/* XPM */
static char *f00521a93bf1413a87f97d4a1000911042RE69ZNh0iZrSoM[] = {
/* columns rows colors chars-per-pixel */
"32 32 203 2 ",
"   c black",
".  c #000101",
"X  c #010303",
"o  c #030709",
"O  c #040C10",
"+  c #040B0F",
"@  c #020607",
"#  c #010202",
"$  c #010405",
"%  c #060F13",
"&  c #0D2530",
"*  c #183C4D",
"=  c #183847",
"-  c #0A1B23",
";  c #010304",
":  c #061014",
">  c #123341",
",  c #326F8B",
"<  c #71AACD",
"1  c #5E96BA",
"2  c #1A465A",
"3  c #08151B",
"4  c #050C0F",
"5  c #112F3D",
"6  c #367998",
"7  c #85C1EA",
"8  c #95CCFF",
"9  c #7ABCF3",
"0  c #377B9E",
"q  c #0F2B37",
"w  c #03080A",
"e  c #0B1F28",
"r  c #2A6680",
"t  c #7EBDE6",
"y  c #93C7FF",
"u  c #7CB9FE",
"i  c #74B7FC",
"p  c #519DCE",
"a  c #1A485C",
"s  c #050D11",
"d  c #153D4E",
"f  c #64A8C4",
"g  c #9ACFFD",
"h  c #7AB6FD",
"j  c #6CABFE",
"k  c #6CB0FE",
"l  c #5DA8E7",
"z  c #276684",
"x  c #0A1C24",
"c  c #09181F",
"v  c #26607A",
"b  c #8CD7EA",
"n  c #95D6FC",
"m  c #70B3FD",
"M  c #69ACFE",
"N  c #6BB1FE",
"B  c #5B9DF4",
"V  c #337BA9",
"C  c #102D39",
"Z  c #03070A",
"A  c #3A82A0",
"S  c #85DFF8",
"D  c #84DAFC",
"F  c #72BAFC",
"G  c #6CB5FD",
"H  c #6FB7FD",
"J  c #5690FA",
"K  c #3E85C6",
"L  c #184152",
"P  c #000001",
"I  c #03090B",
"U  c #123342",
"Y  c #4B9CBE",
"T  c #6ED5FD",
"R  c #78DBFC",
"E  c #8BCFFB",
"W  c #71BAFB",
"Q  c #71B4F9",
"!  c #5290F8",
"~  c #448EDB",
"^  c #1F546A",
"/  c #071217",
"(  c #050C10",
")  c #184155",
"_  c #59B3D3",
"`  c #76E2FF",
"'  c #7ED7FA",
"]  c #73A3F3",
"[  c #5C93FC",
"{  c #5274E5",
"}  c #404ECE",
"|  c #4171CD",
" . c #255F7B",
".. c #08171E",
"X. c #000102",
"o. c #1C4E64",
"O. c #73CAE0",
"+. c #8FF2FD",
"@. c #5A93EE",
"#. c #3A5AEA",
"$. c #4C6EF7",
"%. c #3D44CF",
"&. c #302BBE",
"*. c #344ABA",
"=. c #266381",
"-. c #091A21",
";. c #20546C",
":. c #88D8E5",
">. c #88CBF5",
",. c #3758E6",
"<. c #3457E8",
"1. c #4866E7",
"2. c #3539C7",
"3. c #3333C5",
"4. c #3651BE",
"5. c #266280",
"6. c #091920",
"7. c #061116",
"8. c #1E5169",
"9. c #75C1E0",
"0. c #6190ED",
"q. c #3058E8",
"w. c #3563EA",
"e. c #415FE1",
"r. c #3C45D4",
"t. c #3B44D4",
"y. c #3C61C7",
"u. c #245E78",
"i. c #08161C",
"p. c #050E12",
"a. c #1B495D",
"s. c #4D99D7",
"d. c #4273ED",
"f. c #3469EC",
"g. c #3672EF",
"h. c #4072EC",
"j. c #4559E3",
"k. c #4555E2",
"l. c #4171CA",
"z. c #040B0E",
"x. c #153C4C",
"c. c #4890C7",
"v. c #4881F2",
"b. c #3779F1",
"n. c #3A85F4",
"m. c #408AF5",
"M. c #4C74F1",
"N. c #4F6AEE",
"B. c #417DC5",
"V. c #194658",
"C. c #0F2A36",
"Z. c #3A7DA6",
"A. c #5291F1",
"S. c #3B8CF5",
"D. c #3E9AF9",
"F. c #41A2FA",
"G. c #5494F8",
"H. c #5B83F3",
"J. c #3C80B4",
"K. c #133644",
"L. c #03090C",
"P. c #225872",
"I. c #4D99DB",
"U. c #45A0F9",
"Y. c #40ACFC",
"T. c #46B7FC",
"R. c #59B0FD",
"E. c #6298EE",
"W. c #32769B",
"Q. c #0E2631",
"!. c #040A0D",
"~. c #12303D",
"^. c #347FA5",
"/. c #4EADF3",
"(. c #47BBFD",
"). c #50C9FE",
"_. c #65C7FF",
"`. c #61A2DE",
"'. c #245E79",
"]. c #010404",
"[. c #08141A",
"{. c #1B4A5F",
"}. c #4497C7",
"|. c #5AC1FB",
" X c #61D2FE",
".X c #72CCF3",
"XX c #4C8DB2",
"oX c #163C4D",
"OX c #050E11",
"+X c #0C2029",
"@X c #235871",
"#X c #4D97BF",
"$X c #58A6CC",
"%X c #3F87A7",
"&X c #1F4E63",
"*X c #0A1C23",
"=X c #020507",
"-X c #0C1F28",
";X c #173C4C",
":X c #1A4458",
">X c #020608",
",X c #020406",
"<X c white",
/* pixels */
"                                                                ",
"                                                                ",
"                                                                ",
"                                                                ",
"                                                                ",
"                          . X o O + @ #                         ",
"                        . $ % & * = - o .                       ",
"                        ; : > , < 1 2 3 ;                       ",
"                      # 4 5 6 7 8 9 0 q w .                     ",
"                    . @ e r t y u i p a : #                     ",
"                    # s d f g h j k l z x $                     ",
"                    ; c v b n m M N B V C Z                     ",
"                    @ & A S D F G H J K L O P                   ",
"                    I U Y T R E W Q ! ~ ^ / .                   ",
"                    ( ) _ ` ' ] [ { } |  ...X.                  ",
"                    : o.O.+.@.#.$.%.&.*.=.-.X.                  ",
"                  P / ;.:.>.,.<.1.2.3.4.5.6.X.                  ",
"                    7.8.9.0.q.w.e.r.t.y.u.i..                   ",
"                    p.a.s.d.f.g.h.j.k.l.^ / .                   ",
"                    z.x.c.v.b.n.m.M.N.B.V.s .                   ",
"                    o C.Z.A.S.D.F.G.H.J.K.L.                    ",
"                    $ c P.I.U.Y.T.R.E.W.Q.@                     ",
"                    X.!.~.^./.(.)._.`.'.6.;                     ",
"                      ].[.{.}.|. X.XXXoXOX#                     ",
"                      . o +X@X#X$X%X&X*X=X.                     ",
"                        # !.-X;X:XU 6.w X.                      ",
"                          # >X( p.!.,XX.                        ",
"                                                                ",
"                                                                ",
"                                                                ",
"                                                                ",
"                                                                "
};
