/* XPM */
static char *enemy1748204489[] = {
/* columns rows colors chars-per-pixel */
"32 32 202 2 ",
"   c #000000",
".  c #0B0305",
"X  c #060609",
"o  c #0A0A0E",
"O  c #18090D",
"+  c #0A0712",
"@  c #0C0B13",
"#  c #0D0B1A",
"$  c #100E1C",
"%  c #0F1014",
"&  c #151415",
"*  c #12121C",
"=  c #1C171A",
"-  c #231119",
";  c #38121B",
":  c #120E22",
">  c #181626",
",  c #15112A",
"<  c #171331",
"1  c #191434",
"2  c #1C1831",
"3  c #1D153C",
"4  c #3B0F2A",
"5  c #221A38",
"6  c #1F2029",
"7  c #272328",
"8  c #352827",
"9  c #49181F",
"0  c #4A1126",
"q  c #472F3F",
"w  c #4B3937",
"e  c #1E1341",
"r  c #261E4B",
"t  c #2A1B57",
"y  c #341856",
"u  c #353548",
"i  c #322F51",
"p  c #2E1A62",
"a  c #371D66",
"s  c #341E6E",
"d  c #2E206F",
"f  c #322367",
"g  c #3C356B",
"h  c #352475",
"j  c #3A267A",
"k  c #3C2B7C",
"l  c #7F1E4E",
"z  c #761857",
"x  c #473E45",
"c  c #4F3149",
"v  c #513C40",
"b  c #6E1163",
"n  c #413879",
"m  c #702C74",
"M  c #5E5554",
"N  c #4A4768",
"B  c #57566D",
"V  c #5D5A7F",
"C  c #6C4975",
"Z  c #72587B",
"A  c #6F6662",
"S  c #75667A",
"D  c #97293E",
"F  c #803231",
"G  c #B73E3E",
"H  c #A9762F",
"J  c #870B4A",
"K  c #8E1B4B",
"L  c #8F0854",
"P  c #9B1451",
"I  c #A41E4C",
"U  c #902345",
"Y  c #982546",
"T  c #A92A4A",
"R  c #B22A47",
"E  c #AA3349",
"W  c #B73644",
"Q  c #C43A41",
"!  c #C83F41",
"~  c #82544B",
"^  c #AD445B",
"/  c #946754",
"(  c #8D5D6C",
")  c #A9556E",
"_  c #8B7074",
"`  c #8D7375",
"'  c #AC726D",
"]  c #C04247",
"[  c #D35C5F",
"{  c #CF616B",
"}  c #D6696D",
"|  c #DB9D11",
" . c #E39D14",
".. c #D6A40D",
"X. c #DCB013",
"o. c #E9AC0F",
"O. c #FABB09",
"+. c #F6A914",
"@. c #D7922D",
"#. c #EF9923",
"$. c #EEA221",
"%. c #FDC204",
"&. c #FECD17",
"*. c #FCD431",
"=. c #B0995E",
"-. c #8C827B",
";. c #ED9E56",
":. c #D8886D",
">. c #FFD94D",
",. c #F7C156",
"<. c #432E86",
"1. c #412E88",
"2. c #44328C",
"3. c #47388A",
"4. c #5A3C8D",
"5. c #4B3995",
"6. c #4E3C99",
"7. c #6E3F8A",
"8. c #5A5686",
"9. c #564D93",
"0. c #534298",
"q. c #654390",
"w. c #70599B",
"e. c #616082",
"r. c #726C95",
"t. c #5545A3",
"y. c #564AA5",
"u. c #594CA2",
"i. c #5B4CAD",
"p. c #5E55AE",
"a. c #5A4DB3",
"s. c #5F52B3",
"d. c #6A4CA5",
"f. c #6157AF",
"g. c #6849BA",
"h. c #655BB3",
"j. c #695DB5",
"k. c #705EBA",
"l. c #6C68AA",
"z. c #716AAE",
"x. c #7876A8",
"c. c #6C64B7",
"v. c #726CB3",
"b. c #7975B8",
"n. c #7E79BE",
"m. c #694FC2",
"M. c #714FC3",
"N. c #6663CD",
"B. c #736BC1",
"V. c #7B75C1",
"C. c #7E77CC",
"Z. c #6E6DDA",
"A. c #726EDE",
"S. c #7275DF",
"D. c #7976E5",
"F. c #7B7CEE",
"G. c #7E7EF1",
"H. c #8F5A8D",
"J. c #AC5C92",
"K. c #8F6892",
"L. c #8F7D9E",
"P. c #907F90",
"I. c #AA6B8D",
"U. c #9651A8",
"Y. c #8F71AD",
"T. c #877BC3",
"R. c #877EDC",
"E. c #7D82EE",
"W. c #AA9F8F",
"Q. c #9290AA",
"!. c #8987BA",
"~. c #9585B9",
"^. c #B59EA1",
"/. c #A29DB9",
"(. c #C3AFA9",
"). c #8B86C3",
"_. c #9589C5",
"`. c #9B9AC4",
"'. c #9589D9",
"]. c #A791C6",
"[. c #B39DCA",
"{. c #A48FD3",
"}. c #AC99DA",
"|. c #A4A3C2",
" X c #B8B5C2",
".X c #B8A2D9",
"XX c #8684E6",
"oX c #C6ADC8",
"OX c #CEB1CD",
"+X c #D8BACA",
"@X c #C5ABD3",
"#X c #D0B3D2",
"$X c #CEC9C7",
"%X c #DDC0CA",
"&X c #D5D2CA",
"*X c #E3C6C4",
"=X c #ECD4C7",
"-X c #F3DEC8",
";X c #E6E3D1",
":X c #FCEFDB",
">X c #FAF4D1",
",X c #FFFDF4",
/* pixels */
"                            @ w ~ v &                           ",
"                            6 H ,.' 7 X                         ",
"                            8 | &.@.8                           ",
"                        @ u Z :.;.:.S M = X                     ",
"                      i c.'.}.[./.oX+X*X(.A =                   ",
"                  X N D.XX'._.!.~.|.$X-X:X:X-.&                 ",
"                  u R.R.XXn.x.K._ P. X;X>X,X=XM                 ",
"                # B.G.D.C.l./ | o...=.$X>X>X-X^.&               ",
"                u XXF.D.B.e. .O.&.*.X.W.&X-X=X+Xx               ",
"                8.XXF.D.s.( +.O.*.>.%.` /.*X%X%XS               ",
"              X l.D.F.Z.f.H.#.+.O.O.$.K._.+X+X#XL.o             ",
"              % c.Z.F.A.g.d.' #.+.$.' k.~.OX#X@X~.@             ",
"              * p.N.E.D.a.a.g.U.J.U.M.c.].@X.X.XY.%             ",
"            . 4 0.a.S.F.Z.a.i.g.g.m.j.T..X}.{.T.K.F O           ",
"            ; Y l z m 7.d.d.0.4.4.q.H.Y.Y.I.J.^ T T 4           ",
"            9 W E Y J J J K U U D T E W ] } { W T T 0           ",
"            ; Y P P L L P I T R E Q Q ! ] [ [ ! T Y ;           ",
"              = C m b z K T D G E ^ G G W ^ ) H.c O             ",
"              N T.y.s y 2 O q C Z K.q - y a 3.V.x.7             ",
"            u Y.V.6.p e . . n r.Q./.B   : p n c.).e.X           ",
"          X V T.j.j t +   * 8.r.Q.|.r.%   5 s y.V.n.6           ",
"          & l.v.6.s 1     > 8.r.|./.x.*   @ t 1.c.T.i           ",
"          > h.p.1.p +     2 9.w.`._.z.,     3 j t.c.g           ",
"          * t.t.1.e       e n 9.v.b.u.<     @ h 6.a.i           ",
"          o 9.i.k $       e h 5.p.i.5.2       t t.s.5 X         ",
"            g i.f         < d h 2.5.2.:       1 0.t.:           ",
"            2 y.e         # f h 2.6.k X       @ 5.g X           ",
"            @ n ,           t h 2.5.r           g e             ",
"              2 @           , h 2.<.%           2 @             ",
"                            X t 1.t                             ",
"                              , f #                             ",
"                              X *                               "
};
