/* XPM */
static char *Untitled_design__3_1748198605[] = {
/* columns rows colors chars-per-pixel */
"32 32 201 2 ",
"   c #000000",
".  c #06060A",
"X  c #0A060A",
"o  c #13040C",
"O  c #17080A",
"+  c #0D0C13",
"@  c #0C0A14",
"#  c #180612",
"$  c #081416",
"%  c #181518",
"&  c #210F0D",
"*  c #280915",
"=  c #231C1D",
"-  c #361719",
";  c #051920",
":  c #141425",
">  c #1E1B35",
",  c #370925",
"<  c #360C25",
"1  c #231A24",
"2  c #31272A",
"3  c #372B38",
"4  c #45171E",
"5  c #5F231F",
"6  c #480C27",
"7  c #54162B",
"8  c #581433",
"9  c #660D37",
"0  c #6D1834",
"q  c #78143C",
"w  c #58212E",
"e  c #712E2C",
"r  c #2B2245",
"t  c #36316C",
"y  c #453046",
"u  c #413955",
"i  c #7C3255",
"p  c #4E3364",
"a  c #443C77",
"s  c #10404E",
"d  c #336378",
"f  c #48444A",
"g  c #5C555C",
"h  c #6F4945",
"j  c #4E4574",
"k  c #675F6C",
"l  c #7C4374",
"z  c #85183C",
"x  c #9A273D",
"c  c #973838",
"v  c #AB383A",
"b  c #C13F3F",
"n  c #814237",
"m  c #B44636",
"M  c #CF473D",
"N  c #CE483D",
"B  c #D0473D",
"V  c #D54C3C",
"C  c #D94E3A",
"Z  c #D3523D",
"A  c #DD523A",
"S  c #E05538",
"D  c #8E304A",
"F  c #AD2B44",
"G  c #BB3344",
"H  c #C13943",
"J  c #AD4150",
"K  c #B46258",
"L  c #994362",
"P  c #B66975",
"I  c #C94040",
"U  c #C74844",
"Y  c #C15442",
"T  c #DA5C49",
"R  c #C06355",
"E  c #FD706B",
"W  c #413780",
"Q  c #4A3D91",
"!  c #3F4997",
"~  c #1E7085",
"^  c #1355AD",
"/  c #185DB5",
"(  c #4E498F",
")  c #554B92",
"_  c #5D529F",
"`  c #6F4C8C",
"'  c #6E6389",
"]  c #544FA1",
"[  c #5858B6",
"{  c #6255A9",
"}  c #635CBA",
"|  c #5C65B0",
" . c #6B66A4",
".. c #6A62B8",
"X. c #716ABA",
"o. c #0A79CD",
"O. c #2174C4",
"+. c #665AC6",
"@. c #5B69C5",
"#. c #6D64C2",
"$. c #656BC6",
"%. c #786BC7",
"&. c #6875C5",
"*. c #7C75C9",
"=. c #6B67D6",
"-. c #7369D7",
";. c #7572DB",
":. c #7D74E4",
">. c #7F77E8",
",. c #9E6294",
"<. c #826CA8",
"1. c #C76586",
"2. c #ED778D",
"3. c #D37DAF",
"4. c #8276CE",
"5. c #8A7AC8",
"6. c #8476D6",
"7. c #B278C8",
"8. c #867DE8",
"9. c #2E8EB0",
"0. c #6F80B3",
"q. c #1F8EDA",
"w. c #3691D4",
"e. c #3BAEC4",
"r. c #17AEF5",
"t. c #27B0F2",
"y. c #428CCE",
"u. c #6683DC",
"i. c #45BBD9",
"p. c #6F95E0",
"a. c #7EA5E3",
"s. c #28C2FF",
"d. c #39C8FD",
"f. c #4EC6D8",
"g. c #51C9EE",
"h. c #41CCFE",
"j. c #52D5FE",
"k. c #5ADDFE",
"l. c #62DFFD",
"z. c #9187B6",
"x. c #9393B8",
"c. c #A798A4",
"v. c #B19FAE",
"b. c #B0A7B9",
"n. c #C4858A",
"m. c #F79599",
"M. c #D992BF",
"N. c #E289B4",
"B. c #8C84C0",
"V. c #9684CB",
"C. c #9D8DD8",
"Z. c #A193C3",
"A. c #B599C9",
"S. c #A88DD1",
"D. c #AE9AD6",
"F. c #A493DD",
"G. c #AA97DC",
"H. c #AD99DB",
"J. c #B29DD7",
"K. c #B29DDA",
"L. c #BBA8C4",
"P. c #AEB2CD",
"I. c #BCA3D6",
"U. c #B8A2D8",
"Y. c #8C82E6",
"T. c #9386E5",
"R. c #9982E5",
"E. c #9488E5",
"W. c #9C8DE1",
"Q. c #9F90E0",
"!. c #AE8EE3",
"~. c #A191E3",
"^. c #8CAFE2",
"/. c #C88AC7",
"(. c #C69BDD",
"). c #C6AACD",
"_. c #D2ACCD",
"`. c #C6BEC2",
"'. c #CDB0CE",
"]. c #D4B4CC",
"[. c #D5BCCE",
"{. c #D8BAC8",
"}. c #C4AAD3",
"|. c #C6A8D4",
" X c #CDB2D0",
".X c #D6BBD1",
"XX c #B2C6EB",
"oX c #DDC6CB",
"OX c #DBC8D2",
"+X c #D6D0D4",
"@X c #E3C9C9",
"#X c #EBD6C8",
"$X c #EAD5CF",
"%X c #ECDBCB",
"&X c #EBDADC",
"*X c #F6EAC6",
"=X c #FCF5C7",
"-X c #EFE1D8",
";X c #F3ECD3",
":X c #CFDDF4",
">X c #F5EEE7",
/* pixels */
"                              # &                               ",
"                            1 P U <                             ",
"                            e E E c                             ",
"                          1 n.m.2.1.1                           ",
"                      % k v.&X_.M.7.<.a +                       ",
"                  % k v.[.OX.X'._.).|.D.<.u +                   ",
"                1 v.OX@X@X@X{.{._.].}.I.U.H.,.7                 ",
"              + c.>X-X#X#X@XoXb.L.).'.}.I.U.(.1.&               ",
"              g &X>X;X=X%X+XP.x.B.B.Z.}.}.K.!.A.3               ",
"            . c.-X>X=X*X-X+X .! ! _ X.5.|.K.K.~.j               ",
"            % oX%X*X=X;X+X| ^ q.o.^ ] } S.U.H.~. .X             ",
"            3 oX%X*X*X$Xx.O.r.s.t.r./ [ 5.U.H.~.4.@             ",
"            f OX$X%X%X`.0.t.d.d.d.s.q.[ 4.J.G.~.4.:             ",
"            f OXoX%X@Xb.0.t.d.j.j.d.q.| *.D.G.W.4.:             ",
"            y OXoXoXoXx.z.w.d.k.l.t.y.#.5.J.F.W.%.+             ",
"            3 P. X[.{.A.*.X.y.f.i.w.@.#.C.H.F.E....             ",
"            1 b.}.'.].'.5.X.$.| @.#.#.5.D.G.W.Y.)               ",
"            o z.I.}.}. X).V.%.%.4.5.C.K.G.Q.T.>.t               ",
"      . 4 4 X ' U.U.I.}.}.}.|.(.A.K.J.G.Q.R.8.;.> # w %         ",
"    + e U D X u F.~.J.J.U.I. X/.3.|.!.C.R.8.8.} $ < U m -       ",
"  . n A A D % r 5.Q.F.F.H.H.(.N.2.(.!.Y.8.>.8.{ . 8 B S Y 2     ",
"  h T A A G p a { 6.T.C.W.W.!./.3.!.Y.>.>.-.6.{ a i C A A K =   ",
"= R Z A C I ` ( Q +.%.6.Y.Y.E.~.7.8.8.-.=.-.4.Q _ L C C C T h   ",
"& m V Z B M l Q t Q +.+.+.=.:.;.:.=.=.+.+.-._ t ) J V V V C e   ",
"  5 M N M V D :   : W { #.*.&.&.@.@.@.+.} ) > . y G N N B v O   ",
"  o c I b H F #     . ' P.:XXX^.a.p.;.u.( .     7 b M N b 4     ",
"    * v H G x *       % d g.k.l.k.k.h.9.;     . 0 G H H e X     ",
"      4 F F x 6         . s 9.f.f.e.~ ;       # z x G q o       ",
"        6 q z 8               $ $ $           * z z 0 O         ",
"          * 9 9 o                             , q 6 X           ",
"            o , o                             , *               ",
"                                                                "
};
