/* XPM */
static char *Untitled_design__1_1748198605[] = {
/* columns rows colors chars-per-pixel */
"32 32 209 2 ",
"   c #000000",
".  c #0B060C",
"X  c #030808",
"o  c #09090D",
"O  c #14070A",
"+  c #0A0C12",
"@  c #120D18",
"#  c #021415",
"$  c #0C191B",
"%  c #16151B",
"&  c #23070D",
"*  c #32090A",
"=  c #241413",
"-  c #331817",
";  c #161622",
":  c #261A26",
">  c #351C32",
",  c #082527",
"<  c #13252D",
"1  c #122F37",
"2  c #0B383B",
"3  c #153539",
"4  c #28242C",
"5  c #222C32",
"6  c #35243D",
"7  c #3A3534",
"8  c #512218",
"9  c #612710",
"0  c #4A1120",
"q  c #41363C",
"w  c #752B30",
"e  c #0D3C41",
"r  c #372B45",
"t  c #223544",
"y  c #37344C",
"u  c #5B3D42",
"i  c #493B53",
"p  c #663946",
"a  c #75344C",
"s  c #104242",
"d  c #165259",
"f  c #2B4856",
"g  c #1A5C63",
"h  c #33576F",
"j  c #17626C",
"k  c #196D76",
"l  c #266A79",
"z  c #3C6577",
"x  c #357073",
"c  c #4D4950",
"v  c #49415D",
"b  c #5D4B55",
"n  c #50495E",
"m  c #5E545A",
"M  c #734D56",
"N  c #745455",
"B  c #475D6B",
"V  c #75506E",
"C  c #715868",
"Z  c #5B6465",
"A  c #586B78",
"S  c #77636A",
"D  c #960C18",
"F  c #933326",
"G  c #B02F34",
"H  c #EB2C16",
"J  c #E11D25",
"K  c #DF3A33",
"L  c #F0372F",
"P  c #9B4831",
"I  c #B1412B",
"U  c #D14D3C",
"Y  c #F0502F",
"T  c #F54B39",
"R  c #CF682E",
"E  c #F26F35",
"W  c #962A41",
"Q  c #BB3249",
"!  c #CD3D5D",
"~  c #9D4A53",
"^  c #B04D51",
"/  c #845F75",
"(  c #AF5F77",
")  c #907F7E",
"_  c #BA6D67",
"`  c #CD4E51",
"'  c #EC4843",
"]  c #DC6253",
"[  c #F47646",
"{  c #D55363",
"}  c #EB5B66",
"|  c #E26A6C",
" . c #E96E78",
".. c #F28C76",
"X. c #3D3E93",
"o. c #473E9C",
"O. c #56349E",
"+. c #583AA6",
"@. c #623FB4",
"#. c #28489B",
"$. c #297581",
"%. c #36748C",
"&. c #3A48A1",
"*. c #2E50A3",
"=. c #3C72AE",
"-. c #464691",
";. c #6F569C",
":. c #597F95",
">. c #6E7291",
",. c #5D47B6",
"<. c #4C52B3",
"1. c #6846A8",
"2. c #654EBA",
"3. c #387BCB",
"4. c #5D58C3",
"5. c #4B68C3",
"6. c #617CCE",
"7. c #8E5C86",
"8. c #8D6E91",
"9. c #A56790",
"0. c #A9719B",
"q. c #8659A9",
"w. c #946FAE",
"e. c #877AA4",
"r. c #9D73A5",
"t. c #AB73A2",
"y. c #B67BA7",
"u. c #D25A8D",
"i. c #C67684",
"p. c #E46883",
"a. c #E47D9C",
"s. c #D478A1",
"d. c #877AC4",
"f. c #298493",
"g. c #57838E",
"h. c #4D879D",
"j. c #6F869D",
"k. c #5B95B5",
"l. c #7692BB",
"z. c #59A1BF",
"x. c #2C8ED3",
"c. c #308CD2",
"v. c #2FA8D4",
"b. c #1FB3E6",
"n. c #23ABE4",
"m. c #2EBBEB",
"M. c #6080D3",
"N. c #48B1D4",
"B. c #6FACDF",
"V. c #52B0E4",
"C. c #66A0E2",
"Z. c #18CBF2",
"A. c #2CD1F1",
"S. c #19E8FD",
"D. c #4DE1F6",
"F. c #6BEAF8",
"G. c #888593",
"H. c #B18F9A",
"J. c #8A8FA8",
"K. c #8C8CAF",
"L. c #AB89A7",
"P. c #AC84B3",
"I. c #B489B4",
"U. c #BE9ABD",
"Y. c #ACA9BA",
"T. c #D98A9B",
"R. c #E58388",
"E. c #C289A9",
"W. c #DC85A1",
"Q. c #C89ABB",
"!. c #D091B3",
"~. c #D694B7",
"^. c #E797A9",
"/. c #C4A7AA",
"(. c #CDA3B6",
"). c #D5A8B5",
"_. c #E5A0B5",
"`. c #E7B5BC",
"'. c #8684C7",
"]. c #92B2C6",
"[. c #B1ADCB",
"{. c #C59CC3",
"}. c #C7A5C9",
"|. c #D5A7C6",
" X c #DCA4CC",
".X c #DCABCD",
"XX c #D8B5C6",
"oX c #DEACD3",
"OX c #DDBBD3",
"+X c #E3AACF",
"@X c #E5BAC9",
"#X c #E0ADD2",
"$X c #E4B5D4",
"%X c #E4BAD5",
"&X c #E6BDD9",
"*X c #E9B9D8",
"=X c #E9BDDA",
"-X c #F3B3E3",
";X c #8FD4F1",
":X c #8BE3F5",
">X c #A5E9F5",
",X c #DFC1C7",
"<X c #EBC6CB",
"1X c #F3D1CF",
"2X c #EAC5D6",
"3X c #E7C3D9",
"4X c #E9C4DB",
"5X c #F4C3EA",
"6X c #F9D3E1",
/* pixels */
"                            7 ) H./.H.C c 7 + X                 ",
"                        X S <X1X1X<X`.).).(.H.Z $               ",
"                        m 2X6X<XQ.L.J.l.l.l.L.L.j.,             ",
"                      = /.6X<XI.K.B.;XF.:XD.A.N.e.>.,           ",
"                      b @X1X~.4.C.B.;X;X>XF.S.S.N.e.l           ",
"                    < J.2X@XP.2.6.C.V.m.A.A.S.S.A.z.d           ",
"                    %.V.[.Q.d.@.,.5.M.x.n.m.Z.Z.Z.v.3           ",
"                    -.M.e.E.d.2.@.<.3.3.c.n.n.n.b.k.l X         ",
"                    ; ;.w.y.'.4.O.+.<.=.3.c.x.c.c.;.h.,   % t e ",
"                      : 7.E.}.'.1.O.o.&.&.*.*.#.o.>.j X + f %.e ",
"                        = / )..XP.q.1.O.o.X.X.-.>.x = ; r %.j X ",
"                    O w F F ^ H.(.Q.P.r.w.8.r.y.J.g G ~ i h k # ",
"            O : q b / { Y Y T U ^ _ _ { ` i.8.B 3 m ^.' M j #   ",
"          O Q W.@X2X=Xi.L R.`...[ E Y H L T I 8 c XX2X_.G.,     ",
"      o ; 6 Q _.3XY.A m ~.2X2X2X<X<X`. .T T ] _ @X2X,X].g X     ",
"    % r i v p ~ A $ 4 L.2X2X3X3X3X3X3XT.` ( E.OX<X[.g.<         ",
"      o < t < O & D 9.OX4X4X3X&X3X3X&X{.r.0.U.Y.:.3 X           ",
"                * J  .&X3X&X&X%X,X&X=XU.h.4 5 $                 ",
"            X 4 V `  .&X%X%X*X*X&X5X-XP.f.                      ",
"  . * - 4 b 8.XXoXi. .OX$X%X$X#X%X$X!.r.x                       ",
"@ > G i.|.$X2X2X=XE.i. X#X#X*X Xs.| K ` x                       ",
"% i G ^.%X=X=X*X#XE.0.y.{. X{.u.{ { ^ N s                       ",
"@ y W a.#X#X$X-X#Xj.i 7.t.t.u.u.!.oX{.$.                        ",
"@ i a p.+X+X#XoXJ.1   @ 6 V ~.%X=X*X[.g                         ",
"+ v m ! s.L.>.n $   . 9 M Q.*X&X=X$X].2                         ",
"X y f 0 a %         = R _.$X%X*X*X$Xk.#                         ",
"  + X             + > R ^.#X.X#X-X[.j                           ",
"                  @ 6 P R.|. X X Xh.#                           ",
"                  o r p ] ~.|.}.:.,                             ",
"                    ; i P } y.z +                               ",
"                    + i A w u #                                 ",
"                      ; d o                                     "
};
