/* XPM */
static char *_a2b599403e8482d8f0453d705cae538Ofe8rEcNpLfkbmWX[] = {
/* columns rows colors chars-per-pixel */
"32 32 186 2 ",
"   c #000000",
".  c #0C0302",
"X  c #050609",
"o  c #09070A",
"O  c #050C0F",
"+  c #0B090D",
"@  c #1C0808",
"#  c #0B0B11",
"$  c #120E10",
"%  c #091316",
"&  c #141114",
"*  c #16131A",
"=  c #19151A",
"-  c #230605",
";  c #380804",
":  c #27191D",
">  c #191623",
",  c #1C1A23",
"<  c #181728",
"1  c #1C1A2C",
"2  c #221B23",
"3  c #271C29",
"4  c #3B1D27",
"5  c #221E31",
"6  c #2B2323",
"7  c #23222D",
"8  c #2A212E",
"9  c #272131",
"0  c #2B2431",
"q  c #312734",
"w  c #312935",
"e  c #213438",
"r  c #3F3434",
"t  c #420D08",
"y  c #49171B",
"u  c #5E1819",
"i  c #6E1F1B",
"p  c #731E1A",
"a  c #7F211A",
"s  c #471A20",
"d  c #511E24",
"f  c #42232A",
"g  c #442F3D",
"h  c #702428",
"j  c #682C33",
"k  c #313C4F",
"l  c #0F217E",
"z  c #12217B",
"x  c #1E277A",
"c  c #272C7A",
"v  c #423641",
"b  c #553A46",
"n  c #6C3240",
"m  c #723742",
"M  c #4A3E7D",
"N  c #324658",
"B  c #3F4A5C",
"V  c #254679",
"C  c #444151",
"Z  c #42565B",
"A  c #684C57",
"S  c #625D5C",
"D  c #444E61",
"F  c #4F5869",
"G  c #5B5B78",
"H  c #6B4C60",
"J  c #6F526A",
"K  c #775D70",
"L  c #556279",
"P  c #6A7A7F",
"I  c #98190B",
"U  c #8A1D13",
"Y  c #921F15",
"T  c #A0140A",
"R  c #A71E11",
"E  c #A3231D",
"W  c #B8291B",
"Q  c #982021",
"!  c #AF2C27",
"~  c #B93029",
"^  c #A3363A",
"/  c #BC3C3B",
"(  c #C82B1B",
")  c #D0331F",
"_  c #CA3326",
"`  c #CA3428",
"'  c #CA3B31",
"]  c #943740",
"[  c #AC3C44",
"{  c #9C4552",
"}  c #BD4649",
"|  c #A54957",
" . c #AA505C",
".. c #B2525F",
"X. c #AA576C",
"o. c #B65360",
"O. c #88626A",
"+. c #8F6E76",
"@. c #AB6778",
"#. c #B56A75",
"$. c #D8574E",
"%. c #C36E79",
"&. c #122B8D",
"*. c #18308B",
"=. c #132F93",
"-. c #133295",
";. c #123B9E",
":. c #213C92",
">. c #1344A6",
",. c #1349AA",
"<. c #195FBC",
"1. c #3A64AE",
"2. c #367BBF",
"3. c #5E5793",
"4. c #67568E",
"5. c #6C5688",
"6. c #755C89",
"7. c #576180",
"8. c #786183",
"9. c #7C6C9C",
"0. c #4867AB",
"q. c #5E71AA",
"w. c #1E6BCE",
"e. c #1F70C8",
"r. c #1E6FD2",
"t. c #1E75D1",
"y. c #86658F",
"u. c #936284",
"i. c #99688C",
"p. c #9E7788",
"a. c #8F6B96",
"s. c #996F93",
"d. c #82719F",
"f. c #977398",
"g. c #AD6A85",
"h. c #A36E90",
"j. c #A77796",
"k. c #B37F9D",
"l. c #AC7EA0",
"z. c #C97882",
"x. c #2C86CA",
"c. c #2380DE",
"v. c #238CE4",
"b. c #2392E7",
"n. c #2F9CF3",
"m. c #37A9EF",
"M. c #29A8F6",
"N. c #28B8FA",
"B. c #42BDED",
"V. c #1EC5FE",
"C. c #20C1FD",
"Z. c #38D1FD",
"A. c #49C8FB",
"S. c #9E9694",
"D. c #AB848A",
"F. c #AD839C",
"G. c #B48C9B",
"H. c #AC88A3",
"J. c #B787A2",
"K. c #BD8BA4",
"L. c #BA9AA8",
"P. c #A1A4A5",
"I. c #BAAEAB",
"U. c #BAB2B0",
"Y. c #CF8A96",
"T. c #D4929D",
"R. c #C48DA0",
"E. c #CD94A5",
"W. c #C993A9",
"Q. c #CE99AC",
"!. c #D198A4",
"~. c #D29EAE",
"^. c #C8A7A0",
"/. c #D4AAA5",
"(. c #D6A1AE",
"). c #CAA3B2",
"_. c #D4A2B0",
"`. c #DBA6B2",
"'. c #D4AAB5",
"]. c #DEAAB4",
"[. c #CAB8B9",
"{. c #E1ABB5",
"}. c #E4AEB8",
"|. c #EABABC",
" X c #F9C8C3",
".X c #FFDACD",
/* pixels */
"                            O % % X                             ",
"                        e P P.U.I.S.S =                         ",
"                      Z [..X.X.X.X.X.X^.r                       ",
"                    e [. X X|.'.).).]. X/.6                     ",
"                    P |._.d.0.2.x.x.2.q.L.+.                    ",
"                  r L.`.3.<.m.N.C.V.Z.B.1.G.g                   ",
"                X G '.F.:.r.n.M.N.N.N.A.e.9.D.+                 ",
"                X V H.s.*.,.w.c.v.b.v.t.,.3.D.&                 ",
"          o #     k f.a.*.-.;.>.,.,.>.;.=.4.K X                 ",
"        + 2 3 + + % F f.M l &.=.-.-.-.&.c 8.7                   ",
"        * 8 8 8 *   % 7.a.M x z z z z c 5.v                     ",
"        , 0 0 0 :     : H u.y.6.5.5.6.u.b                       ",
"        O 7 0 0 a t : E T Q ^ { | | ^ E I @                     ",
"          * d U ) @.G.z.! | / _ ( ` }  .~ O.:                   ",
"          . p / z.].(.E.| R.~.E.E.E.`.!.#.}.G.6                 ",
"            # G H.Q.K.j.j.`.{.{.{.{.{.{.K.Q.}.D.$               ",
"              % N L D D J.`.].].{.{.{.{.G.F.Y.$.U .             ",
"                  X   B J.`.].].].{.{.}.p.b ~ Y p @             ",
"                      B l.~.{.].].{.{.{.O.@ u 8 0 ,             ",
"                      d X.k.~.].{.].`.W.m   = 8 0 8 +           ",
"                      h ( } j.J.K.K.F.o.Y   + # 3 2 X           ",
"                    & p.%.` [ i.s.i.| ' #.2     o X             ",
"                    k _.].Y.] 4 8 n ..T.}.A                     ",
"                    F `.{._.H     C K.{.}.O.                    ",
"                    J Q.(.K.g     j k.W.Q.A                     ",
"                  ; { h.j.@.y   . Y ..g.g.h                     ",
"                  - R _ ' W ;   X y R ( W t                     ",
"                  # 4 i p s +   # 1 3 f f 2                     ",
"                  > w w 0 1 #     < 5 0 q 8 X                   ",
"                  > 0 0 9 < X     X < 5 5 1 X                   ",
"                  # < 1 < +           # # X                     ",
"                      X                                         "
};
