/* XPM */
static char *_fadfd838ad24bf6e20faaeadc6259c1hVIklImkAzftwXBw[] = {
/* columns rows colors chars-per-pixel */
"32 32 195 2 ",
"   c #000000",
".  c #0C0301",
"X  c #040608",
"o  c #020C0D",
"O  c #0D0B0D",
"+  c #1B0301",
"@  c #020F10",
"#  c #0C0E11",
"$  c #051215",
"%  c #0B1313",
"&  c #04171A",
"*  c #0B121B",
"=  c #061A1D",
"-  c #0B1A1F",
";  c #171416",
":  c #18141A",
">  c #2D0A0A",
",  c #311315",
"<  c #051E23",
"1  c #0E1925",
"2  c #171C2A",
"3  c #131F3B",
"4  c #261C2A",
"5  c #381C2A",
"6  c #09282C",
"7  c #1E262B",
"8  c #0C2C31",
"9  c #102C32",
"0  c #1F343C",
"q  c #2A2427",
"w  c #2A242C",
"e  c #242534",
"r  c #2C2433",
"t  c #2C2D3C",
"y  c #332A3B",
"u  c #31323D",
"i  c #5C1D0E",
"p  c #491610",
"a  c #48201E",
"s  c #58282E",
"d  c #432A39",
"f  c #543135",
"g  c #66222F",
"h  c #6C2E37",
"j  c #192747",
"k  c #0F3842",
"l  c #1B3E49",
"z  c #1D3358",
"x  c #2D2F42",
"c  c #372E40",
"v  c #283647",
"b  c #3C3247",
"n  c #37394B",
"m  c #1F3462",
"M  c #253662",
"N  c #503950",
"B  c #7D3A45",
"V  c #0A424C",
"C  c #144046",
"Z  c #294151",
"A  c #2F525E",
"S  c #33555A",
"D  c #1F4D60",
"F  c #2D4268",
"G  c #3A4565",
"H  c #2E5060",
"J  c #3C6475",
"K  c #58484C",
"L  c #5D4A54",
"P  c #764754",
"I  c #4A4B65",
"U  c #654D63",
"Y  c #685566",
"T  c #44717A",
"R  c #74626A",
"E  c #9F180B",
"W  c #B32313",
"Q  c #87232A",
"!  c #9D2924",
"~  c #92303F",
"^  c #AB3D28",
"/  c #B22830",
"(  c #AF3834",
")  c #B4383E",
"_  c #C5231C",
"`  c #D73D2D",
"'  c #C63734",
"]  c #EA3F27",
"[  c #E23B2E",
"{  c #AE452A",
"}  c #D3491D",
"|  c #CB453C",
" . c #D44636",
".. c #E54029",
"X. c #E45729",
"o. c #903A53",
"O. c #8B3B62",
"+. c #93484B",
"@. c #905854",
"#. c #BB424A",
"$. c #B64A52",
"%. c #BE4A55",
"&. c #93546F",
"*. c #835176",
"=. c #935B78",
"-. c #B45F70",
";. c #846C72",
":. c #BE6773",
">. c #C94241",
",. c #DF5A43",
"<. c #CA5C66",
"1. c #CE6E6F",
"2. c #CC6973",
"3. c #2C7184",
"4. c #3B7481",
"5. c #227191",
"6. c #6B5882",
"7. c #4A7D8E",
"8. c #5B7585",
"9. c #6E7186",
"0. c #636C91",
"q. c #6E7C98",
"w. c #7A7990",
"e. c #5C7CA5",
"r. c #727CB1",
"t. c #A05E81",
"y. c #886488",
"u. c #946689",
"i. c #8F718E",
"p. c #997786",
"a. c #9D6F92",
"s. c #87729D",
"d. c #8B7A98",
"f. c #967197",
"g. c #B56F82",
"h. c #A77E87",
"j. c #B2758F",
"k. c #A77797",
"l. c #B87B98",
"z. c #CA7A8E",
"x. c #2F8FB2",
"c. c #5B8891",
"v. c #7F96AD",
"b. c #9E8285",
"n. c #8A9699",
"m. c #A98E8E",
"M. c #AA8498",
"N. c #878BA5",
"B. c #9889A7",
"V. c #A985A7",
"C. c #AB88A7",
"Z. c #B185A5",
"A. c #B793A6",
"S. c #BD93AB",
"D. c #B592B4",
"F. c #BE94B2",
"G. c #91A6B4",
"H. c #BAADAE",
"J. c #DB8E8A",
"K. c #E39A9E",
"L. c #C58FA4",
"P. c #C197AE",
"I. c #C399AF",
"U. c #D89FAB",
"Y. c #C095B4",
"T. c #C89CB6",
"R. c #D09DB1",
"E. c #C4A5AB",
"W. c #CCA2B5",
"Q. c #CCA4BB",
"!. c #D3A5BB",
"~. c #D5ABBB",
"^. c #D7ACB9",
"/. c #D4B3BC",
"(. c #DBB2BE",
"). c #E1A8B9",
"_. c #8DA6CB",
"`. c #BCB0C1",
"'. c #D5AAC1",
"]. c #DBAFC2",
"[. c #DEB1C2",
"{. c #D8B7C3",
"}. c #E0AFC1",
"|. c #E4BBC4",
" X c #E9BDC4",
".X c #E5B5C9",
"XX c #E5B6CA",
"oX c #E9B9CE",
"OX c #EDBED4",
"+X c #D8C1C9",
"@X c #E6C7CA",
"#X c #ECC4CB",
"$X c #F2C5CA",
"%X c #FDCDCD",
"&X c #FFD2D1",
/* pixels */
"                            X % % X                             ",
"                        O L m.E.H.n.S o                         ",
"                      ; b.#X$X$X$X&X@Xc.&                       ",
"                    X ;.#X#X#X#X#X X%X+X4.X                     ",
"                    q ~.#X#X#X#X#X|. X XG.8                     ",
"                    K |.#X#X#X#X#X#X(.^.`.3.X                   ",
"                    U (.(.(.(.(.[.|.^.W._.x.@     o X           ",
"                    N I.^.^.^.^.^.^.!.Z.r.5.o $ # v <           ",
"                    2 i.S.S.S.S.P.I.S.u.e.V . v t Z &           ",
"                      u y.=.&.&.=.u.y.6.D X . r c x k           ",
"                      . Q [ ] ] ..` ~ n X   p ^ f l 6           ",
"                    , E / <.2.2.<.#._ W a q h.1.( 0             ",
"                X K M.#.:.~.].].~.j._ %.E.E.{.W.Y #             ",
"              X R (.~.k.R.[.[..X.XL.o.a.W.^.W.N.9               ",
"              f /.Q.B.d.].[..XOX.XW.f.0.9.d.q.l                 ",
"            + | U.V.H R }..XOXoX[.!.C.4.$ - $                   ",
"            ; ! ' P $ ;.oXOXOX}.[.W.C.7.X                       ",
"          X 4 4 5 7 X p.oX.X[.].].F.k.8.o                       ",
"          O 4 2 1 < > -.'.].].].Q.g.| +.1                       ",
"          X * *     , >.l.T.T.Y.j.` $.S.8.@                     ",
"                    Y z.%.t.k.f.#.) Z.[.{.T X                   ",
"                  ; A.].l.O.N t g *.V.T.T.v.6                   ",
"                  L ~.~.F.s.l   X u y.f.Z.B.C                   ",
"                w T.oX}.Y.q.<     4 M.!.!.B.l                   ",
"              . @.K.).~.D.J       N !..X!.N.8                   ",
"              i ^ { ,.z.N.6     . { J.U.L.w.&                   ",
"              y I b Q $.A       . g } X. .B o                   ",
"              j F G d h %       X r d s s r $                   ",
"              3 m M v 1         X t n b y x k                   ",
"              * z M F 8           X : e e e *                   ",
"                1 j z =                                         ",
"                  X X                                           "
};
