/* XPM */
static char *_6b9eba8438d4603e9de4110224092f7Bq6YPjoaTkjWHaEb[] = {
/* columns rows colors chars-per-pixel */
"32 32 217 2 ",
"   c #000000",
".  c #0B060C",
"X  c #030808",
"o  c #09090D",
"O  c #14070A",
"+  c #0A0C12",
"@  c #130D19",
"#  c #021415",
"$  c #0C191B",
"%  c #16151C",
"&  c #23070D",
"*  c #32090A",
"=  c #241413",
"-  c #331817",
";  c #161622",
":  c #261A26",
">  c #351D32",
",  c #082527",
"<  c #13252D",
"1  c #122F37",
"2  c #0B383B",
"3  c #153539",
"4  c #28242C",
"5  c #222C32",
"6  c #35243D",
"7  c #3A3534",
"8  c #512218",
"9  c #612710",
"0  c #4A1120",
"q  c #41363C",
"w  c #752B30",
"e  c #0D3C41",
"r  c #372B45",
"t  c #223544",
"y  c #37344C",
"u  c #3F3954",
"i  c #5B3D42",
"p  c #493B53",
"a  c #663946",
"s  c #75344C",
"d  c #114342",
"f  c #165259",
"g  c #2B4856",
"h  c #1A5C63",
"j  c #33576F",
"k  c #17626C",
"l  c #196D76",
"z  c #266A79",
"x  c #3C6577",
"c  c #357073",
"v  c #4D4950",
"b  c #49415D",
"n  c #5D4B55",
"m  c #50495E",
"M  c #5E545A",
"N  c #734D56",
"B  c #745455",
"V  c #475D6B",
"C  c #575A69",
"Z  c #75506E",
"A  c #715868",
"S  c #5B6465",
"D  c #586B78",
"F  c #77636B",
"G  c #960C18",
"H  c #933326",
"J  c #B02F34",
"K  c #EB2C16",
"L  c #E11D25",
"P  c #DF3A33",
"I  c #F0372F",
"U  c #9B4831",
"Y  c #B1412B",
"T  c #D14D3C",
"R  c #F0502F",
"E  c #F54B39",
"W  c #CF682E",
"Q  c #F26F35",
"!  c #962A41",
"~  c #BB3249",
"^  c #CD3D5D",
"/  c #9D4A53",
"(  c #B04D51",
")  c #845F75",
"_  c #AF5F77",
"`  c #907F7E",
"'  c #BA6D67",
"]  c #CD4E51",
"[  c #EC4843",
"{  c #DC6253",
"}  c #F47646",
"|  c #D55363",
" . c #EB5B66",
".. c #E96E78",
"X. c #F28C76",
"o. c #3D3E93",
"O. c #473E9C",
"+. c #56349E",
"@. c #583AA6",
"#. c #623FB4",
"$. c #28489B",
"%. c #297581",
"&. c #36748C",
"*. c #3A48A1",
"=. c #2E50A3",
"-. c #3C72AE",
";. c #464691",
":. c #534397",
">. c #6F569C",
",. c #597F95",
"<. c #6E7291",
"1. c #5D47B6",
"2. c #4C52B4",
"3. c #6846A8",
"4. c #654EBA",
"5. c #7B71BE",
"6. c #387BCB",
"7. c #5D58C3",
"8. c #4B68C3",
"9. c #437FCE",
"0. c #617CCE",
"q. c #8E5C86",
"w. c #8D6E91",
"e. c #A66790",
"r. c #A9719B",
"t. c #8659A9",
"y. c #946FAE",
"u. c #877AA4",
"i. c #9D73A5",
"p. c #B67BA7",
"a. c #D25A8D",
"s. c #C67684",
"d. c #E56883",
"f. c #E47D9C",
"g. c #D478A1",
"h. c #877AC5",
"j. c #298493",
"k. c #57838E",
"l. c #4D879D",
"z. c #6F869D",
"x. c #5B95B5",
"c. c #7B8EBC",
"v. c #7692BB",
"b. c #59A1BF",
"n. c #2C8ED4",
"m. c #308CD2",
"M. c #2FA8D5",
"N. c #1FB3E6",
"B. c #23ABE4",
"V. c #2EBBEB",
"C. c #5597DB",
"Z. c #6080D3",
"A. c #48B1D4",
"S. c #6FACDF",
"D. c #52B0E4",
"F. c #66A0E2",
"G. c #1BC6EE",
"H. c #18CBF2",
"J. c #2CD1F1",
"K. c #1AE8FD",
"L. c #7BD1F0",
"P. c #4DE1F6",
"I. c #6BEAF8",
"U. c #888693",
"Y. c #998091",
"T. c #B18F9A",
"R. c #8A8FA8",
"E. c #8C8CAF",
"W. c #AB89A7",
"Q. c #AC84B3",
"!. c #B489B4",
"~. c #BE9ABD",
"^. c #ACA9BA",
"/. c #C6839E",
"(. c #D98A9B",
"). c #E58488",
"_. c #C289A9",
"`. c #DC86A1",
"'. c #C89ABB",
"]. c #D091B3",
"[. c #D795B7",
"{. c #E797A9",
"}. c #C4A7AA",
"|. c #CDA3B6",
" X c #D5A8B5",
".X c #E5A0B5",
"XX c #E7B5BC",
"oX c #8684C7",
"OX c #92B2C6",
"+X c #B1ADCB",
"@X c #C69CC3",
"#X c #C7A5C9",
"$X c #D5A7C6",
"%X c #DCA4CC",
"&X c #DCABCD",
"*X c #D8B5C6",
"=X c #DEACD3",
"-X c #DDBBD3",
";X c #E3AACF",
":X c #E5BAC9",
">X c #E0ADD2",
",X c #E4B5D4",
"<X c #E4BAD5",
"1X c #E6BDD9",
"2X c #E9B9D8",
"3X c #E9BDDA",
"4X c #F3B4E4",
"5X c #8FD5F1",
"6X c #8BE3F5",
"7X c #A5E9F5",
"8X c #EBC6CB",
"9X c #F3D1CF",
"0X c #EAC5D6",
"qX c #E7C3D9",
"wX c #E9C4DB",
"eX c #F4C3EA",
"rX c #F9D4E1",
/* pixels */
"                  % 7 v A T.}.}.` 7                             ",
"              $ S T. X X XXX:X8X9X8XF X                         ",
"            < <.W.E.c.v.c.E.W.|.8XrX0XM                         ",
"          , <.u.A.J.P.6XL.5XS.c.!.8XrX}.%                       ",
"          z u.A.K.K.I.7X6X5XL.F.5.'.8X:Xn                       ",
"          f b.J.K.K.J.J.V.D.C.0.4.y.:X8XR.<                     ",
"          2 M.G.H.H.N.B.m.9.8.1.#.h. X+XD.&.                    ",
"        X z x.N.B.B.B.n.6.8.2.@.1.h.].5.Z.j                     ",
"e 3 @   , l.>.m.n.n.m.6.-.2.@.@.7.oXp.y.>.;                     ",
"d j.u + X k <.;.$.=.=.*.*.O.+.3.oX#X_.q.:                       ",
"X k x r % = z u.:.o.o.O.O.3.t.!.*X X) %                         ",
"# l j p / J h R.p.i.y.y.i.!.'.|.T.( H H w O                     ",
"  # k B [ {.M 3 V U.s.] ] ' ' ( T E R E | F M q : &             ",
"    1 U.{.0X*Xv 8 Y E I K R Q } X.XX).P s.<X0X:X`.~ O           ",
"    X h OX-X3X*Xs.{ E I ..XXXX:X0XqXqX].C D ^.qX{.~ 6 ; o       ",
"        < k.+X<X,X_._ ] (.wXwXwXqXqXqXqXW.4 ; C / a b u r @     ",
"          X 3 k.^.~.r.w.'.qX1XqXqXqXqXqX-Xe.G & o < t < .       ",
"              X $ 5 4 l.~.3X1X1X1X1X1XwX1Xd.L *                 ",
"                      &.Q.2XeX<X<X<X<X<X1X..] A 4 X             ",
"                      z i.].2X1X<X,X,X<X,X..s.<X*XY.n 4 - * X   ",
"                    X c T P  .`.&X,X,X<X$Xs./.<XwXwX<X$X(.J > @ ",
"                      d B ( | | a.'.&X@Xp.r._.,X2X1X1X<X{.J r ; ",
"                      X %.#X&X[.a.a.r.r.q.b z.>X4X,X,X>Xf.! y % ",
"                        h +X2X1X<X[.Z 6 @   1 R.=X;X;X%Xd.s u @ ",
"                        2 OX,X1X2X1X'.N 9     $ m w.W.g.^ A m o ",
"                        # x.>X2X1X1X,X.XW =         $ s 0 g y   ",
"                          k +X4X>X&X=X{.W > +             X o   ",
"                          # l.#X%X%X%X).U 6 @                   ",
"                            , ,.@X%X[.{ a 6 .                   ",
"                              # x g. ./ p ;                     ",
"                                # i w D p .                     ",
"                                    X f ;                       "
};
