/* XPM */
static char *Untitled_design1748198605[] = {
/* columns rows colors chars-per-pixel */
"32 32 202 2 ",
"   c #000000",
".  c #070408",
"X  c #010A0A",
"o  c #0D0B0C",
"O  c #140706",
"+  c #0E0C12",
"@  c #150E1B",
"#  c #021111",
"$  c #07181B",
"%  c #13111B",
"&  c #191618",
"*  c #2C0D09",
"=  c #261618",
"-  c #1C0F23",
";  c #191B2A",
":  c #221829",
">  c #281D30",
",  c #062224",
"<  c #0B282B",
"1  c #132A2E",
"2  c #142D32",
"3  c #1B2934",
"4  c #0B3538",
"5  c #2A262A",
"6  c #342427",
"7  c #29283B",
"8  c #392838",
"9  c #491A18",
"0  c #501819",
"q  c #793C16",
"w  c #7E1F20",
"e  c #55323D",
"r  c #063E40",
"t  c #382846",
"y  c #38324B",
"u  c #4D324B",
"i  c #483C4A",
"p  c #5A3D4B",
"a  c #453957",
"s  c #084B4D",
"d  c #0D4E52",
"f  c #1A4C53",
"g  c #2E4554",
"h  c #314057",
"j  c #325565",
"k  c #395E79",
"l  c #27666C",
"z  c #2B6A79",
"x  c #56464E",
"c  c #444F51",
"v  c #465965",
"b  c #545068",
"n  c #715467",
"m  c #6B696F",
"M  c #891E0C",
"N  c #9B2539",
"B  c #E82B13",
"V  c #D3322E",
"C  c #F02B20",
"Z  c #E33D3E",
"A  c #B04C3A",
"S  c #D35333",
"D  c #E74331",
"F  c #FA4933",
"G  c #C6622B",
"H  c #8C364D",
"J  c #9E4545",
"K  c #834B5C",
"L  c #B55050",
"P  c #BE5D6A",
"I  c #CF5253",
"U  c #EB4B4B",
"Y  c #ED5054",
"T  c #C0604B",
"R  c #D66851",
"E  c #F57E51",
"W  c #DA5866",
"Q  c #E44068",
"!  c #E64F70",
"~  c #CB6875",
"^  c #DD6874",
"/  c #E47479",
"(  c #F1825B",
")  c #F28B7F",
"_  c #373D8E",
"`  c #4A3F9B",
"'  c #593C9E",
"]  c #5839A5",
"[  c #2B4397",
"{  c #296F80",
"}  c #364BA2",
"|  c #2769B5",
" . c #4B4394",
".. c #497A84",
"X. c #717189",
"o. c #5A5FA0",
"O. c #4F4FB2",
"+. c #5549B0",
"@. c #654BAC",
"#. c #6C71A2",
"$. c #3A78C8",
"%. c #4C64C1",
"&. c #6265C6",
"*. c #7D7AC8",
"=. c #815984",
"-. c #997D95",
";. c #A86A98",
":. c #AB7897",
">. c #BB7E9A",
",. c #986DA6",
"<. c #9E74A5",
"1. c #8369BB",
"2. c #A86DA3",
"3. c #B178A6",
"4. c #D45487",
"5. c #C85292",
"6. c #C86F8F",
"7. c #D66B84",
"8. c #D17884",
"9. c #EB7C96",
"0. c #468B9D",
"q. c #5B92AE",
"w. c #7689AD",
"e. c #2E83CC",
"r. c #3395D9",
"t. c #3DAECF",
"y. c #19BDEC",
"u. c #23A6E2",
"i. c #2AB2E7",
"p. c #4A92CF",
"a. c #709FCE",
"s. c #6798DB",
"d. c #46B4D6",
"f. c #78BBD9",
"g. c #5CB1E2",
"h. c #6CBAE8",
"j. c #19C4EF",
"k. c #34CDEC",
"l. c #1AE7FC",
"z. c #4BCCEF",
"x. c #61D0ED",
"c. c #7DEDF9",
"v. c #8F8689",
"b. c #B38497",
"n. c #B5999B",
"m. c #B1A19F",
"M. c #8081AB",
"N. c #8094AF",
"B. c #9D8EB3",
"V. c #AA83A5",
"C. c #B491AB",
"Z. c #BA9DA9",
"A. c #B085B0",
"S. c #ACAFB0",
"D. c #BAB6B7",
"F. c #E28D98",
"G. c #C388AC",
"H. c #C596AA",
"J. c #C292B3",
"K. c #C698B7",
"L. c #DA99BB",
"P. c #E786A2",
"I. c #EB98AA",
"U. c #CBA5B7",
"Y. c #CFACB6",
"T. c #EEA8B8",
"R. c #8C90C7",
"E. c #AC97C9",
"W. c #86B3C4",
"Q. c #B5A7C6",
"!. c #CD9BC1",
"~. c #D99FC1",
"^. c #D4A6C4",
"/. c #D3ABC3",
"(. c #DDADC6",
"). c #D9A6C9",
"_. c #DFA6CD",
"`. c #CABBCB",
"'. c #DCB2CF",
"]. c #E2B3CC",
"[. c #E0A5D2",
"{. c #E4B5D5",
"}. c #E4BAD5",
"|. c #E6BCD9",
" X c #E9B8DA",
".X c #ECB1E0",
"XX c #F2B8E3",
"oX c #FABAF1",
"OX c #9FE2F6",
"+X c #ADEDF7",
"@X c #CEC0CF",
"#X c #CAC3D7",
"$X c #E5C0CB",
"%X c #EAC4D5",
"&X c #E7C2D9",
"*X c #E9C3D9",
"=X c #E8C9DD",
"-X c #EDD8DC",
";X c #F0D6D6",
":X c #F4C1EA",
">X c #F4E3E6",
",X c #F5EDF2",
/* pixels */
"                        o = & . o + .                           ",
"                    & m m.Y.Z.n.n.n.v.c $                       ",
"                  6 D.>X;X$XY.S.B.B.V.V.X.2                     ",
"                o S.,X>X`.B.a.g.x.k.k.d.M.#.4                   ",
"                c ,X>X`.a.h.OX+X+Xc.l.l.k.w.f                   ",
"                X.>X-XR.s.h.h.h.z.l.l.l.j.d.r                   ",
"              + m.-X}.*.&.&.p.r.i.y.j.j.y.t.{ X                 ",
"              j f.`./.*.+.&.%.$.p.r.u.u.u.q.q.s                 ",
"              k g.R.K.*.@.] O.%.$.e.e.e.| o.q.s                 ",
"              ; @.1.A.R.&.] ] ` } } } [ _ #.f                   ",
"                > =.>.).E.1.@.' ` `  . .=.N.4                   ",
"                . + x b.Y.(.G.3.,.,.<.3.-.v #                   ",
"                    O 9 J 8.H.Y.K.Z.b.m ;                       ",
"                  9 S D C B S T T I Z S A x $                   ",
"                  X J F U / ( ( E ) U F I v #                   ",
"                  e :.W 9.&X%X$X%X;XF.Z >...X                   ",
"                8 U.(.G.'.&X&X=X&X*X}.H.(.@X..X                 ",
"              ; Z.*X].!.}.|.|.&X*X|.&XQ.#X=X@Xj X               ",
"            0 I T.}.^.!.:X|.|.}.&X*X}.Q.W.:XI.~ f               ",
"            = J S ^ 6.G.:X}.{.|.}.|.{.C.-.7.I m ,               ",
"          . y b t M B U P.{.{.{.}.}.L.Y V K u k d               ",
"          ; 7 7 - = P W Q !.{.{.}.).^ ^ G.0.h a { <             ",
"          % %     i '.L.4.5.).(.!.>.~ (.XXW.1 % 3 4             ",
"                . -.}.|.~.5.;.2.2.;.U.|. X#Xl     .             ",
"                & K. X|.}.A.a u t i ^.}.XX Xq.X                 ",
"                e [.oXXX}.E.1     5 ^.}.:XXXW.,                 ",
"                x [..X.X{.Q.3     & K. X*X{.J.b #               ",
"              O A F.L._.L.7.e     * ~ P.P.9.! m $               ",
"                q G R R W L 6     O w N H H n z X               ",
"                @ 8 e p n ..,       : t y a n k d               ",
"                o - : 7 g l ,       . + @ % % ; ,               ",
"                        X                                       "
};
