/* XPM */
static char *Untitled_design__2_1748198605[] = {
/* columns rows colors chars-per-pixel */
"32 32 160 2 ",
"   c #000000",
".  c #05040B",
"X  c #0C070D",
"o  c #07080E",
"O  c #0C080F",
"+  c #0B0711",
"@  c #0B0B13",
"#  c #090719",
"$  c #0B0A1C",
"%  c #110B15",
"&  c #150D1A",
"*  c #0E1018",
"=  c #1B101F",
"-  c #0D0A24",
";  c #120B20",
":  c #120C2B",
">  c #161927",
",  c #1C1328",
"<  c #180F31",
"1  c #1A1233",
"2  c #1B1C32",
"3  c #161239",
"4  c #1A123B",
"5  c #24152C",
"6  c #281934",
"7  c #2A1E3D",
"8  c #321C39",
"9  c #1A1444",
"0  c #1E194E",
"q  c #261A40",
"w  c #23184C",
"e  c #221B54",
"r  c #231D59",
"t  c #291E5B",
"y  c #202442",
"u  c #332146",
"i  c #3E264B",
"p  c #332250",
"a  c #322E55",
"s  c #3E2558",
"d  c #3C2D5B",
"f  c #231D63",
"g  c #2A1E62",
"h  c #2D236C",
"j  c #332363",
"k  c #36236E",
"l  c #33296D",
"z  c #273160",
"x  c #293062",
"c  c #3B3C67",
"v  c #272371",
"b  c #2B277E",
"n  c #35277A",
"m  c #342879",
"M  c #39297D",
"N  c #402754",
"B  c #4E2F62",
"V  c #57336B",
"C  c #493A7E",
"Z  c #553977",
"A  c #352B86",
"S  c #3F368B",
"D  c #372B91",
"F  c #3A2C94",
"G  c #3E35A6",
"H  c #412984",
"J  c #463188",
"K  c #56318D",
"L  c #49339F",
"P  c #54329A",
"I  c #633F89",
"U  c #4535A3",
"Y  c #4B34A3",
"T  c #4437A9",
"R  c #4B3CAD",
"E  c #5C37A2",
"W  c #553AAC",
"Q  c #5B3CAE",
"!  c #5A3DB2",
"~  c #623FAE",
"^  c #663FB3",
"/  c #6A3DB3",
"(  c #3C4791",
")  c #474F8F",
"_  c #4C4D94",
"`  c #4B4D9A",
"'  c #574396",
"]  c #5E4393",
"[  c #515692",
"{  c #555C9E",
"}  c #6D4284",
"|  c #73438C",
" . c #68429A",
".. c #6E4E98",
"X. c #784596",
"o. c #78489E",
"O. c #4F51A2",
"+. c #5352AC",
"@. c #4D49B4",
"#. c #5543B6",
"$. c #5E44B4",
"%. c #564EBD",
"&. c #6A45AD",
"*. c #6A48AC",
"=. c #7344AF",
"-. c #7048A8",
";. c #7F54A7",
":. c #6443B4",
">. c #6D44B5",
",. c #614CB7",
"<. c #6D48B7",
"1. c #6944B9",
"2. c #674EBD",
"3. c #6C4CBD",
"4. c #754FB5",
"5. c #7D4BB7",
"6. c #7445B9",
"7. c #7843B8",
"8. c #734DBD",
"9. c #7A4DBE",
"0. c #7353BE",
"q. c #7A51BE",
"w. c #6069B5",
"e. c #6C6DBF",
"r. c #5B55C2",
"t. c #6B5CC6",
"y. c #7652C2",
"u. c #7D52C2",
"i. c #745CC6",
"p. c #7D59C9",
"a. c #6561C7",
"s. c #6A63C6",
"d. c #6566CB",
"f. c #7163C8",
"g. c #804E9B",
"h. c #884FAD",
"j. c #834CBC",
"k. c #8B4CBE",
"l. c #8C51B2",
"z. c #8654BB",
"x. c #9155BB",
"c. c #975BBB",
"v. c #874DC0",
"b. c #8E4FC2",
"n. c #8455C2",
"m. c #8C54C3",
"M. c #845AC6",
"N. c #8E5AC3",
"B. c #835ECB",
"V. c #8F5ECD",
"C. c #9454C3",
"Z. c #9D55C4",
"A. c #9359C5",
"S. c #9C5BC6",
"D. c #9C5DC9",
"F. c #A458C7",
"G. c #A65DCA",
"H. c #8269CE",
"J. c #9A61C7",
"K. c #8D67D0",
/* pixels */
"                                                                ",
"                                                                ",
"                    . & X                                       ",
"                    d ;.g.i .                                   ",
"                  # h.M.,.N.p                                   ",
"                  6 J.0.2.u.j       @ * o                       ",
"                  & *.M.9.J $   , c [ ` _ 2         .           ",
"                    w F A - = } c.q.s.f.s.C O                   ",
"                . o . . . 8 o.8.F.G.D.D.A.C.K                   ",
"              o z ( ) Z | 5.$.8.S.A.8.C.F.x.K .                 ",
"              x @.%.d.M.F.5.9.m.z.S.C.k.7.P 1                   ",
"            2 +.r.a.M.F.Z.j.5.Z.Z.F.k./ H :                     ",
"          7 4.t.i.n.Z.C.:.$.$.C.Z.k./ H #     @ > o             ",
"        . ] V.m.C.n.n.A.q.9.b.b.k.6.! <     % ..e.{ [ a         ",
"          C 1.8.1.1.y.y.n.z.b.j.~ Y W 4     B D.2.i.K.&.;       ",
"          # g M m g S T @.Q ^ W D F Q t   5 -.j.N.C.v.E ;       ",
"              .     $ S R ! ^ W L L M -   N 1.2.A.m.:.w         ",
"              o *     $ t M n g 9 : .     N q.u.N.y.M .         ",
"            y ` w.d                       , 4.y.$.#.e           ",
"          @ O.t.H.z.s &                     l #.R A #           ",
"          @ +.B.M.q.m. .#         O 5 &     + r 0 #             ",
"          . ' p.y.y.3.J .       6 X.x.h.p                       ",
"            1 l h n h ;     % V l.>.$.C.=.1                     ",
"                .         O I M.C.<.9.j.:.k                     ",
"                          u n.u.A.m.m.<.Y f                     ",
"                          q 0.n.8.! ! W A -                     ",
"                          . g U R T G T 9                       ",
"                              - f b v 3                         ",
"                                                                ",
"                                                                ",
"                                                                ",
"                                                                "
};
